%
(Header)
(Generated by gcodetools from Inkscape.)
(Using default header. To add your own header create file "header" in the output dir.)
M3
(Header end.)
G21 (All units in mm)
    (Z axis offset)
    (X axis offset)
    (Y axis offset)
   (XY Scale factor)
   (Z Scale factor)
   (Feed definition)

(Start cutting path id: path567)
(Simple flower pattern. 178x736.125000mm)
(Change tool to Cone cutter)

G00 Z6.875000
G00 X124.125000 Y0.567986

G01 Z-0.687500 F 1000.000000(Penetrate)
G02 X93.103107 Y6.643665 Z-0.687500 I27.548609 J222.896225 F 1000.000000
G02 X79.687500 Y12.572048 Z-0.687500 I12.609105 J46.677302
G02 X75.718740 Y15.866178 Z-0.687500 I11.185812 J17.514476
G02 X74.311414 Y18.301324 Z-0.687500 I4.506378 J4.228575
G02 X73.989624 Y19.708382 Z-0.687500 I9.927947 J3.010819
G02 X73.126373 Y25.875000 Z-0.687500 I190.751851 J29.846656
G03 X70.488234 Y46.060121 Z-0.687500 I-1442.625387 J-178.282133
G03 X70.289074 Y46.461101 Z-0.687500 I-0.696515 J-0.095998
G03 X70.023955 Y46.595815 Z-0.687500 I-0.338808 J-0.338543
G03 X68.687677 Y46.710450 Z-0.687500 I-1.498837 J-9.625985
G02 X66.263853 Y47.517112 Z-0.687500 I0.071091 J4.258446
G02 X64.469089 Y49.759616 Z-0.687500 I3.154148 J4.363851
G03 X63.697723 Y51.265249 Z-0.687500 I-11.358965 J-4.869018
G03 X63.482078 Y51.398940 Z-0.687500 I-0.238162 J-0.143394
G02 X60.818466 Y52.016232 Z-0.687500 I0.757825 J9.325384
G02 X59.356916 Y53.019731 Z-0.687500 I1.438492 J3.661188
G02 X58.328337 Y54.443065 Z-0.687500 I5.590560 J5.123368
G02 X58.125000 Y55.223554 Z-0.687500 I1.396248 J0.780489
G03 X57.433575 Y57.058573 Z-0.687500 I-2.780753 J-0.000000
G03 X55.906065 Y57.750000 Z-0.687500 I-1.527510 J-1.341584
G02 X53.763683 Y58.328440 Z-0.687500 I0.000000 J4.256616
G02 X51.477563 Y60.329415 Z-0.687500 I4.015669 J6.894351
G02 X50.860622 Y62.025721 Z-0.687500 I2.326348 J1.806428
G02 X51.335254 Y64.132935 Z-0.687500 I4.214868 J0.157698
G03 X52.087955 Y65.657171 Z-0.687500 I-34.588923 J18.028738
G03 X52.125000 Y65.824046 Z-0.687500 I-0.357336 J0.166875
G03 X51.745611 Y66.116252 Z-0.687500 I-0.302223 J0.000000
G03 X49.830056 Y65.217997 Z-0.687500 I1.506247 J-5.703735
G02 X48.663027 Y64.639552 Z-0.687500 I-2.391681 J3.358800
G02 X47.147168 Y64.383502 Z-0.687500 I-1.706019 J5.484836
G02 X45.950491 Y64.785820 Z-0.687500 I-0.059729 J1.803229
G02 X45.375000 Y65.821755 Z-0.687500 I1.001742 J1.234314
G03 X44.813329 Y66.848671 Z-0.687500 I-1.583821 J-0.199209
G03 X43.740041 Y67.184722 Z-0.687500 I-0.943690 J-1.132010
G03 X42.351938 Y66.871888 Z-0.687500 I0.469629 J-5.319881
G03 X40.420369 Y65.953046 Z-0.687500 I4.197952 J-11.314514
G02 X38.489022 Y65.094076 Z-0.687500 I-4.707750 J7.984369
G02 X37.164351 Y64.930804 Z-0.687500 I-1.106990 J3.525960
G03 X35.851236 Y64.774569 Z-0.687500 I-0.220739 J-3.741060
G03 X34.622437 Y64.156226 Z-0.687500 I1.182089 J-3.879237
G02 X33.375588 Y63.569300 Z-0.687500 I-2.096207 J2.835274
G02 X31.172563 Y63.300000 Z-0.687500 I-2.203025 J8.876342
G03 X28.959485 Y63.070510 Z-0.687500 I0.000000 J-10.785592
G03 X28.034148 Y62.642036 Z-0.687500 I0.464866 J-2.217353
G02 X25.259406 Y61.161021 Z-0.687500 I-5.691841 J7.324094
G02 X24.007331 Y61.307970 Z-0.687500 I-0.468641 J1.414569
G02 X23.305401 Y62.613142 Z-0.687500 I0.778845 J1.260206
G02 X24.189442 Y67.305060 Z-0.687500 I15.369966 J-0.466732
G03 X24.566030 Y68.805076 Z-0.687500 I-7.588806 J2.702494
G03 X24.529766 Y69.559414 Z-0.687500 I-1.899352 J0.286732
G02 X24.656118 Y71.129928 Z-0.687500 I2.384592 J0.598494
G02 X26.737748 Y74.689091 Z-0.687500 I15.465159 J-6.656713
G03 X27.881448 Y76.411111 Z-0.687500 I-12.513601 J9.551869
G03 X28.252171 Y77.330640 Z-0.687500 I-3.141471 J1.801032
G02 X28.689862 Y78.195183 Z-0.687500 I2.127302 J-0.533918
G02 X30.749026 Y80.347324 Z-0.687500 I15.963686 J-13.212858
G03 X32.802930 Y82.471785 Z-0.687500 I-14.865103 J16.426475
G03 X33.000000 Y83.010180 Z-0.687500 I-0.636911 J0.538395
G02 X33.588120 Y84.046708 Z-0.687500 I1.207471 J0.000000
G02 X37.194984 Y85.516789 Z-0.687500 I6.615582 J-11.071638
G01 X39.015416 Y85.953502 Z-0.687500
G01 X38.781206 Y87.719085 Z-0.687500
G02 X38.737032 Y89.478076 Z-0.687500 I8.183412 J1.085562
G02 X39.179595 Y92.586236 Z-0.687500 I26.191961 J-2.143815
G03 X39.687284 Y95.650247 Z-0.687500 I-41.134548 J8.389821
G03 X39.603022 Y95.896980 Z-0.687500 I-0.293468 J0.037533
G03 X39.438355 Y95.877186 Z-0.687500 I-0.074561 J-0.074563
G03 X38.615209 Y94.271828 Z-0.687500 I10.661929 J-6.480605
G02 X36.589519 Y90.083683 Z-0.687500 I-43.655072 J18.530793
G02 X35.496524 Y88.557255 Z-0.687500 I-6.779202 J3.699701
G02 X32.702353 Y86.384091 Z-0.687500 I-7.862328 J7.226178
G02 X31.530409 Y86.418705 Z-0.687500 I-0.556026 J1.031199
G02 X31.322404 Y86.688894 Z-0.687500 I0.253677 J0.410454
G02 X30.959104 Y88.299146 Z-0.687500 I10.820131 J3.287314
G03 X30.589660 Y89.905352 Z-0.687500 I-10.563085 J-1.584029
G03 X30.366469 Y90.192773 Z-0.687500 I-0.496944 J-0.155525
G03 X30.028505 Y90.221088 Z-0.687500 I-0.196855 J-0.318520
G03 X28.606885 Y89.476886 Z-0.687500 I3.158794 J-7.764053
G02 X24.429007 Y87.778603 Z-0.687500 I-6.456283 J9.894788
G02 X14.062500 Y86.618456 Z-0.687500 I-12.189187 J62.021525
G03 X5.857969 Y86.145378 Z-0.687500 I4.121186 J-142.854857
G03 X4.125000 Y85.758184 Z-0.687500 I0.575436 J-6.647208
G02 X0.531991 Y85.000265 Z-0.687500 I-4.384674 J11.890574
G02 X0.000000 Y85.500000 Z-0.687500 I-0.031278 J0.499735
G02 X0.155814 Y85.719186 Z-0.687500 I0.232072 J0.000000
G02 X1.077853 Y85.875000 Z-0.687500 I0.922038 J-2.650190
G03 X2.133804 Y85.994411 Z-0.687500 I-0.000000 J4.728599
G03 X3.796602 Y86.497856 Z-0.687500 I-2.822366 J12.319514
G02 X5.484884 Y86.880645 Z-0.687500 I2.204099 J-5.806679
G02 X14.062500 Y87.353393 Z-0.687500 I12.702273 J-152.418896
G03 X22.611670 Y87.940598 Z-0.687500 I-2.777949 J102.971999
G03 X25.048128 Y88.568764 Z-0.687500 I-0.976549 J8.826937
G03 X27.361404 Y89.638630 Z-0.687500 I-12.649407 J30.386504
G03 X28.679329 Y90.422062 Z-0.687500 I-5.414670 J10.609054
G03 X29.516749 Y91.513526 Z-0.687500 I-1.252585 J1.828025
G03 X29.881201 Y93.832391 Z-0.687500 I-6.084792 J2.144409
G03 X29.671786 Y96.228212 Z-0.687500 I-19.998535 J-0.540978
G03 X29.504081 Y96.373553 Z-0.687500 I-0.168504 J-0.025007
G03 X29.211768 Y96.308081 Z-0.687500 I-0.002971 J-0.672019
G03 X25.502953 Y94.464818 Z-0.687500 I55.247562 J-115.816005
G02 X21.756606 Y92.754572 Z-0.687500 I-19.266656 J37.245867
G02 X20.561373 Y92.496068 Z-0.687500 I-1.368459 J3.434845
G01 X19.312500 Y92.437500 Z-0.687500
G01 X19.203542 Y94.884296 Z-0.687500
G02 X19.386978 Y97.265059 Z-0.687500 I9.848992 J0.438588
G02 X20.060060 Y99.146903 Z-0.687500 I6.771303 J-1.360610
G01 X21.025537 Y100.962716 Z-0.687500
G01 X19.981519 Y100.682014 Z-0.687500
G02 X16.821305 Y100.012652 Z-0.687500 I-7.779758 J28.935321
G02 X15.670414 Y100.063779 Z-0.687500 I-0.448809 J2.876227
G02 X14.938299 Y100.656167 Z-0.687500 I0.268504 J1.080430
G02 X14.625000 Y102.013193 Z-0.687500 I2.782272 J1.357026
G03 X14.416889 Y103.291888 Z-0.687500 I-4.032398 J-0.000000
G03 X14.127868 Y103.500000 Z-0.687500 I-0.289021 J-0.096637
G03 X12.621357 Y102.878648 Z-0.687500 I0.000000 J-2.136996
G03 X12.000000 Y101.384948 Z-0.687500 I1.484700 J-1.493700
G02 X11.415104 Y100.210752 Z-0.687500 I-1.471062 J0.000000
G02 X9.018759 Y99.135000 Z-0.687500 I-3.553103 J4.707963
G03 X5.667022 Y96.896372 Z-0.687500 I1.035877 J-5.179415
G03 X4.123598 Y91.831492 Z-0.687500 I7.571753 J-5.074948
G02 X3.944417 Y90.612527 Z-0.687500 I-4.268665 J0.004816
G02 X3.379110 Y89.343750 Z-0.687500 I-5.196959 J1.555195
G02 X2.460541 Y88.437521 Z-0.687500 I-2.274426 J1.386742
G02 X1.318012 Y88.125000 Z-0.687500 I-1.142529 J1.932200
G02 X0.224177 Y88.349177 Z-0.687500 I0.000000 J2.780684
G02 X0.000000 Y88.688929 Z-0.687500 I0.145367 J0.339752
G02 X0.221551 Y89.013074 Z-0.687500 I0.347900 J0.000000
G02 X1.202576 Y89.157679 Z-0.687500 I0.805941 J-2.067629
G03 X2.424343 Y89.793454 Z-0.687500 I0.102483 J1.294880
G03 X3.520379 Y93.093750 Z-0.687500 I-7.135631 J4.201905
G03 X3.376526 Y94.909326 Z-0.687500 I-4.839353 J0.530052
G03 X2.930045 Y95.250000 Z-0.687500 I-0.446481 J-0.122236
G03 X2.179327 Y95.061344 Z-0.687500 I-0.000000 J-1.587996
G03 X1.051770 Y94.242341 Z-0.687500 I2.433378 J-4.535819
G02 X0.199740 Y93.702661 Z-0.687500 I-1.761563 J1.838679
G02 X0.000000 Y93.840124 Z-0.687500 I-0.052569 J0.137463
G02 X0.751023 Y95.248979 Z-0.687500 I1.696957 J-0.000000
G02 X3.216871 Y96.000000 Z-0.687500 I2.465848 J-3.672582
G03 X4.295983 Y96.283175 Z-0.687500 I0.000000 J2.197704
G03 X5.076898 Y97.048391 Z-0.687500 I-1.036385 J1.838724
G02 X6.827896 Y98.989040 Z-0.687500 I5.649823 J-3.337430
G02 X8.983845 Y99.934387 Z-0.687500 I3.162503 J-4.281274
G03 X10.539657 Y100.574527 Z-0.687500 I-0.800378 J4.155973
G03 X10.875584 Y101.202165 Z-0.687500 I-0.421881 J0.629517
G03 X10.760725 Y101.319928 Z-0.687500 I-0.117501 J0.000291
G03 X5.438084 Y101.324483 Z-0.687500 I-2.766570 J-122.985699
G02 X0.252567 Y101.469337 Z-0.687500 I-1.106928 J53.262174
G02 X0.000000 Y101.742041 Z-0.687500 I0.020939 J0.272704
G02 X0.230862 Y101.996007 Z-0.687500 I0.255121 J0.000000
G02 X1.913515 Y101.924820 Z-0.687500 I0.584122 J-6.115179
G03 X3.469233 Y101.719354 Z-0.687500 I2.895228 J15.929279
G03 X3.896305 Y101.773316 Z-0.687500 I0.086023 J1.036168
G03 X4.023225 Y101.998257 Z-0.687500 I-0.064031 J0.184405
G03 X3.750000 Y102.562500 Z-0.687500 I-1.280691 J-0.271879
G02 X3.773654 Y103.101345 Z-0.687500 I0.308920 J0.256381
G02 X4.309468 Y103.127516 Z-0.687500 I0.282194 J-0.279423
G03 X4.951321 Y102.865182 Z-0.687500 I0.737957 J0.889181
G03 X7.032231 Y102.900277 Z-0.687500 I0.865792 J10.373848
G02 X8.607660 Y102.937899 Z-0.687500 I0.989138 J-8.415989
G02 X8.812321 Y102.822823 Z-0.687500 I-0.018950 J-0.273234
G02 X8.774750 Y102.676701 Z-0.687500 I-0.080766 J-0.057124
G02 X7.500000 Y102.238924 Z-0.687500 I-2.436848 J5.020944
G03 X7.506487 Y102.167839 Z-0.687500 I0.007484 J-0.035155
G03 X9.107140 Y102.194310 Z-0.687500 I0.501680 J18.071784
G03 X11.479744 Y102.691288 Z-0.687500 I-0.507645 J8.335495
G03 X12.601923 Y103.478464 Z-0.687500 I-0.920957 J2.506358
G02 X13.589791 Y104.489801 Z-0.687500 I7.300768 J-6.143202
G02 X13.807283 Y104.542024 Z-0.687500 I0.158016 J-0.179083
G03 X14.893508 Y104.679604 Z-0.687500 I0.369700 J1.437914
G03 X16.058161 Y105.782329 Z-0.687500 I-1.537516 J2.790255
G03 X16.373067 Y106.517712 Z-0.687500 I-2.216680 J1.384343
G03 X16.336497 Y106.748350 Z-0.687500 I-0.284928 J0.073040
G03 X16.164309 Y106.816341 Z-0.687500 I-0.132790 J-0.084263
G03 X15.588870 Y106.521885 Z-0.687500 I0.371420 J-1.435347
G02 X14.974262 Y106.220442 Z-0.687500 I-0.932038 J1.123039
G02 X13.245516 Y105.999697 Z-0.687500 I-2.057378 J9.232575
G01 X11.456414 Y105.937500 Z-0.687500
G01 X11.168595 Y108.187500 Z-0.687500
G03 X10.833604 Y110.425673 Z-0.687500 I-52.599232 J-6.728462
G03 X10.702158 Y110.906250 Z-0.687500 I-2.533131 J-0.434593
G03 X9.918931 Y111.312540 Z-0.687500 I-0.619435 J-0.236038
G03 X7.435402 Y110.073236 Z-0.687500 I1.620794 J-6.356138
G02 X5.769014 Y108.837051 Z-0.687500 I-17.185917 J21.425517
G02 X4.500000 Y108.062970 Z-0.687500 I-7.965583 J11.631388
G02 X0.641891 Y106.709766 Z-0.687500 I-6.185260 J11.458235
G02 X0.000000 Y107.245564 Z-0.687500 I-0.097326 J0.535797
G02 X0.311532 Y107.688465 Z-0.687500 I0.470600 J0.000000
G02 X2.100622 Y108.000000 Z-0.687500 I1.789090 J-4.981455
G03 X4.103907 Y108.528419 Z-0.687500 I-0.000000 J4.061526
G03 X6.353193 Y110.411224 Z-0.687500 I-4.015659 J7.082244
G02 X7.974490 Y111.692096 Z-0.687500 I3.823641 J-3.173339
G02 X9.825128 Y112.127887 Z-0.687500 I1.864719 J-3.771371
G03 X10.534290 Y112.393596 Z-0.687500 I-0.003350 J1.088153
G03 X11.528175 Y113.603089 Z-0.687500 I-3.046449 J3.516482
G01 X12.368850 Y115.075403 Z-0.687500
G01 X11.383853 Y115.850201 Z-0.687500
G03 X10.365871 Y116.529715 Z-0.687500 I-4.860005 J-6.178502
G03 X10.000834 Y116.625000 Z-0.687500 I-0.365037 J-0.651592
G02 X9.632391 Y116.719359 Z-0.687500 I0.000000 J0.766507
G02 X8.119534 Y117.656250 Z-0.687500 I8.065285 J14.713433
G03 X6.389869 Y118.534205 Z-0.687500 I-4.029507 J-5.795768
G03 X4.013574 Y119.146701 Z-0.687500 I-5.027121 J-14.587787
G03 X1.581363 Y119.321007 Z-0.687500 I-2.075099 J-11.898971
G03 X0.656250 Y118.957796 Z-0.687500 I0.043497 J-1.470545
G02 X0.179353 Y118.778928 Z-0.687500 I-0.476162 J0.544358
G02 X0.000000 Y118.958464 Z-0.687500 I0.000183 J0.179535
G02 X0.619247 Y119.772166 Z-0.687500 I0.844234 J0.000000
G02 X3.875749 Y120.030094 Z-0.687500 I2.296232 J-8.304728
G02 X6.696006 Y119.549699 Z-0.687500 I-2.796298 J-24.934870
G02 X7.327882 Y119.237235 Z-0.687500 I-0.341002 J-1.484722
G03 X7.887209 Y118.887290 Z-0.687500 I1.580964 J1.904934
G03 X8.038409 Y118.915312 Z-0.687500 I0.055496 J0.122486
G03 X8.297131 Y120.031297 Z-0.687500 I-0.778546 J0.768475
G03 X6.454960 Y123.641689 Z-0.687500 I-12.984863 J-4.350241
G02 X4.606206 Y127.224851 Z-0.687500 I11.430078 J8.165935
G02 X4.000451 Y130.753762 Z-0.687500 I10.471627 J3.613954
G02 X4.217400 Y133.006461 Z-0.687500 I10.932457 J0.083932
G02 X4.616235 Y133.796254 Z-0.687500 I1.637846 J-0.331492
G03 X5.103492 Y134.553007 Z-0.687500 I-2.049879 J1.855116
G03 X5.250000 Y135.260205 Z-0.687500 I-1.633575 J0.707198
G02 X5.940163 Y137.309838 Z-0.687500 I3.388565 J0.000000
G02 X7.331073 Y138.000000 Z-0.687500 I1.390910 J-1.056498
G03 X7.767864 Y138.163668 Z-0.687500 I-0.000000 J0.664680
G03 X8.513943 Y139.031250 Z-0.687500 I-2.628553 J3.015019
G02 X9.217433 Y140.017821 Z-0.687500 I9.699219 J-6.172070
G02 X9.553838 Y140.338009 Z-0.687500 I1.321525 J-1.051646
G02 X10.163583 Y140.546887 Z-0.687500 I0.651399 J-0.907118
G02 X14.696304 Y140.612519 Z-0.687500 I3.703566 J-99.225051
G02 X19.237690 Y140.469356 Z-0.687500 I-0.819079 J-98.084169
G02 X19.721904 Y140.253097 Z-0.687500 I-0.040558 J-0.741033
G03 X20.126176 Y140.106382 Z-0.687500 I0.359070 J0.359071
G03 X21.257293 Y140.317391 Z-0.687500 I-0.538215 J6.022298
G03 X22.311020 Y140.739102 Z-0.687500 I-1.554502 J5.411541
G03 X22.500000 Y141.051124 Z-0.687500 I-0.163096 J0.312021
G03 X22.454744 Y141.303529 Z-0.687500 I-0.726494 J-0.000000
G03 X21.785130 Y142.980544 Z-0.687500 I-33.780680 J-12.516063
G02 X20.910019 Y146.141485 Z-0.687500 I11.209653 J4.805019
G02 X21.226092 Y147.596563 Z-0.687500 I2.156640 J0.293401
G02 X22.403842 Y148.522023 Z-0.687500 I1.889660 J-1.192662
G02 X25.690564 Y149.168332 Z-0.687500 I4.113671 J-12.239289
G01 X28.555655 Y149.352203 Z-0.687500
G01 X28.298500 Y150.332351 Z-0.687500
G02 X27.703251 Y154.433238 Z-0.687500 I17.862098 J4.686352
G02 X28.119030 Y155.990340 Z-0.687500 I2.791927 J0.088560
G02 X29.261052 Y156.502721 Z-0.687500 I0.949140 J-0.586602
G02 X35.250000 Y154.738781 Z-0.687500 I-4.798706 J-27.341454
G03 X35.679492 Y154.827462 Z-0.687500 I0.150314 J0.356394
G03 X36.425440 Y155.964562 Z-0.687500 I-2.684581 J2.574333
G01 X37.038380 Y157.427587 Z-0.687500
G01 X35.862940 Y157.689139 Z-0.687500
G03 X33.063833 Y158.006189 Z-0.687500 I-2.887213 J-12.975440
G03 X30.375000 Y157.725514 Z-0.687500 I-0.081145 J-12.242340
G01 X29.062500 Y157.439385 Z-0.687500
G01 X30.234900 Y158.547990 Z-0.687500
G02 X31.451712 Y159.584046 Z-0.687500 I10.541735 J-11.148321
G02 X31.922400 Y159.839460 Z-0.687500 I1.047017 J-1.368081
G03 X32.186325 Y160.083435 Z-0.687500 I-0.152581 J0.429798
G03 X32.143923 Y160.335986 Z-0.687500 I-0.211443 J0.094335
G03 X31.795536 Y160.476082 Z-0.687500 I-0.324488 J-0.303702
G03 X29.736965 Y160.206367 Z-0.687500 I0.730598 J-13.567017
G02 X27.673998 Y159.966459 Z-0.687500 I-2.346276 J11.185918
G02 X27.166263 Y160.142625 Z-0.687500 I-0.018971 J0.765089
G03 X26.676884 Y160.327473 Z-0.687500 I-0.513144 J-0.618300
G03 X25.823221 Y160.182364 Z-0.687500 I-0.065111 J-2.200515
G02 X21.743224 Y158.961352 Z-0.687500 I-10.105740 J26.341082
G02 X21.100200 Y159.149801 Z-0.687500 I-0.149167 J0.682297
G02 X21.056505 Y159.456943 Z-0.687500 I0.182665 J0.182665
G02 X21.690747 Y160.356626 Z-0.687500 I4.342833 J-2.388132
G02 X22.524129 Y161.152514 Z-0.687500 I5.195684 J-4.606182
G02 X23.166142 Y161.480141 Z-0.687500 I1.099306 J-1.361330
G03 X23.911833 Y161.846995 Z-0.687500 I-0.566815 J2.093442
G03 X24.396727 Y162.415597 Z-0.687500 I-1.061264 J1.396082
G02 X24.917680 Y162.917765 Z-0.687500 I1.037989 J-0.555517
G02 X26.354735 Y163.372744 Z-0.687500 I2.243780 J-4.590030
G01 X27.935800 Y163.625565 Z-0.687500
G01 X26.811650 Y163.965203 Z-0.687500
G02 X25.702636 Y164.343496 Z-0.687500 I4.798447 J15.881988
G02 X24.848553 Y164.713219 Z-0.687500 I3.726124 J9.778939
G03 X23.992224 Y164.894675 Z-0.687500 I-0.792286 J-1.627641
G03 X22.411053 Y164.626927 Z-0.687500 I0.214956 J-6.072062
G02 X20.507317 Y164.255379 Z-0.687500 I-2.675639 J8.646465
G02 X16.777218 Y164.066820 Z-0.687500 I-4.566947 J53.354884
G02 X13.024553 Y164.179738 Z-0.687500 I-0.642009 J41.077165
G02 X12.750000 Y164.475930 Z-0.687500 I0.022492 J0.296192
G03 X12.225642 Y165.097987 Z-0.687500 I-0.631159 J0.000000
G03 X8.343750 Y165.232436 Z-0.687500 I-2.434355 J-14.178801
G02 X6.898689 Y165.235754 Z-0.687500 I-0.706496 J6.986061
G02 X6.750000 Y165.400999 Z-0.687500 I0.017478 J0.165245
G02 X7.205634 Y166.099416 Z-0.687500 I0.763101 J0.000000
G02 X10.968984 Y167.258336 Z-0.687500 I6.855921 J-15.573360
G03 X12.906810 Y167.711342 Z-0.687500 I-3.859121 J20.879421
G03 X13.759367 Y168.050242 Z-0.687500 I-1.231972 J4.341039
G02 X14.601011 Y168.234909 Z-0.687500 I0.762135 J-1.463252
G02 X16.245941 Y167.930269 Z-0.687500 I-0.299697 J-6.211529
G03 X17.868303 Y167.650290 Z-0.687500 I1.755659 J5.332882
G03 X18.584198 Y167.874739 Z-0.687500 I0.027682 J1.165632
G03 X18.682215 Y168.386191 Z-0.687500 I-0.225453 J0.308326
G03 X17.698742 Y169.284787 Z-0.687500 I-2.116815 J-1.329279
G03 X16.422237 Y169.682344 Z-0.687500 I-1.805570 J-3.549333
G03 X14.825800 Y169.669894 Z-0.687500 I-0.754377 J-5.627734
G02 X13.345183 Y169.730718 Z-0.687500 I-0.582097 J3.881670
G02 X12.806298 Y170.144805 Z-0.687500 I0.188984 J0.803630
G03 X11.919100 Y170.928787 Z-0.687500 I-1.498800 J-0.802133
G03 X8.156250 Y171.937853 Z-0.687500 I-6.622057 J-17.173501
G02 X6.897125 Y172.284785 Z-0.687500 I0.900508 J5.726572
G02 X6.750000 Y172.502385 Z-0.687500 I0.087355 J0.217601
G03 X6.065226 Y173.690223 Z-0.687500 I-1.372624 J0.000000
G03 X3.516202 Y174.375000 Z-0.687500 I-2.549024 J-4.401874
G02 X1.945734 Y174.493824 Z-0.687500 I0.000000 J10.437673
G02 X0.868163 Y174.778012 Z-0.687500 I0.786320 J5.166561
G02 X0.361725 Y175.255315 Z-0.687500 I0.325553 J0.852751
G02 X0.468750 Y175.663106 Z-0.687500 I0.305360 J0.137798
G03 X0.946579 Y176.536925 Z-0.687500 I-0.696839 J0.948606
G03 X0.562500 Y177.135611 Z-0.687500 I-0.599179 J0.038148
G02 X0.145769 Y177.451657 Z-0.687500 I0.336159 J0.876021
G02 X0.000000 Y177.891896 Z-0.687500 I0.591904 J0.440240
G02 X0.187039 Y178.019365 Z-0.687500 I0.136955 J0.000000
G02 X1.115273 Y177.453694 Z-0.687500 I-1.155111 J-2.939892
G02 X1.764438 Y176.448229 Z-0.687500 I-1.441948 J-1.643271
G02 X1.619652 Y175.800030 Z-0.687500 I-0.643993 J-0.196423
G03 X1.271807 Y175.351630 Z-0.687500 I2.778770 J-2.514745
G03 X1.284442 Y175.223450 Z-0.687500 I0.085209 J-0.056314
G03 X1.435166 Y175.154398 Z-0.687500 I0.166896 J0.165270
G03 X2.288105 Y175.125000 Z-0.687500 I0.852939 J12.358846
G02 X5.331642 Y174.601370 Z-0.687500 I-0.000000 J-9.106908
G02 X6.937500 Y173.476376 Z-0.687500 I-1.226821 J-3.459837
G03 X8.340722 Y172.568926 Z-0.687500 I2.130860 J1.756371
G03 X9.862830 Y172.677311 Z-0.687500 I0.606744 J2.221241
G02 X10.492014 Y172.705314 Z-0.687500 I0.351306 J-0.810891
G02 X11.386999 Y172.172441 Z-0.687500 I-0.760066 J-2.294588
G03 X12.277202 Y171.479441 Z-0.687500 I4.171838 J4.440729
G03 X12.634503 Y171.375000 Z-0.687500 I0.357301 J0.558955
G02 X12.984455 Y171.271271 Z-0.687500 I0.000000 J-0.642187
G02 X13.500000 Y170.812500 Z-0.687500 I-1.251009 J-1.924881
G03 X14.060309 Y170.447101 Z-0.687500 I0.870362 J0.722336
G03 X15.514667 Y170.238232 Z-0.687500 I1.495831 J5.247712
G02 X17.011960 Y170.014794 Z-0.687500 I-0.041031 J-5.403466
G02 X19.302952 Y169.113232 Z-0.687500 I-4.068891 J-13.701255
G03 X21.564525 Y168.089974 Z-0.687500 I15.236978 J30.665413
G03 X22.021702 Y168.000000 Z-0.687500 I0.457177 J1.116523
G02 X22.382702 Y167.882704 Z-0.687500 I-0.000000 J-0.614172
G02 X22.500000 Y167.652495 Z-0.687500 I-0.167256 J-0.230210
G03 X22.623325 Y167.402442 Z-0.687500 I0.315166 J0.000000
G03 X23.156250 Y167.149016 Z-0.687500 I0.859410 J1.120187
G02 X23.230428 Y166.947651 Z-0.687500 I-0.029784 J-0.125317
G02 X22.712281 Y166.542082 Z-0.687500 I-0.977447 J0.714997
G02 X21.443058 Y166.186350 Z-0.687500 I-2.164586 J5.280950
G02 X19.667231 Y166.004428 Z-0.687500 I-2.526866 J15.907693
G02 X18.009166 Y166.074600 Z-0.687500 I-0.435589 J9.331685
G02 X17.865675 Y166.315849 Z-0.687500 I0.023391 J0.177210
G03 X17.783794 Y166.609395 Z-0.687500 I-0.238720 J0.091605
G03 X16.764472 Y167.171108 Z-0.687500 I-2.287455 J-2.945251
G03 X14.596834 Y167.586123 Z-0.687500 I-2.387844 J-6.603456
G03 X14.250000 Y167.250000 Z-0.687500 I-0.010546 J-0.336123
G02 X14.083656 Y167.041344 Z-0.687500 I-0.214037 J0.000000
G02 X12.609375 Y166.875000 Z-0.687500 I-1.474281 J6.449978
G03 X8.983984 Y166.516015 Z-0.687500 I0.000000 J-18.485920
G03 X8.625000 Y166.078125 Z-0.687500 I0.087578 J-0.437890
G03 X8.763519 Y165.887966 Z-0.687500 I0.199785 J0.000000
G03 X9.656250 Y165.745871 Z-0.687500 I0.904549 J2.807563
G02 X13.067043 Y165.299263 Z-0.687500 I-0.054594 J-13.664528
G02 X13.500000 Y164.738164 Z-0.687500 I-0.147105 J-0.561099
G03 X13.679746 Y164.435576 Z-0.687500 I0.344564 J0.000000
G03 X14.156250 Y164.380706 Z-0.687500 I0.306128 J0.562017
G02 X17.870023 Y164.992683 Z-0.687500 I4.728569 J-17.120787
G02 X18.904447 Y164.652431 Z-0.687500 I0.084942 J-1.484301
G03 X19.433396 Y164.481482 Z-0.687500 I0.478395 J0.576435
G03 X21.224787 Y164.809384 Z-0.687500 I-0.542598 J8.021616
G02 X24.587312 Y165.410141 Z-0.687500 I4.220563 J-13.912453
G02 X25.282058 Y165.049256 Z-0.687500 I0.045074 J-0.762403
G03 X25.555949 Y164.832401 Z-0.687500 I0.436284 J0.269641
G03 X26.970169 Y164.485766 Z-0.687500 I2.821118 J8.451533
G02 X28.721042 Y163.794875 Z-0.687500 I-0.689347 J-4.310956
G02 X28.771514 Y163.271513 Z-0.687500 I-0.190413 J-0.282478
G02 X28.562168 Y163.153960 Z-0.687500 I-0.313999 J0.314009
G02 X27.140214 Y162.875929 Z-0.687500 I-3.810860 J15.714900
G03 X25.767623 Y162.518574 Z-0.687500 I0.986410 J-6.603485
G03 X25.299514 Y162.180743 Z-0.687500 I0.390783 J-1.034710
G02 X24.846371 Y161.789619 Z-0.687500 I-1.319306 J1.070445
G02 X23.491276 Y161.109135 Z-0.687500 I-5.558197 J9.378937
G03 X22.356197 Y160.414512 Z-0.687500 I1.678917 J-4.018230
G03 X22.303953 Y160.182645 Z-0.687500 I0.127455 J-0.150537
G03 X22.520569 Y160.038519 Z-0.687500 I0.223582 J0.101191
G03 X23.904253 Y160.196663 Z-0.687500 I0.139492 J4.911885
G02 X25.326009 Y160.481776 Z-0.687500 I3.162838 J-12.084459
G02 X27.562500 Y160.711582 Z-0.687500 I4.185577 J-29.736575
G03 X29.811679 Y160.867845 Z-0.687500 I-16.580004 J254.910612
G03 X30.562500 Y160.933316 Z-0.687500 I-2.103970 J28.466210
G02 X33.417704 Y160.851411 Z-0.687500 I1.111573 J-11.057591
G02 X33.667515 Y160.440045 Z-0.687500 I-0.049501 J-0.311595
G02 X33.421380 Y160.090314 Z-0.687500 I-0.705843 J0.235283
G02 X32.235866 Y159.315045 Z-0.687500 I-5.043337 J6.418035
G01 X30.949201 Y158.625000 Z-0.687500
G01 X33.193351 Y158.556304 Z-0.687500
G03 X36.919261 Y158.898252 Z-0.687500 I0.469865 J15.350261
G03 X38.073836 Y159.615139 Z-0.687500 I-0.429564 J1.980019
G01 X38.885265 Y160.632769 Z-0.687500
G01 X40.031771 Y159.816386 Z-0.687500
G03 X41.119227 Y159.147508 Z-0.687500 I5.502721 J7.727841
G03 X41.569314 Y159.080844 Z-0.687500 I0.320161 J0.608865
G03 X41.948084 Y159.316035 Z-0.687500 I-0.117753 J0.612237
G03 X42.586125 Y160.307674 Z-0.687500 I-6.046275 J4.591380
G03 X42.946475 Y161.639294 Z-0.687500 I-2.667043 J1.436296
G03 X42.687574 Y163.241730 Z-0.687500 I-4.191484 J0.144927
G02 X42.436189 Y164.814931 Z-0.687500 I3.826129 J1.418070
G02 X42.784057 Y165.777806 Z-0.687500 I1.683838 J-0.064062
G03 X43.487328 Y166.986273 Z-0.687500 I-4.331743 J3.329736
G03 X43.476311 Y167.262742 Z-0.687500 I-0.300237 J0.126491
G03 X43.295840 Y167.318135 Z-0.687500 I-0.117427 J-0.060893
G03 X42.364009 Y166.587832 Z-0.687500 I1.687887 J-3.113301
G03 X41.455268 Y165.283775 Z-0.687500 I4.552188 J-4.140883
G03 X41.250000 Y164.443354 Z-0.687500 I1.617823 J-0.840421
G02 X40.769782 Y164.038008 Z-0.687500 I-0.411183 J0.000000
G02 X39.795795 Y164.691023 Z-0.687500 I0.240378 J1.411399
G02 X39.442647 Y165.665869 Z-0.687500 I2.102521 J1.313049
G02 X39.166953 Y168.713948 Z-0.687500 I32.501739 J4.476236
G02 X39.170932 Y171.761295 Z-0.687500 I33.952284 J1.479347
G02 X39.434599 Y172.980773 Z-0.687500 I3.753817 J-0.173381
G03 X39.718359 Y173.996776 Z-0.687500 I-4.571553 J1.824420
G03 X39.642938 Y174.232061 Z-0.687500 I-0.266358 J0.044349
G03 X38.867012 Y174.112067 Z-0.687500 I-0.344037 J-0.344034
G03 X38.053597 Y171.168229 Z-0.687500 I6.534945 J-3.389973
G02 X37.848064 Y169.936227 Z-0.687500 I-5.966486 J0.362238
G02 X37.560094 Y169.384909 Z-0.687500 I-1.428622 J0.395345
G03 X37.335571 Y168.827600 Z-0.687500 I0.758406 J-0.629420
G03 X37.378423 Y166.908600 Z-0.687500 I10.031730 J-0.735966
G02 X37.215184 Y165.342129 Z-0.687500 I-3.556093 J-0.421168
G02 X36.754508 Y165.060304 Z-0.687500 I-0.398925 J0.134662
G02 X35.110341 Y166.224607 Z-0.687500 I0.326874 J2.204648
G02 X34.681546 Y168.987742 Z-0.687500 I3.796893 J2.004057
G03 X34.659617 Y170.031607 Z-0.687500 I-2.602450 J0.467490
G03 X34.374651 Y170.361761 Z-0.687500 I-0.450250 J-0.100566
G02 X33.997378 Y170.685095 Z-0.687500 I0.265276 J0.691302
G02 X33.544419 Y171.811519 Z-0.687500 I3.836357 J2.196965
G01 X33.232195 Y173.062500 Z-0.687500
G01 X33.092423 Y171.375000 Z-0.687500
G02 X32.835297 Y169.741371 Z-0.687500 I-11.225313 J0.929764
G02 X32.618877 Y169.348800 Z-0.687500 I-0.805918 J0.188352
G03 X32.480042 Y168.981967 Z-0.687500 I0.345451 J-0.340431
G03 X32.677292 Y168.277290 Z-0.687500 I1.685661 J0.091896
G02 X32.547729 Y167.289954 Z-0.687500 I-0.753544 J-0.403285
G02 X31.703393 Y167.236811 Z-0.687500 I-0.450372 J0.421552
G03 X31.372340 Y167.078779 Z-0.687500 I-0.129030 J-0.155472
G03 X31.719822 Y165.940796 Z-0.687500 I2.125388 J0.026943
G02 X32.002367 Y164.695928 Z-0.687500 I-1.528273 J-1.001367
G02 X31.492461 Y164.250000 Z-0.687500 I-0.509906 J0.068567
G02 X31.188299 Y164.345900 Z-0.687500 I0.000000 J0.530302
G02 X29.082390 Y165.937500 Z-0.687500 I20.837504 J29.759918
G03 X26.960926 Y167.485369 Z-0.687500 I-15.595996 J-19.147674
G03 X26.490558 Y167.625000 Z-0.687500 I-0.470368 J-0.722439
G02 X25.980095 Y167.814669 Z-0.687500 I-0.000000 J0.781748
G02 X24.414794 Y169.328715 Z-0.687500 I12.426609 J14.413453
G02 X23.033319 Y170.982034 Z-0.687500 I16.258765 J14.989263
G02 X22.489625 Y171.964789 Z-0.687500 I3.165190 J2.392870
G02 X22.226198 Y172.942413 Z-0.687500 I4.734461 J1.800033
G02 X22.125000 Y174.180664 Z-0.687500 I7.525010 J1.238251
G03 X21.957062 Y175.316458 Z-0.687500 I-3.924753 J-0.000000
G03 X21.702438 Y175.578352 Z-0.687500 I-0.380238 J-0.114957
G02 X21.451839 Y175.850431 Z-0.687500 I0.120952 J0.362849
G02 X21.168023 Y177.765855 Z-0.687500 I10.181458 J2.487367
G02 X21.174638 Y178.685050 Z-0.687500 I7.431518 J0.406142
G02 X21.231709 Y178.687500 Z-0.687500 I0.028673 J-0.001981
G03 X21.862533 Y177.121342 Z-0.687500 I3.688422 J0.575517
G03 X22.377622 Y177.051517 Z-0.687500 I0.289793 J0.202984
G02 X22.668400 Y176.971373 Z-0.687500 I0.117289 J-0.142025
G02 X22.778390 Y175.927905 Z-0.687500 I-2.099456 J-0.748829
G03 X22.666870 Y174.294813 Z-0.687500 I12.607968 J-1.681317
G03 X22.767357 Y173.018040 Z-0.687500 I7.786411 J-0.029521
G03 X23.204337 Y171.828272 Z-0.687500 I3.293263 J0.534424
G03 X24.433224 Y170.098266 Z-0.687500 I12.198803 J7.363793
G03 X25.908790 Y168.624703 Z-0.687500 I8.559811 J7.095880
G03 X26.487883 Y168.529943 Z-0.687500 I0.370671 J0.448381
G02 X26.949068 Y168.475803 Z-0.687500 I0.179009 J-0.466484
G02 X28.923370 Y166.863293 Z-0.687500 I-8.503837 J-12.426688
G03 X30.887964 Y165.160912 Z-0.687500 I16.274299 J16.796208
G03 X31.353432 Y164.945582 Z-0.687500 I0.702891 J0.908648
G03 X31.476828 Y165.092167 Z-0.687500 I0.022459 J0.106324
G03 X30.699492 Y166.488116 Z-0.687500 I-5.788313 J-2.308824
G02 X30.201519 Y168.200273 Z-0.687500 I2.070281 J1.530627
G02 X30.837294 Y168.437707 Z-0.687500 I0.372044 J-0.026297
G03 X31.592577 Y168.348902 Z-0.687500 I0.433877 J0.433875
G03 X31.954991 Y169.125000 Z-0.687500 I-0.407731 J0.663065
G02 X31.990696 Y170.076505 Z-0.687500 I2.585118 J0.379415
G02 X32.207438 Y170.250000 Z-0.687500 I0.216742 J-0.048637
G03 X32.447378 Y170.428349 Z-0.687500 I-0.000000 J0.250575
G03 X32.630742 Y171.656250 Z-0.687500 I-4.137807 J1.245548
G02 X32.762706 Y173.024490 Z-0.687500 I7.474766 J-0.030443
G02 X33.005742 Y173.625000 Z-0.687500 I1.631103 J-0.310698
G02 X33.375000 Y173.824310 Z-0.687500 I0.369258 J-0.242403
G02 X33.744258 Y173.625000 Z-0.687500 I0.000000 J-0.441713
G02 X34.012495 Y173.031908 Z-0.687500 I-1.749375 J-1.148391
G02 X34.119258 Y172.262486 Z-0.687500 I-2.873318 J-0.790812
G03 X34.337150 Y171.627496 Z-0.687500 I1.056337 J0.007595
G03 X34.884642 Y171.263824 Z-0.687500 I0.803660 J0.615926
G02 X35.313551 Y170.849323 Z-0.687500 I-0.153863 J-0.588370
G02 X35.399892 Y169.536825 Z-0.687500 I-2.833987 J-0.845520
G03 X35.625220 Y166.458560 Z-0.687500 I6.638090 J-1.061474
G03 X36.590834 Y165.750000 Z-0.687500 I0.965614 J0.303682
G03 X37.021580 Y166.186661 Z-0.687500 I0.000000 J0.430785
G03 X36.544126 Y169.174342 Z-0.687500 I-10.481082 J-0.142964
G02 X36.563886 Y169.683998 Z-0.687500 I0.725594 J0.227078
G02 X36.868289 Y169.984050 Z-0.687500 I0.495697 J-0.198451
G03 X37.201344 Y170.311282 Z-0.687500 I-0.209745 J0.546584
G03 X37.416902 Y171.341625 Z-0.687500 I-2.758918 J1.114914
G02 X38.078177 Y173.551796 Z-0.687500 I4.446734 J-0.126434
G02 X39.753319 Y175.126778 Z-0.687500 I3.760225 J-2.321030
G02 X40.432459 Y175.255702 Z-0.687500 I0.545193 J-1.018706
G02 X40.669468 Y175.026590 Z-0.687500 I-0.031479 J-0.269709
G02 X40.633150 Y174.505707 Z-0.687500 I-1.184568 J-0.179116
G02 X40.070363 Y173.030033 Z-0.687500 I-10.093282 J3.004186
G03 X39.648908 Y171.376204 Z-0.687500 I4.091686 J-1.923323
G03 X39.935273 Y170.767755 Z-0.687500 I0.700680 J-0.041840
G02 X40.301235 Y170.177574 Z-0.687500 I-0.546561 J-0.747468
G02 X40.188064 Y169.301153 Z-0.687500 I-1.477699 J-0.254705
G03 X39.589740 Y165.875769 Z-0.687500 I6.281863 J-2.862223
G03 X40.540121 Y165.000000 Z-0.687500 I0.950381 J0.077791
G03 X40.757804 Y165.117194 Z-0.687500 I-0.000000 J0.260766
G03 X40.875000 Y165.507743 Z-0.687500 I-0.592144 J0.390549
G02 X41.646187 Y167.228812 Z-0.687500 I2.306061 J-0.000000
G02 X43.669594 Y168.000000 Z-0.687500 I2.023407 J-2.268865
G02 X44.399025 Y167.883995 Z-0.687500 I0.000000 J-2.351299
G02 X44.575859 Y167.679938 Z-0.687500 I-0.081284 J-0.249090
G02 X44.524439 Y167.362296 Z-0.687500 I-0.484561 J-0.084542
G02 X43.938833 Y166.456822 Z-0.687500 I-5.913862 J3.182627
G03 X43.146116 Y164.603966 Z-0.687500 I3.229089 J-2.477522
G03 X43.391182 Y162.930874 Z-0.687500 I2.831372 J-0.439768
G03 X44.221731 Y161.954343 Z-0.687500 I2.252034 J1.073916
G03 X45.274860 Y161.625000 Z-0.687500 I1.053129 J1.519104
G02 X46.429963 Y161.382587 Z-0.687500 I-0.000000 J-2.873248
G02 X47.400926 Y160.691524 Z-0.687500 I-1.177754 J-2.682426
G03 X48.263278 Y160.225098 Z-0.687500 I1.117464 J1.035633
G03 X48.883020 Y160.439801 Z-0.687500 I0.114174 J0.672234
G03 X49.373585 Y161.170267 Z-0.687500 I-2.270475 J2.054761
G03 X49.500000 Y161.726145 Z-0.687500 I-1.158957 J0.555878
G02 X50.114346 Y162.239970 Z-0.687500 I0.522048 J0.000000
G02 X51.822990 Y161.308871 Z-0.687500 I-0.544834 J-3.033119
G03 X53.298759 Y159.799844 Z-0.687500 I32.680972 J30.484554
G03 X53.421247 Y159.750000 Z-0.687500 I0.122489 J0.125583
G03 X53.513145 Y159.814992 Z-0.687500 I0.000000 J0.097466
G03 X53.802157 Y160.827907 Z-0.687500 I-8.048330 J2.844101
G02 X54.192466 Y161.818620 Z-0.687500 I3.282502 J-0.720957
G02 X54.942454 Y162.754654 Z-0.687500 I3.669614 J-2.171766
G03 X55.346595 Y164.123075 Z-0.687500 I-0.967201 J1.029536
G03 X54.338378 Y165.199125 Z-0.687500 I-1.464619 J-0.361935
G02 X53.600673 Y165.533225 Z-0.687500 I1.041122 J3.280327
G02 X52.898824 Y166.068270 Z-0.687500 I2.112653 J3.499136
G03 X52.220649 Y166.654130 Z-0.687500 I-6.563445 J-6.912213
G03 X51.529594 Y167.142986 Z-0.687500 I-5.250753 J-6.689673
G02 X51.228258 Y167.621525 Z-0.687500 I0.353726 J0.556886
G02 X51.417045 Y168.084019 Z-0.687500 I0.511141 J0.061134
G03 X51.791442 Y168.659946 Z-0.687500 I-0.688504 J0.857237
G03 X51.851771 Y169.726586 Z-0.687500 I-2.570978 J0.680442
G03 X51.395497 Y170.673809 Z-0.687500 I-1.742172 J-0.255694
G03 X50.009141 Y171.696326 Z-0.687500 I-3.452038 J-3.229276
G02 X48.819532 Y172.450720 Z-0.687500 I2.731928 J5.623144
G02 X48.615289 Y172.790225 Z-0.687500 I0.361260 J0.448519
G02 X48.748116 Y173.045178 Z-0.687500 I0.227074 J0.043774
G02 X49.709632 Y173.250000 Z-0.687500 I0.961516 J-2.154459
G03 X50.431277 Y173.340286 Z-0.687500 I0.000000 J2.929143
G03 X50.565111 Y173.514926 Z-0.687500 I-0.043757 J0.172134
G03 X50.473154 Y173.798429 Z-0.687500 I-0.504963 J-0.007123
G03 X49.687508 Y174.818389 Z-0.687500 I-12.203417 J-8.587395
G02 X48.909054 Y175.990555 Z-0.687500 I4.762689 J4.007550
G02 X48.750008 Y176.650526 Z-0.687500 I1.289770 J0.659971
G03 X48.583205 Y177.312123 Z-0.687500 I-1.395460 J-0.000000
G03 X47.437508 Y179.087978 Z-0.687500 I-11.787447 J-6.347199
G02 X46.212966 Y181.076978 Z-0.687500 I9.287867 J7.089586
G02 X46.099289 Y181.668640 Z-0.687500 I1.046701 J0.507856
G02 X46.326333 Y181.805548 Z-0.687500 I0.161848 J-0.011689
G02 X47.570617 Y180.931020 Z-0.687500 I-1.544118 J-3.519435
G03 X48.505356 Y180.117109 Z-0.687500 I4.720727 J4.477827
G03 X48.883118 Y179.991994 Z-0.687500 I0.390262 J0.545476
G02 X49.236500 Y179.840399 Z-0.687500 I-0.009470 J-0.509757
G02 X50.379664 Y178.475876 Z-0.687500 I-7.777263 J-7.676724
G03 X51.503656 Y177.398719 Z-0.687500 I3.349546 J2.370174
G03 X52.001993 Y177.428520 Z-0.687500 I0.228860 J0.354499
G02 X52.719628 Y177.354061 Z-0.687500 I0.322377 J-0.388444
G02 X53.244266 Y175.864691 Z-0.687500 I-1.893330 J-1.504023
G03 X53.893907 Y173.887650 Z-0.687500 I3.395714 J0.020552
G03 X55.146270 Y173.250000 Z-0.687500 I1.252363 J0.911014
G03 X55.544102 Y173.562432 Z-0.687500 I0.000000 J0.409504
G03 X55.454404 Y174.512835 Z-0.687500 I-1.416847 J0.345713
G02 X55.274917 Y175.437265 Z-0.687500 I1.834394 J0.835804
G02 X55.545945 Y176.592983 Z-0.687500 I3.200149 J-0.140831
G02 X56.116895 Y177.659661 Z-0.687500 I7.408543 J-3.279351
G02 X56.281357 Y177.750000 Z-0.687500 I0.164462 J-0.104534
G02 X56.925797 Y177.300789 Z-0.687500 I0.000000 J-0.686863
G02 X57.375008 Y174.784357 Z-0.687500 I-6.823795 J-2.516431
G03 X57.681506 Y174.099644 Z-0.687500 I0.918069 J-0.000000
G03 X58.348279 Y173.915055 Z-0.687500 I0.520161 J0.582372
G01 X59.321554 Y174.101111 Z-0.687500
G01 X58.690237 Y172.880280 Z-0.687500
G03 X57.794483 Y169.150650 Z-0.687500 I7.121852 J-3.682855
G03 X58.715662 Y168.521415 Z-0.687500 I0.678200 J0.003957
G02 X59.486817 Y168.267663 Z-0.687500 I0.230054 J-0.599511
G02 X60.000004 Y166.511460 Z-0.687500 I-2.748399 J-1.756203
G03 X60.568519 Y164.443519 Z-0.687500 I4.045263 J0.000000
G03 X61.568152 Y163.875000 Z-0.687500 I0.999633 J0.594574
G03 X61.894828 Y163.964436 Z-0.687500 I0.000000 J0.641325
G03 X63.161786 Y164.818309 Z-0.687500 I-6.647309 J11.230022
G02 X64.153434 Y165.406758 Z-0.687500 I3.019851 J-3.959234
G02 X64.642299 Y165.385719 Z-0.687500 I0.223334 J-0.500764
G02 X65.036007 Y164.988785 Z-0.687500 I-0.483219 J-0.873012
G02 X65.822955 Y163.345331 Z-0.687500 I-15.769603 J-8.561222
G02 X66.149859 Y161.925589 Z-0.687500 I-3.985192 J-1.665121
G02 X65.977995 Y160.620817 Z-0.687500 I-3.518655 J-0.200229
G03 X65.772793 Y159.219214 Z-0.687500 I3.898287 J-1.286552
G03 X66.055099 Y158.898116 Z-0.687500 I0.334428 J0.009376
G03 X66.658642 Y158.987921 Z-0.687500 I0.158717 J1.006318
G03 X68.752466 Y160.183249 Z-0.687500 I-7.876288 J16.228202
G03 X70.802665 Y162.165450 Z-0.687500 I-4.333089 J6.533095
G03 X70.686608 Y162.896160 Z-0.687500 I-0.429669 J0.306328
G02 X70.425513 Y163.416539 Z-0.687500 I0.382497 J0.517604
G02 X70.697295 Y165.375000 Z-0.687500 I7.422841 J-0.032003
G03 X70.956405 Y167.437936 Z-0.687500 I-6.859243 J1.909278
G03 X70.600159 Y169.875000 Z-0.687500 I-9.989142 J-0.215627
G03 X69.686973 Y172.037757 Z-0.687500 I-8.676412 J-2.389295
G03 X69.101569 Y172.430745 Z-0.687500 I-0.700250 J-0.410600
G02 X67.431524 Y173.437823 Z-0.687500 I0.353693 J2.474795
G02 X65.495621 Y177.402746 Z-0.687500 I10.359231 J7.513040
G03 X64.734686 Y179.394520 Z-0.687500 I-12.211280 J-3.523944
G03 X64.176746 Y180.140662 Z-0.687500 I-2.186271 J-1.053143
G02 X63.076137 Y182.833945 Z-0.687500 I2.256851 J2.493785
G02 X64.538479 Y186.228469 Z-0.687500 I5.418361 J-0.321954
G03 X64.801227 Y187.563370 Z-0.687500 I-0.933592 J0.877067
G03 X63.840247 Y188.052975 Z-0.687500 I-0.751797 J-0.287709
G02 X62.803085 Y187.836487 Z-0.687500 I-2.411995 J8.962823
G02 X61.610126 Y187.718955 Z-0.687500 I-1.759966 J11.750720
G03 X60.491030 Y187.465100 Z-0.687500 I0.156853 J-3.285108
G03 X59.542507 Y186.848659 Z-0.687500 I1.240144 J-2.946192
G02 X57.050175 Y185.406621 Z-0.687500 I-4.330250 J4.609326
G02 X52.874992 Y184.823602 Z-0.687500 I-3.939563 J12.971063
G02 X48.400407 Y185.507505 Z-0.687500 I0.293816 J16.902294
G02 X46.489560 Y186.700995 Z-0.687500 I1.181245 J4.017676
G03 X45.370167 Y187.555758 Z-0.687500 I-2.928475 J-2.674758
G03 X43.841839 Y188.058105 Z-0.687500 I-2.360372 J-4.605088
G02 X42.219572 Y188.431094 Z-0.687500 I2.076060 J12.743976
G02 X40.874992 Y188.945051 Z-0.687500 I2.765530 J9.250760
G03 X39.510530 Y189.329978 Z-0.687500 I-1.839822 J-3.910880
G03 X35.295122 Y189.562500 Z-0.687500 I-4.215408 J-38.094530
G02 X31.182817 Y189.845217 Z-0.687500 I-0.000000 J30.049505
G02 X30.615712 Y190.208966 Z-0.687500 I0.109861 J0.795227
G02 X30.577852 Y190.816743 Z-0.687500 I0.530476 J0.338112
G02 X31.601833 Y192.287276 Z-0.687500 I4.921226 J-2.335030
G03 X32.877624 Y193.768964 Z-0.687500 I-11.175121 J10.912320
G03 X33.000000 Y194.133214 Z-0.687500 I-0.480906 J0.364250
G02 X33.129861 Y194.487287 Z-0.687500 I0.547631 J0.000000
G02 X34.257896 Y195.617404 Z-0.687500 I7.489041 J-6.347211
G03 X36.211405 Y197.374352 Z-0.687500 I-30.878373 J36.297437
G03 X37.588271 Y198.783038 Z-0.687500 I-18.454224 J19.414602
G02 X38.575413 Y199.597170 Z-0.687500 I3.301739 J-2.997859
G02 X40.328494 Y200.446867 Z-0.687500 I5.365355 J-8.836391
G03 X42.137229 Y201.231440 Z-0.687500 I-6.587219 J17.663219
G03 X43.069294 Y201.810221 Z-0.687500 I-2.600107 J5.227076
G02 X44.009172 Y202.343551 Z-0.687500 I2.453028 J-3.228097
G02 X45.225544 Y202.677645 Z-0.687500 I2.061788 J-5.125245
G03 X46.499918 Y202.875523 Z-0.687500 I-239.188702 J1544.623127
G03 X47.841667 Y203.084962 Z-0.687500 I-269.620872 J1731.700245
G01 X49.183331 Y203.294929 Z-0.687500
G01 X48.893977 Y204.866212 Z-0.687500
G02 X48.724171 Y208.296210 Z-0.687500 I12.768353 J2.351316
G02 X49.288751 Y209.601311 Z-0.687500 I2.218260 J-0.184941
G03 X50.485950 Y211.817017 Z-0.687500 I-3.967844 J3.575211
G03 X50.720228 Y215.039779 Z-0.687500 I-8.502578 J2.237988
G02 X50.905595 Y216.581627 Z-0.687500 I3.357388 J0.378428
G02 X51.787935 Y217.950844 Z-0.687500 I3.489825 J-1.279983
G03 X54.060893 Y220.612061 Z-0.687500 I-14.215082 J14.442446
G03 X54.928204 Y222.345713 Z-0.687500 I-5.058414 J3.614398
G02 X56.258648 Y224.417437 Z-0.687500 I4.504479 J-1.429676
G02 X59.562341 Y226.546571 Z-0.687500 I8.088055 J-8.922245
G02 X61.222025 Y227.081791 Z-0.687500 I3.591208 J-8.295213
G02 X62.778221 Y227.250000 Z-0.687500 I1.556196 J-7.114530
G03 X64.675630 Y227.845929 Z-0.687500 I0.000000 J3.318592
G03 X66.300244 Y229.704476 Z-0.687500 I-2.923176 J4.194576
G03 X66.319636 Y230.418312 Z-0.687500 I-0.734188 J0.377126
G03 X65.294914 Y231.954476 Z-0.687500 I-5.039054 J-2.251518
G02 X63.979017 Y233.503924 Z-0.687500 I14.144777 J13.346203
G02 X62.017357 Y236.250000 Z-0.687500 I42.610159 J32.512271
G03 X58.777981 Y239.689652 Z-0.687500 I-11.846028 J-7.911079
G03 X55.570470 Y241.138328 Z-0.687500 I-4.775348 J-6.297885
G02 X53.459257 Y241.639343 Z-0.687500 I6.462601 J31.931209
G02 X52.500000 Y241.975917 Z-0.687500 I1.881978 J6.899025
G02 X52.053059 Y242.242793 Z-0.687500 I0.799515 J1.846650
G02 X52.063035 Y242.370028 Z-0.687500 I0.047561 J0.060279
G02 X52.335765 Y242.468530 Z-0.687500 I0.432303 J-0.770136
G02 X53.812500 Y242.712667 Z-0.687500 I7.580205 J-41.262738
G02 X56.066826 Y242.904969 Z-0.687500 I2.703966 J-18.388451
G02 X58.621695 Y242.829046 Z-0.687500 I0.573856 J-23.713793
G02 X61.071716 Y242.293836 Z-0.687500 I-0.798863 J-9.532263
G02 X63.684195 Y241.000950 Z-0.687500 I-4.389294 J-12.155159
G03 X66.194996 Y239.399323 Z-0.687500 I169.935754 J263.632092
G03 X67.500000 Y238.592281 Z-0.687500 I44.436037 J70.395333
G02 X68.742206 Y237.708849 Z-0.687500 I-5.373557 J-8.870891
G02 X70.275570 Y236.293369 Z-0.687500 I-12.399873 J-14.970831
G03 X71.819675 Y235.288656 Z-0.687500 I2.994545 J2.913306
G03 X72.823076 Y235.350289 Z-0.687500 I0.431927 J1.166748
G03 X73.773969 Y236.038143 Z-0.687500 I-1.815816 J3.511379
G03 X74.320586 Y236.817664 Z-0.687500 I-1.820815 J1.858207
G03 X74.390913 Y237.685693 Z-0.687500 I-1.166175 J0.531346
G03 X73.707364 Y239.069791 Z-0.687500 I-3.885138 J-1.057873
G02 X72.796526 Y240.481247 Z-0.687500 I8.513188 J6.493332
G02 X71.761729 Y242.677848 Z-0.687500 I19.690470 J10.618024
G03 X69.762140 Y246.535026 Z-0.687500 I-21.833494 J-8.871752
G03 X67.162823 Y249.843750 Z-0.687500 I-18.602346 J-11.938544
G02 X65.610550 Y251.562301 Z-0.687500 I31.503635 J30.015820
G02 X65.639096 Y251.623714 Z-0.687500 I0.028270 J0.024201
G02 X65.806431 Y251.592030 Z-0.687500 I-0.003560 J-0.476520
G02 X68.615265 Y250.480336 Z-0.687500 I-53.751725 J-139.914705
G02 X73.655853 Y247.401552 Z-0.687500 I-6.935839 J-17.020983
G02 X79.234012 Y241.358770 Z-0.687500 I-23.217546 J-27.028398
G03 X79.825160 Y240.997392 Z-0.687500 I0.732266 J0.533656
G03 X80.645865 Y241.136166 Z-0.687500 I0.203664 J1.291728
G02 X83.360442 Y241.894506 Z-0.687500 I3.061023 J-5.719573
G02 X85.017630 Y241.369973 Z-0.687500 I0.131766 J-2.463794
G03 X86.124218 Y240.850323 Z-0.687500 I1.675671 J2.130263
G03 X88.173638 Y240.692202 Z-0.687500 I1.608791 J7.491265
G02 X91.850859 Y240.170127 Z-0.687500 I0.541363 J-9.398161
G02 X93.388466 Y238.849841 Z-0.687500 I-0.933720 J-2.642905
G03 X93.881868 Y238.368854 Z-0.687500 I1.005969 J0.538371
G03 X94.969249 Y238.054973 Z-0.687500 I1.382821 J2.750065
G02 X95.995547 Y237.649359 Z-0.687500 I-0.191477 J-1.985676
G02 X96.936397 Y236.538862 Z-0.687500 I-2.118329 J-2.748530
G03 X97.934412 Y235.617457 Z-0.687500 I1.828016 J0.978805
G03 X99.618315 Y235.367415 Z-0.687500 I1.303719 J2.984742
G02 X101.427903 Y235.279030 Z-0.687500 I0.640695 J-5.451304
G02 X102.234011 Y234.797303 Z-0.687500 I-0.314041 J-1.440829
G03 X102.999537 Y234.180019 Z-0.687500 I2.040285 J1.746939
G03 X103.712719 Y234.000000 Z-0.687500 I0.713181 J1.322697
G02 X104.986240 Y233.454883 Z-0.687500 I0.000000 J-1.760181
G02 X106.089334 Y231.509044 Z-0.687500 I-3.320226 J-3.167823
G03 X106.607230 Y230.752415 Z-0.687500 I1.360930 J0.375970
G03 X107.425706 Y230.514334 Z-0.687500 I0.728600 J0.978858
G03 X109.370173 Y231.317484 Z-0.687500 I-0.247796 J3.355327
G03 X109.701472 Y232.469167 Z-0.687500 I-0.711337 J0.828121
G02 X108.753270 Y236.800886 Z-0.687500 I24.822544 J7.703233
G02 X108.375000 Y242.608265 Z-0.687500 I44.389687 J5.807379
G03 X108.030900 Y243.817112 Z-0.687500 I-2.295435 J-0.000000
G03 X106.218750 Y246.088907 Z-0.687500 I-10.431549 J-6.462319
G03 X102.655432 Y248.805997 Z-0.687500 I-12.393899 J-12.558841
G03 X100.534177 Y249.375000 Z-0.687500 I-2.121255 J-3.669537
G03 X99.793105 Y248.929359 Z-0.687500 I0.000000 J-0.838999
G03 X100.007483 Y248.382726 Z-0.687500 I0.341671 J-0.181358
G02 X100.644183 Y248.065636 Z-0.687500 I-0.925925 J-2.656986
G02 X102.817271 Y246.506295 Z-0.687500 I-22.095011 J-33.085346
G03 X105.025160 Y245.038654 Z-0.687500 I11.663619 J15.151928
G03 X106.106325 Y244.634985 Z-0.687500 I1.791734 J3.149186
G02 X107.195253 Y244.301889 Z-0.687500 I-1.124543 J-5.622717
G02 X107.476725 Y244.061533 Z-0.687500 I-0.233851 J-0.558844
G02 X107.264608 Y243.757434 Z-0.687500 I-0.171812 J-0.106185
G02 X104.812500 Y244.604107 Z-0.687500 I1.973125 J9.688698
G02 X104.092098 Y245.027493 Z-0.687500 I2.780454 J5.555595
G02 X101.909756 Y246.584167 Z-0.687500 I36.029525 J52.818812
G03 X99.685527 Y248.032336 Z-0.687500 I-12.513297 J-16.786888
G03 X98.625233 Y248.437449 Z-0.687500 I-1.881760 J-3.334996
G02 X97.781850 Y248.803792 Z-0.687500 I0.512694 J2.334281
G02 X97.760543 Y249.012579 Z-0.687500 I0.078183 J0.113459
G02 X98.100340 Y249.217806 Z-0.687500 I0.550384 J-0.527358
G02 X99.696116 Y249.555089 Z-0.687500 I3.148650 J-10.953452
G02 X101.487447 Y249.583224 Z-0.687500 I1.011383 J-7.353627
G02 X102.934485 Y249.212927 Z-0.687500 I-0.542144 J-5.131082
G01 X104.352570 Y248.620413 Z-0.687500
G01 X104.113984 Y250.361107 Z-0.687500
G02 X104.390301 Y253.453283 Z-0.687500 I6.882755 J0.943390
G02 X106.177286 Y256.704729 Z-0.687500 I9.435582 J-3.068984
G03 X107.530991 Y258.490479 Z-0.687500 I-20.587791 J17.012737
G03 X107.625000 Y258.790831 Z-0.687500 I-0.432796 J0.300353
G02 X107.743744 Y259.006257 Z-0.687500 I0.254784 J0.000000
G02 X108.154166 Y259.125000 Z-0.687500 I0.410423 J-0.649918
G02 X109.175728 Y258.642396 Z-0.687500 I-0.000000 J-1.322508
G02 X111.589590 Y254.946542 Z-0.687500 I-15.594349 J-12.821295
G03 X112.862570 Y253.399418 Z-0.687500 I4.104415 J2.079861
G03 X113.439150 Y253.502667 Z-0.687500 I0.242019 J0.310019
G02 X114.380533 Y254.315355 Z-0.687500 I1.761108 J-1.088418
G02 X117.345330 Y255.186945 Z-0.687500 I5.061296 J-11.738168
G01 X119.003164 Y255.462576 Z-0.687500
G01 X117.720330 Y253.637538 Z-0.687500
G03 X116.504049 Y251.772660 Z-0.687500 I26.214149 J-18.426037
G03 X115.531564 Y250.012260 Z-0.687500 I22.381655 J-13.512954
G02 X114.215729 Y248.152396 Z-0.687500 I-6.831475 J3.437797
G02 X111.531795 Y245.847917 Z-0.687500 I-13.297956 J12.772418
G01 X110.516752 Y245.133334 Z-0.687500
G01 X110.773789 Y239.693421 Z-0.687500
G03 X111.113912 Y234.279247 Z-0.687500 I174.534807 J8.246642
G03 X111.225041 Y233.939254 Z-0.687500 I0.757373 J0.059395
G03 X112.152275 Y233.457121 Z-0.687500 I0.867856 J0.536365
G03 X114.674873 Y234.140377 Z-0.687500 I-0.371323 J6.369304
G02 X115.728849 Y234.515868 Z-0.687500 I1.979571 J-3.889558
G02 X118.312500 Y234.929805 Z-0.687500 I5.062032 J-23.325342
G03 X122.568033 Y235.808395 Z-0.687500 I-2.269311 J21.736956
G03 X123.000000 Y236.396130 Z-0.687500 I-0.183854 J0.587735
G03 X122.950597 Y236.497126 Z-0.687500 I-0.127936 J0.000000
G03 X121.500000 Y237.562500 Z-0.687500 I-20.122938 J-25.878841
G02 X120.088863 Y238.904306 Z-0.687500 I3.610579 J5.210066
G02 X120.106687 Y239.601568 Z-0.687500 I0.438338 J0.337654
G02 X120.931619 Y240.182051 Z-0.687500 I1.548556 J-1.324273
G02 X124.875000 Y241.509099 Z-0.687500 I19.223326 J-50.600462
G03 X127.674063 Y242.374718 Z-0.687500 I-30.084765 J102.240361
G03 X128.625000 Y242.725520 Z-0.687500 I-3.935522 J12.132485
G03 X128.949957 Y243.083792 Z-0.687500 I-0.217081 J0.523400
G03 X128.812500 Y243.340998 Z-0.687500 I-0.197043 J0.060028
G02 X125.944253 Y244.738307 Z-0.687500 I2.899160 J9.593559
G02 X123.379519 Y247.163991 Z-0.687500 I7.060632 J10.034094
G02 X121.994726 Y249.108953 Z-0.687500 I18.676209 J14.762723
G02 X121.875000 Y249.518702 Z-0.687500 I0.641296 J0.409749
G02 X122.052465 Y249.838207 Z-0.687500 I0.376348 J-0.000000
G02 X123.281250 Y250.394052 Z-0.687500 I2.708115 J-4.350588
G03 X128.982975 Y252.546441 Z-0.687500 I-12.923553 J42.862976
G03 X129.250477 Y253.125000 Z-0.687500 I-0.203736 J0.445320
G02 X129.093998 Y253.688201 Z-0.687500 I61.763288 J17.463663
G02 X128.951966 Y254.218699 Z-0.687500 I54.569064 J14.894152
G02 X129.089026 Y254.628062 Z-0.687500 I0.381050 J0.100046
G02 X131.250000 Y256.031395 Z-0.687500 I8.692147 J-11.019426
G03 X133.676094 Y257.328399 Z-0.687500 I-92.519169 J175.978147
G03 X133.782941 Y257.408137 Z-0.687500 I-0.222985 J0.410250
G03 X133.813569 Y257.518250 Z-0.687500 I-0.081939 J0.082107
G03 X133.462275 Y258.697024 Z-0.687500 I-13.037241 J-3.243578
G02 X133.288971 Y259.960128 Z-0.687500 I3.043765 J1.061059
G02 X133.700112 Y260.567151 Z-0.687500 I0.720493 J-0.045250
G02 X134.643364 Y260.802129 Z-0.687500 I1.055097 J-2.224681
G02 X137.961461 Y260.830848 Z-0.687500 I2.049231 J-45.066015
G02 X142.476008 Y260.020249 Z-0.687500 I-0.432998 J-15.388470
G02 X145.310719 Y258.336603 Z-0.687500 I-2.556351 J-7.532251
G01 X146.888227 Y256.882510 Z-0.687500
G01 X147.129866 Y260.286735 Z-0.687500
G02 X147.462396 Y263.661623 Z-0.687500 I61.846479 J-4.389943
G02 X147.607849 Y264.073377 Z-0.687500 I1.020018 J-0.128755
G02 X148.446811 Y264.450716 Z-0.687500 I0.698505 J-0.431703
G02 X152.671357 Y263.194303 Z-0.687500 I-3.224186 J-18.571446
G02 X155.883840 Y261.075989 Z-0.687500 I-4.325385 J-10.054639
G02 X157.943542 Y258.186821 Z-0.687500 I-6.408980 J-6.747763
G03 X158.477237 Y257.410862 Z-0.687500 I2.461767 J1.121656
G03 X158.692032 Y257.449289 Z-0.687500 I0.094242 J0.092753
G03 X158.813877 Y257.946068 Z-0.687500 I-1.282267 J0.577832
G03 X158.862773 Y260.226683 Z-0.687500 I-31.440006 J1.814899
G02 X159.125100 Y263.097945 Z-0.687500 I13.636916 J0.201704
G02 X159.667406 Y264.257933 Z-0.687500 I2.638041 J-0.526551
G03 X160.437283 Y265.358233 Z-0.687500 I-7.800498 J6.277471
G03 X160.909237 Y266.313684 Z-0.687500 I-5.396878 J3.260133
G02 X161.722801 Y267.401603 Z-0.687500 I2.388415 J-0.937938
G02 X162.506063 Y267.553082 Z-0.687500 I0.540824 J-0.695706
G02 X163.353388 Y267.057291 Z-0.687500 I-0.544388 J-1.902328
G02 X164.920388 Y265.165815 Z-0.687500 I-8.753258 J-8.846499
G02 X166.886536 Y261.299121 Z-0.687500 I-14.707853 J-9.911916
G02 X167.852096 Y257.079543 Z-0.687500 I-16.603204 J-6.019553
G03 X168.151399 Y254.677978 Z-0.687500 I54.990503 J5.633934
G03 X168.212730 Y254.625000 Z-0.687500 I0.061331 J0.009011
G03 X168.305470 Y254.663368 Z-0.687500 I-0.000000 J0.131266
G03 X170.497148 Y256.905528 Z-0.687500 I-90.512357 J90.666720
G02 X174.114035 Y260.094889 Z-0.687500 I20.229449 J-19.295616
G02 X177.616599 Y262.271085 Z-0.687500 I15.260991 J-20.655638
G02 X181.356936 Y263.607015 Z-0.687500 I6.880740 J-13.360623
G02 X182.814022 Y263.248737 Z-0.687500 I0.359226 J-1.681118
G02 X182.975167 Y262.734473 Z-0.687500 I-0.316721 J-0.381624
G02 X182.381918 Y261.691985 Z-0.687500 I-2.367193 J0.657058
G03 X181.714125 Y260.822275 Z-0.687500 I3.633731 J-3.481334
G03 X181.778775 Y260.676426 Z-0.687500 I0.083066 J-0.050433
G03 X182.093358 Y260.703843 Z-0.687500 I0.109183 J0.565707
G03 X183.765026 Y261.425042 Z-0.687500 I-7.589249 J19.889106
G02 X185.565204 Y262.063532 Z-0.687500 I3.810973 J-7.887796
G02 X187.723103 Y262.419628 Z-0.687500 I3.691079 J-15.651119
G02 X189.861080 Y262.406330 Z-0.687500 I1.003843 J-10.480653
G02 X190.320109 Y262.052892 Z-0.687500 I-0.059869 J-0.552557
G02 X190.288916 Y260.841704 Z-0.687500 I-1.479870 J-0.567883
G02 X188.633239 Y258.254178 Z-0.687500 I-9.312688 J4.135425
G01 X187.466239 Y256.925037 Z-0.687500
G01 X188.701871 Y256.806268 Z-0.687500
G02 X189.566687 Y256.365613 Z-0.687500 I-0.126637 J-1.317492
G02 X189.882487 Y255.471328 Z-0.687500 I-0.946616 J-0.837182
G03 X190.180667 Y254.693332 Z-0.687500 I1.041166 J-0.047095
G03 X190.819987 Y254.518316 Z-0.687500 I0.470256 J0.462606
G02 X194.836599 Y254.894607 Z-0.687500 I3.132866 J-11.815658
G02 X197.648370 Y254.023354 Z-0.687500 I-0.470530 J-6.491333
G02 X198.808811 Y253.196592 Z-0.687500 I-3.978077 J-6.811395
G02 X198.937500 Y252.916481 Z-0.687500 I-0.240509 J-0.280111
G02 X198.786253 Y252.683892 Z-0.687500 I-0.254462 J0.000000
G02 X197.343750 Y252.209227 Z-0.687500 I-3.092336 J6.968374
G03 X195.845333 Y251.779438 Z-0.687500 I2.758051 J-12.442618
G03 X195.750000 Y251.644519 Z-0.687500 I0.047806 J-0.134920
G03 X195.835598 Y251.488803 Z-0.687500 I0.184435 J0.000000
G03 X196.850730 Y250.945854 Z-0.687500 I4.148483 J6.535813
G02 X199.308105 Y249.192032 Z-0.687500 I-3.028551 J-6.841962
G02 X199.637396 Y247.941327 Z-0.687500 I-1.006768 J-0.933767
G02 X199.297313 Y246.989829 Z-0.687500 I-4.463537 J1.058828
G02 X198.826935 Y246.278951 Z-0.687500 I-2.934575 J1.430706
G03 X198.381964 Y245.629098 Z-0.687500 I2.588708 J-2.249821
G03 X198.408547 Y245.485657 Z-0.687500 I0.104085 J-0.054894
G03 X198.571393 Y245.362903 Z-0.687500 I0.920421 J1.051638
G03 X200.156250 Y244.358252 Z-0.687500 I64.138485 J99.427317
G02 X201.616433 Y243.291427 Z-0.687500 I-6.472120 J-10.391209
G02 X201.750000 Y243.002440 Z-0.687500 I-0.245843 J-0.288987
G02 X201.573307 Y242.758629 Z-0.687500 I-0.256559 J0.000000
G02 X198.843750 Y242.050432 Z-0.687500 I-7.004911 J21.384297
G03 X197.709875 Y241.695301 Z-0.687500 I1.006655 J-5.201797
G03 X194.371879 Y240.134834 Z-0.687500 I34.765116 J-78.716473
G03 X191.032671 Y238.383193 Z-0.687500 I34.222364 J-69.297775
G03 X190.875000 Y238.115104 Z-0.687500 I0.149081 J-0.268089
G03 X191.004059 Y237.926566 Z-0.687500 I0.202244 J0.000000
G03 X192.832860 Y237.355121 Z-0.687500 I5.146552 J13.258480
G02 X197.535075 Y235.737199 Z-0.687500 I-6.054825 J-25.239381
G02 X199.932296 Y234.122089 Z-0.687500 I-3.634576 J-7.981191
G01 X200.927092 Y233.179530 Z-0.687500
G01 X201.182869 Y233.985409 Z-0.687500
G02 X201.620550 Y234.596844 Z-0.687500 I1.160457 J-0.368315
G02 X201.904912 Y234.582224 Z-0.687500 I0.133270 J-0.180652
G02 X202.149579 Y234.190859 Z-0.687500 I-0.574530 J-0.631335
G02 X202.343096 Y232.929574 Z-0.687500 I-4.627003 J-1.355403
G03 X202.608510 Y231.484304 Z-0.687500 I4.552076 J0.088953
G03 X203.093096 Y230.834111 Z-0.687500 I1.305345 J0.467191
G02 X203.427471 Y230.225104 Z-0.687500 I-0.487831 J-0.664140
G02 X203.199547 Y229.246594 Z-0.687500 I-1.719429 J-0.115296
G03 X202.677244 Y228.152586 Z-0.687500 I6.629057 J-3.836543
G03 X202.326004 Y226.968750 Z-0.687500 I7.419471 J-2.845355
G03 X202.416089 Y226.033624 Z-0.687500 I1.521502 J-0.325329
G03 X202.845202 Y225.750000 Z-0.687500 I0.429114 J0.182806
G02 X203.467456 Y225.170246 Z-0.687500 I0.000000 J-0.623812
G02 X203.034847 Y223.071529 Z-0.687500 I-3.950211 J-0.279688
G03 X202.543692 Y221.945675 Z-0.687500 I8.286138 J-4.284900
G03 X202.576628 Y221.798374 Z-0.687500 I0.132532 J-0.047700
G03 X202.731380 Y221.745291 Z-0.687500 I0.131630 J0.131623
G03 X204.187500 Y222.000000 Z-0.687500 I-1.888521 J15.085811
G02 X205.642586 Y222.251145 Z-0.687500 I3.191834 J-14.152062
G02 X205.804961 Y222.195037 Z-0.687500 I0.023510 J-0.194973
G02 X205.907004 Y221.336069 Z-0.687500 I-0.494257 J-0.494262
G02 X204.442174 Y219.966866 Z-0.687500 I-3.204036 J1.959642
G03 X203.504285 Y219.353499 Z-0.687500 I2.659719 J-5.090663
G03 X202.312500 Y218.255625 Z-0.687500 I7.521669 J-9.360869
G03 X201.691574 Y217.114367 Z-0.687500 I1.829534 J-1.734941
G03 X201.898541 Y216.546990 Z-0.687500 I0.529505 J-0.128285
G02 X202.088762 Y215.971767 Z-0.687500 I-0.309566 J-0.421434
G02 X201.287550 Y214.561361 Z-0.687500 I-3.582584 J1.102388
G03 X200.118584 Y213.009014 Z-0.687500 I8.086703 J-7.305847
G03 X199.498748 Y211.683701 Z-0.687500 I5.246615 J-3.261395
G03 X199.375918 Y210.398366 Z-0.687500 I2.765988 J-0.912860
G03 X199.734739 Y209.853435 Z-0.687500 I0.737634 J0.095108
G03 X200.467062 Y209.517854 Z-0.687500 I1.962506 J3.315838
G03 X201.525847 Y209.250000 Z-0.687500 I2.261237 J6.711792
G01 X202.614195 Y209.062500 Z-0.687500
G01 X201.531019 Y207.778095 Z-0.687500
G03 X200.657467 Y206.411395 Z-0.687500 I4.714410 J-3.975827
G03 X200.392898 Y205.340595 Z-0.687500 I2.584047 J-1.206542
G02 X200.322811 Y204.188491 Z-0.687500 I-43.884538 J2.091470
G02 X200.052634 Y200.744438 Z-0.687500 I-392.203737 J29.034750
G03 X200.109216 Y196.090880 Z-0.687500 I24.488967 J-2.029362
G03 X201.081146 Y191.168531 Z-0.687500 I28.398015 J3.050129
G03 X201.549048 Y190.129642 Z-0.687500 I3.912459 J1.137306
G03 X201.772388 Y190.007938 Z-0.687500 I0.220869 J0.139540
G03 X201.956262 Y190.141884 Z-0.687500 I-0.001852 J0.195721
G03 X202.123144 Y191.178394 Z-0.687500 I-3.098178 J1.030506
G02 X203.037569 Y196.026972 Z-0.687500 I13.182973 J0.024253
G02 X206.596751 Y202.555087 Z-0.687500 I27.860730 J-10.955592
G01 X207.982343 Y204.480990 Z-0.687500
G01 X206.538244 Y205.834252 Z-0.687500
G02 X204.533530 Y208.800085 Z-0.687500 I5.522739 J5.893464
G02 X204.419786 Y211.281173 Z-0.687500 I3.623473 J1.409267
G03 X204.721261 Y213.961870 Z-0.687500 I-7.785571 J2.232877
G03 X204.146212 Y216.221550 Z-0.687500 I-6.042016 J-0.334577
G02 X204.002969 Y217.994376 Z-0.687500 I2.265988 J1.075291
G02 X204.842074 Y218.625000 Z-0.687500 I0.839105 J-0.242943
G03 X205.642318 Y218.820801 Z-0.687500 I-0.000000 J1.733210
G03 X207.659269 Y220.091393 Z-0.687500 I-6.699862 J12.871595
G02 X209.641382 Y221.500314 Z-0.687500 I27.629785 J-36.771711
G02 X210.086678 Y221.721997 Z-0.687500 I1.073139 J-1.597539
G03 X210.173579 Y221.973445 Z-0.687500 I-0.055150 J0.159801
G03 X208.989619 Y223.422435 Z-0.687500 I-7.027194 J-4.533676
G02 X207.579325 Y225.618839 Z-0.687500 I4.062597 J4.159533
G02 X206.834839 Y229.429616 Z-0.687500 I12.110602 J4.344079
G03 X206.629128 Y231.157067 Z-0.687500 I-11.288690 J-0.468321
G03 X206.254897 Y232.356829 Z-0.687500 I-5.784247 J-1.145981
G02 X206.167561 Y233.515897 Z-0.687500 I1.626891 J0.705412
G02 X207.510630 Y237.101861 Z-0.687500 I18.604371 J-4.923492
G02 X210.126883 Y241.002375 Z-0.687500 I15.906637 J-7.841633
G02 X211.269825 Y241.356720 Z-0.687500 I0.862706 J-0.762206
G02 X211.950526 Y240.908870 Z-0.687500 I-0.300781 J-1.198401
G02 X212.501651 Y239.745880 Z-0.687500 I-2.448480 J-1.872383
G03 X213.077612 Y238.603639 Z-0.687500 I2.675421 J0.632717
G03 X213.917767 Y238.070865 Z-0.687500 I1.269738 J1.073482
G02 X214.907125 Y237.605711 Z-0.687500 I-0.796880 J-2.979652
G02 X216.763061 Y236.049637 Z-0.687500 I-8.766583 J-12.340775
G03 X218.643567 Y234.669040 Z-0.687500 I5.682934 J5.769688
G03 X219.787927 Y234.441056 Z-0.687500 I0.951263 J1.788805
G03 X220.906573 Y234.821988 Z-0.687500 I-0.244136 J2.549903
G03 X221.180645 Y235.308903 Z-0.687500 I-0.311647 J0.496010
G03 X220.990341 Y235.951786 Z-0.687500 I-1.122174 J0.017426
G03 X219.832455 Y237.308606 Z-0.687500 I-6.435216 J-4.319228
G02 X218.152355 Y239.582120 Z-0.687500 I5.221985 J5.616529
G02 X218.096891 Y240.891897 Z-0.687500 I1.484297 J0.718917
G02 X218.506481 Y241.228167 Z-0.687500 I0.500516 J-0.192064
G02 X220.261642 Y241.264452 Z-0.687500 I0.997817 J-5.797872
G02 X222.190263 Y240.463145 Z-0.687500 I-0.513837 J-3.958319
G02 X222.744259 Y239.343750 Z-0.687500 I-0.873549 J-1.129111
G03 X222.787395 Y238.708617 Z-0.687500 I5.218699 J0.035406
G03 X222.927490 Y238.561800 Z-0.687500 I0.170070 J0.022034
G03 X223.190760 Y238.586800 Z-0.687500 I0.086535 J0.487453
G03 X224.364413 Y239.056129 Z-0.687500 I-14.680952 J38.414806
G03 X225.529671 Y239.763956 Z-0.687500 I-1.757568 J4.206460
G03 X225.935479 Y240.368629 Z-0.687500 I-0.833852 J0.998123
G02 X226.362484 Y240.869532 Z-0.687500 I0.808195 J-0.256507
G02 X227.438359 Y241.125000 Z-0.687500 I1.075874 J-2.137725
G03 X228.681696 Y241.231057 Z-0.687500 I-0.000000 J7.341043
G03 X229.742779 Y241.521017 Z-0.687500 I-0.966129 J5.621914
G02 X230.776511 Y241.656087 Z-0.687500 I0.800952 J-2.106660
G02 X232.236934 Y241.262024 Z-0.687500 I-0.490069 J-4.719473
G03 X234.084680 Y241.162144 Z-0.687500 I1.052771 J2.334631
G03 X235.375927 Y242.287044 Z-0.687500 I-0.680883 J2.085118
G03 X235.813200 Y243.188061 Z-0.687500 I-350.776433 J170.791912
G03 X236.688427 Y245.000362 Z-0.687500 I-1418.019932 J685.932019
G02 X238.196440 Y247.249077 Z-0.687500 I8.649031 J-4.170132
G02 X243.997073 Y253.344616 Z-0.687500 I110.101119 J-98.966589
G02 X250.186808 Y259.136398 Z-0.687500 I101.020510 J-101.758202
G02 X251.988938 Y260.189951 Z-0.687500 I3.587907 J-4.069136
G02 X253.014855 Y260.384279 Z-0.687500 I1.163655 J-3.338062
G02 X253.252785 Y260.266136 Z-0.687500 I0.010797 J-0.276911
G02 X253.264209 Y260.016994 Z-0.687500 I-0.191123 J-0.133598
G02 X252.643459 Y259.253602 Z-0.687500 I-2.612681 J1.490420
G03 X251.804702 Y258.392660 Z-0.687500 I5.336230 J-6.037767
G03 X247.348331 Y252.937500 Z-0.687500 I212.069515 J-177.789343
G03 X243.925341 Y247.644878 Z-0.687500 I25.162773 J-20.027177
G03 X241.969072 Y242.501470 Z-0.687500 I21.788310 J-11.230802
G03 X241.691506 Y240.076228 Z-0.687500 I8.656222 J-2.219200
G03 X242.040424 Y239.407720 Z-0.687500 I0.852545 J0.019662
G03 X242.990724 Y239.290566 Z-0.687500 I0.580090 J0.792652
G03 X244.212870 Y240.291713 Z-0.687500 I-1.007880 J2.476904
G02 X247.388998 Y243.724788 Z-0.687500 I12.095323 J-8.004312
G02 X253.262509 Y247.348878 Z-0.687500 I19.422407 J-24.906012
G02 X256.241417 Y248.468325 Z-0.687500 I8.145054 J-17.151178
G02 X259.801369 Y249.197787 Z-0.687500 I6.736510 J-23.824382
G02 X263.553292 Y249.561819 Z-0.687500 I7.573815 J-58.543337
G02 X263.717919 Y249.398130 Z-0.687500 I0.010027 J-0.154545
G02 X263.544585 Y249.143928 Z-0.687500 I-0.299001 J0.017684
G02 X259.700145 Y247.486308 Z-0.687500 I-33.954396 J73.461887
G03 X254.002413 Y244.023322 Z-0.687500 I7.555842 J-18.850602
G03 X246.281250 Y235.928419 Z-0.687500 I37.308447 J-43.315717
G03 X244.782830 Y233.301508 Z-0.687500 I8.220709 J-6.429998
G03 X244.969811 Y232.576924 Z-0.687500 I0.595082 J-0.232855
G03 X245.447259 Y232.435757 Z-0.687500 I0.403258 J0.485895
G03 X246.166485 Y232.718505 Z-0.687500 I-0.178748 J1.510802
G02 X246.946994 Y233.085759 Z-0.687500 I1.337003 J-1.828458
G02 X248.263553 Y233.250000 Z-0.687500 I1.316559 J-5.194640
G03 X249.533841 Y233.475184 Z-0.687500 I-0.000000 J3.695512
G03 X250.312500 Y234.000000 Z-0.687500 I-0.672986 J1.838545
G02 X251.016009 Y234.627756 Z-0.687500 I3.282913 J-2.970995
G02 X251.322683 Y234.671663 Z-0.687500 I0.195541 J-0.272816
G02 X251.574411 Y234.451514 Z-0.687500 I-0.148838 J-0.424179
G02 X252.011055 Y233.404001 Z-0.687500 I-6.645053 J-3.384680
G03 X252.660455 Y232.259790 Z-0.687500 I3.184529 J1.050996
G03 X253.488450 Y231.697834 Z-0.687500 I1.466611 J1.269961
G02 X254.378466 Y231.180678 Z-0.687500 I-0.892643 J-2.560654
G02 X254.930824 Y230.439574 Z-0.687500 I-1.437376 J-1.647693
G03 X255.519099 Y229.876243 Z-0.687500 I1.000301 J0.455767
G03 X256.633136 Y229.751321 Z-0.687500 I0.780493 J1.930460
G02 X257.778520 Y229.625806 Z-0.687500 I0.345952 J-2.131852
G02 X258.569209 Y228.979886 Z-0.687500 I-0.627666 J-1.575257
G02 X258.985061 Y227.959198 Z-0.687500 I-2.401279 J-1.573395
G02 X258.963923 Y226.968056 Z-0.687500 I-2.279292 J-0.447185
G03 X258.725917 Y225.935199 Z-0.687500 I52.016353 J-12.530205
G03 X258.324623 Y224.062500 Z-0.687500 I170.616894 J-37.540253
G02 X257.831003 Y222.236840 Z-0.687500 I-15.845672 J3.304773
G02 X257.538349 Y221.709686 Z-0.687500 I-1.560426 J0.521472
G03 X257.665584 Y221.321479 Z-0.687500 I0.186123 J-0.153952
G03 X259.076201 Y221.323103 Z-0.687500 I0.702095 J2.792969
G02 X260.697592 Y221.510976 Z-0.687500 I1.511660 J-5.955531
G02 X263.258494 Y221.248399 Z-0.687500 I-0.272952 J-15.281513
G03 X265.818059 Y220.991655 Z-0.687500 I2.759790 J14.626311
G03 X267.444394 Y221.192085 Z-0.687500 I0.081246 J6.039186
G02 X269.069302 Y221.521448 Z-0.687500 I3.614194 J-13.657651
G02 X269.812500 Y221.528891 Z-0.687500 I0.399787 J-2.810971
G03 X270.279991 Y221.786990 Z-0.687500 I0.055146 J0.452545
G03 X270.750000 Y223.516965 Z-0.687500 I-4.647018 J2.191361
G02 X272.468312 Y228.230977 Z-0.687500 I9.732948 J-0.877594
G02 X274.526010 Y228.929246 Z-0.687500 I1.503215 J-1.048755
G03 X275.153868 Y228.942436 Z-0.687500 I0.294570 J0.928111
G03 X277.562955 Y230.035552 Z-0.687500 I-5.914325 J16.235625
G02 X282.844738 Y231.797885 Z-0.687500 I7.468417 J-13.587121
G02 X285.106747 Y231.110216 Z-0.687500 I0.394231 J-2.767370
G03 X286.003511 Y230.472057 Z-0.687500 I3.253096 J3.622201
G03 X287.625000 Y229.717410 Z-0.687500 I6.221934 J11.249552
G02 X289.179908 Y228.870100 Z-0.687500 I-2.389790 J-6.235896
G02 X291.262102 Y227.054884 Z-0.687500 I-9.599381 J-13.113069
G03 X293.302083 Y225.160529 Z-0.687500 I18.643191 J18.030777
G03 X294.449228 Y224.399115 Z-0.687500 I4.061220 J4.873776
G01 X295.686746 Y223.759170 Z-0.687500
G01 X293.999625 Y223.041578 Z-0.687500
G02 X292.255390 Y222.618216 Z-0.687500 I-2.150973 J5.057165
G02 X285.937500 Y222.443246 Z-0.687500 I-5.043370 J67.956131
G01 X279.562500 Y222.562500 Z-0.687500
G01 X275.659342 Y220.593750 Z-0.687500
G02 X271.729983 Y218.735120 Z-0.687500 I-38.635391 J76.596820
G02 X271.208846 Y218.625000 Z-0.687500 I-0.521137 J1.178066
G03 X270.714576 Y218.484131 Z-0.687500 I0.000000 J-0.937560
G03 X269.343341 Y217.467630 Z-0.687500 I5.451692 J-8.787334
G02 X267.936047 Y216.635386 Z-0.687500 I-2.909220 J3.313422
G02 X266.788894 Y216.542186 Z-0.687500 I-0.744267 J2.054352
G03 X265.728481 Y216.347931 Z-0.687500 I-0.277261 J-1.477919
G03 X264.383295 Y215.074556 Z-0.687500 I2.311983 J-3.789577
G03 X263.302386 Y213.399599 Z-0.687500 I27.792095 J-19.121476
G03 X263.325735 Y213.324356 Z-0.687500 I0.045097 J-0.027250
G03 X263.442688 Y213.296327 Z-0.687500 I0.131211 J0.289477
G03 X265.768001 Y213.214669 Z-0.687500 I5.340593 J118.930329
G02 X267.981706 Y212.871296 Z-0.687500 I-0.221261 J-8.733969
G02 X269.049251 Y212.262446 Z-0.687500 I-0.732839 J-2.525275
G02 X269.884757 Y210.767057 Z-0.687500 I-1.939965 J-2.065001
G02 X269.570861 Y209.720861 Z-0.687500 I-1.128490 J-0.231601
G03 X269.378761 Y209.244577 Z-0.687500 I0.464048 J-0.464048
G03 X269.599474 Y208.186601 Z-0.687500 I2.905802 J0.054194
G02 X269.594532 Y206.507454 Z-0.687500 I-2.012635 J-0.833658
G02 X268.330800 Y205.174024 Z-0.687500 I-2.403227 J1.012058
G03 X267.794764 Y204.899446 Z-0.687500 I6.223173 J-12.809523
G03 X267.760305 Y204.844531 Z-0.687500 I0.031190 J-0.057842
G03 X267.795009 Y204.804119 Z-0.687500 I0.038865 J-0.001733
G03 X268.312500 Y204.763455 Z-0.687500 I0.966537 J8.987136
G02 X270.320840 Y203.682250 Z-0.687500 I-0.131857 J-2.650774
G02 X270.861060 Y201.288345 Z-0.687500 I-2.477603 J-1.817014
G02 X270.419189 Y200.344164 Z-0.687500 I-2.078841 J0.397397
G02 X269.063853 Y198.974842 Z-0.687500 I-7.961877 J6.525154
G02 X267.476829 Y197.883056 Z-0.687500 I-6.569922 J7.850718
G02 X266.483550 Y197.625000 Z-0.687500 I-0.993279 J1.782577
G03 X263.525104 Y197.025405 Z-0.687500 I0.000000 J-7.598393
G03 X262.884225 Y196.103543 Z-0.687500 I0.409279 J-0.968231
G03 X262.938684 Y195.915960 Z-0.687500 I0.304143 J-0.013398
G03 X263.856649 Y194.709653 Z-0.687500 I15.033909 J10.487938
G01 X264.838298 Y193.524720 Z-0.687500
G01 X266.387899 Y194.567813 Z-0.687500
G02 X267.955864 Y195.581408 Z-0.687500 I28.028226 J-41.638278
G02 X269.706041 Y196.626315 Z-0.687500 I31.540144 J-50.840248
G03 X271.354896 Y197.778136 Z-0.687500 I-5.661225 J9.860253
G03 X272.469300 Y198.945862 Z-0.687500 I-4.708159 J5.608787
G02 X273.555393 Y200.065528 Z-0.687500 I5.242341 J-3.998555
G02 X274.075759 Y200.250383 Z-0.687500 I0.520882 J-0.641441
G03 X274.560349 Y200.467851 Z-0.687500 I-0.000405 J0.649548
G03 X275.730461 Y202.107735 Z-0.687500 I-6.976760 J6.215553
G02 X278.268355 Y205.264573 Z-0.687500 I10.725115 J-6.023730
G02 X280.613501 Y206.462430 Z-0.687500 I3.460522 J-3.880383
G03 X281.681664 Y206.796336 Z-0.687500 I-1.385168 J6.306612
G03 X282.894776 Y207.399480 Z-0.687500 I-3.595230 J8.752691
G02 X285.073733 Y208.082738 Z-0.687500 I2.553913 J-4.328551
G02 X289.593707 Y208.058024 Z-0.687500 I2.106130 J-28.151329
G02 X294.051688 Y207.311301 Z-0.687500 I-2.407642 J-28.054343
G02 X296.062500 Y206.269418 Z-0.687500 I-1.202147 J-4.781469
G03 X296.871396 Y205.725249 Z-0.687500 I2.707293 J3.151046
G03 X298.593750 Y204.969004 Z-0.687500 I7.067502 J13.756837
G02 X300.211321 Y204.198826 Z-0.687500 I-3.388752 J-9.201005
G02 X300.375000 Y203.911271 Z-0.687500 I-0.170754 J-0.287555
G02 X300.289087 Y203.531969 Z-0.687500 I-0.880257 J0.000000
G02 X299.062500 Y201.162608 Z-0.687500 I-37.383958 J17.851002
G03 X297.868640 Y198.784714 Z-0.687500 I26.041482 J-14.563191
G03 X297.750000 Y198.229039 Z-0.687500 I1.241988 J-0.555675
G02 X297.555682 Y197.738307 Z-0.687500 I-0.716810 J-0.000000
G02 X295.781250 Y196.132868 Z-0.687500 I-10.739754 J10.086927
G03 X293.837983 Y194.593104 Z-0.687500 I47.383853 J-61.797210
G03 X292.875000 Y193.753796 Z-0.687500 I13.094761 J-15.996411
G02 X290.950089 Y192.570004 Z-0.687500 I-3.937002 J4.244882
G02 X286.892329 Y191.536372 Z-0.687500 I-6.908543 J18.639423
G02 X280.381306 Y191.106372 Z-0.687500 I-6.007730 J41.458764
G02 X271.752052 Y191.718281 Z-0.687500 I0.884622 J73.626639
G03 X266.958656 Y191.332906 Z-0.687500 I-1.491759 J-11.448565
G03 X265.212994 Y189.766800 Z-0.687500 I0.785252 J-2.631237
G03 X264.690343 Y187.728459 Z-0.687500 I6.605327 J-2.779849
G03 X264.542421 Y184.575523 Z-0.687500 I27.663610 J-2.877787
G03 X264.838779 Y182.279373 Z-0.687500 I9.794099 J0.096897
G03 X265.287757 Y182.209965 Z-0.687500 I0.239170 J0.060261
G02 X266.181034 Y182.610246 Z-0.687500 I0.741741 J-0.458417
G02 X267.300619 Y181.854750 Z-0.687500 I-0.288506 J-1.634859
G03 X267.873419 Y181.325567 Z-0.687500 I1.254809 J0.783637
G03 X268.422071 Y181.272154 Z-0.687500 I0.340789 J0.655996
G02 X269.053244 Y181.309298 Z-0.687500 I0.396269 J-1.352428
G02 X270.187500 Y180.973687 Z-0.687500 I-0.822030 J-4.862717
G03 X271.262389 Y180.877170 Z-0.687500 I0.683894 J1.582718
G03 X272.674515 Y181.552766 Z-0.687500 I-0.822653 J3.533112
G02 X274.104408 Y182.507932 Z-0.687500 I7.089246 J-9.064817
G02 X277.259857 Y184.142591 Z-0.687500 I24.169728 J-42.792920
G02 X283.123738 Y185.864400 Z-0.687500 I8.398108 J-17.754954
G02 X287.669835 Y185.497088 Z-0.687500 I1.411434 J-10.847549
G03 X289.693053 Y184.913835 Z-0.687500 I30.285212 J101.254318
G03 X291.281250 Y184.494847 Z-0.687500 I17.197137 J61.967132
G02 X292.764678 Y183.918429 Z-0.687500 I-1.543631 J-6.169611
G02 X292.767304 Y183.728109 Z-0.687500 I-0.051899 J-0.095894
G02 X292.305935 Y183.593897 Z-0.687500 I-0.504228 J0.873233
G02 X289.781250 Y183.628706 Z-0.687500 I-0.953548 J22.414042
G03 X285.277646 Y183.189429 Z-0.687500 I-0.951413 J-13.551617
G03 X280.987860 Y181.246537 Z-0.687500 I3.847407 J-14.202080
G03 X276.812396 Y177.724993 Z-0.687500 I13.202002 J-19.889675
G03 X276.187500 Y176.150171 Z-0.687500 I1.671933 J-1.574822
G03 X276.328791 Y175.797085 Z-0.687500 I0.511828 J0.000000
G03 X276.987188 Y175.310963 Z-0.687500 I1.715952 J1.635136
G02 X277.714923 Y174.820877 Z-0.687500 I-1.507738 J-3.024218
G02 X278.788410 Y173.722020 Z-0.687500 I-6.853015 J-7.768578
G02 X279.468219 Y172.447200 Z-0.687500 I-2.656427 J-2.235229
G02 X279.529972 Y171.146006 Z-0.687500 I-2.712260 J-0.780784
G03 X279.384696 Y170.188464 Z-0.687500 I13.649915 J-2.560739
G03 X279.445553 Y169.963654 Z-0.687500 I0.311801 J-0.036236
G03 X279.640052 Y169.877022 Z-0.687500 I0.175177 J0.131638
G03 X280.401289 Y169.986506 Z-0.687500 I-0.621912 J7.025249
G02 X281.488273 Y170.011782 Z-0.687500 I0.615327 J-3.076634
G02 X282.220196 Y169.709963 Z-0.687500 I-0.250117 J-1.644923
G02 X282.578857 Y169.121073 Z-0.687500 I-0.532168 J-0.727780
G02 X282.453911 Y168.210934 Z-0.687500 I-1.581362 J-0.246553
G03 X282.088176 Y167.320802 Z-0.687500 I11.623304 J-5.295955
G03 X282.101047 Y167.000779 Z-0.687500 I0.393104 J-0.144461
G03 X282.330728 Y166.755301 Z-0.687500 I0.485707 J0.224262
G03 X283.372384 Y166.221701 Z-0.687500 I10.933611 J20.060315
G02 X285.112573 Y164.695686 Z-0.687500 I-1.864218 J-3.881079
G02 X285.089445 Y163.593750 Z-0.687500 I-0.817367 J-0.534055
G03 X284.624163 Y162.752014 Z-0.687500 I3.386810 J-2.421572
G03 X283.859704 Y160.595291 Z-0.687500 I21.804201 J-8.942435
G03 X283.702343 Y159.075534 Z-0.687500 I3.896076 J-1.171438
G03 X284.061105 Y158.251541 Z-0.687500 I1.402432 J0.120514
G03 X284.794126 Y157.619184 Z-0.687500 I2.915127 J2.638149
G03 X285.187500 Y157.500000 Z-0.687500 I0.393374 J0.589583
G02 X285.580874 Y157.380816 Z-0.687500 I0.000000 J-0.708772
G02 X286.313880 Y156.748478 Z-0.687500 I-2.182038 J-3.270431
G02 X286.670514 Y155.949918 Z-0.687500 I-1.044784 J-0.945513
G02 X286.500664 Y154.967228 Z-0.687500 I-1.822173 J-0.191075
G03 X286.135328 Y153.905806 Z-0.687500 I4.400253 J-2.108131
G03 X285.950276 Y152.461373 Z-0.687500 I8.020369 J-1.761586
G02 X285.736663 Y151.102743 Z-0.687500 I-5.871037 J0.226979
G02 X285.499793 Y150.854096 Z-0.687500 I-0.352708 J0.098853
G03 X284.371124 Y149.865569 Z-0.687500 I0.612734 J-1.838202
G03 X283.697385 Y147.160069 Z-0.687500 I6.013567 J-2.934172
G02 X283.467780 Y144.591002 Z-0.687500 I-23.465149 J0.802359
G02 X283.144391 Y143.348899 Z-0.687500 I-5.753627 J0.834839
G03 X283.109200 Y142.246199 Z-0.687500 I1.574372 J-0.602155
G03 X283.820066 Y141.176179 Z-0.687500 I2.182274 J0.678648
G02 X284.840418 Y140.137167 Z-0.687500 I-4.944552 J-5.876267
G02 X285.192728 Y139.483530 Z-0.687500 I-1.550877 J-1.257688
G03 X285.555882 Y138.859480 Z-0.687500 I1.578898 J0.501122
G03 X285.804883 Y138.801546 Z-0.687500 I0.167256 J0.154796
G03 X286.053054 Y139.014921 Z-0.687500 I-0.174395 J0.453841
G03 X286.455457 Y139.968750 Z-0.687500 I-3.817089 J2.172162
G01 X286.807357 Y141.187500 Z-0.687500
G01 X286.841183 Y140.112514 Z-0.687500
G03 X287.151953 Y139.410467 Z-0.687500 I1.020931 J0.032123
G03 X287.718754 Y139.263641 Z-0.687500 I0.413027 J0.426990
G02 X288.567527 Y139.453259 Z-0.687500 I2.677917 J-9.992530
G02 X289.005983 Y139.494881 Z-0.687500 I0.469086 J-2.611222
G03 X289.336064 Y139.652206 Z-0.687500 I-0.005365 J0.436189
G03 X289.711433 Y140.343750 Z-0.687500 I-1.551510 J1.289803
G02 X291.039958 Y143.050957 Z-0.687500 I9.317734 J-2.892971
G02 X291.646166 Y143.103840 Z-0.687500 I0.325303 J-0.228027
G02 X291.678084 Y142.905131 Z-0.687500 I-0.121422 J-0.121422
G02 X291.042754 Y141.906675 Z-0.687500 I-5.302045 J2.672398
G03 X290.349060 Y140.752296 Z-0.687500 I4.231131 J-3.328208
G03 X290.297280 Y140.165587 Z-0.687500 I0.837155 J-0.369522
G03 X290.622528 Y139.697565 Z-0.687500 I0.770107 J0.188155
G03 X291.708521 Y139.181734 Z-0.687500 I2.222901 J3.278829
G02 X292.963267 Y138.507396 Z-0.687500 I-1.018641 J-3.399920
G02 X293.779294 Y137.454521 Z-0.687500 I-1.988068 J-2.383512
G03 X294.528709 Y136.279246 Z-0.687500 I5.067182 J2.404524
G03 X295.508276 Y135.369109 Z-0.687500 I3.973383 J3.294275
G02 X296.438814 Y134.478634 Z-0.687500 I-2.591740 J-3.639783
G02 X296.621257 Y133.943216 Z-0.687500 I-0.679386 J-0.530294
G03 X296.695642 Y133.324036 Z-0.687500 I2.501675 J-0.013522
G03 X297.457350 Y130.593750 Z-0.687500 I49.938238 J12.460606
G03 X298.508034 Y128.160809 Z-0.687500 I11.739116 J3.626279
G03 X298.998596 Y127.875000 Z-0.687500 I0.490563 J0.278098
G02 X299.623106 Y127.689357 Z-0.687500 I0.000000 J-1.143257
G02 X301.015024 Y126.559980 Z-0.687500 I-4.726985 J-7.248279
G02 X302.011042 Y125.156761 Z-0.687500 I-3.635886 J-3.635886
G02 X302.096812 Y124.315691 Z-0.687500 I-1.118059 J-0.538926
G03 X302.639906 Y122.527801 Z-0.687500 I1.760139 J-0.441767
G03 X304.817989 Y121.855444 Z-0.687500 I1.811227 J2.003323
G02 X305.281345 Y121.788390 Z-0.687500 I0.115074 J-0.839290
G02 X305.978306 Y121.332135 Z-0.687500 I-1.102582 J-2.444723
G03 X306.710450 Y120.952066 Z-0.687500 I1.089918 J1.204342
G03 X308.320110 Y120.803333 Z-0.687500 I1.373895 J6.084326
G02 X310.327882 Y120.331762 Z-0.687500 I0.146927 J-3.884402
G02 X310.875004 Y119.410279 Z-0.687500 I-0.502439 J-0.921484
G03 X310.992245 Y118.523427 Z-0.687500 I3.412838 J0.000000
G03 X311.310244 Y117.792892 Z-0.687500 I2.614292 J0.703511
G02 X311.442105 Y117.095256 Z-0.687500 I-0.829574 J-0.518079
G02 X310.935244 Y115.784970 Z-0.687500 I-3.764512 J0.703059
G03 X310.253049 Y114.437241 Z-0.687500 I7.568170 J-4.677388
G03 X310.121340 Y113.768239 Z-0.687500 I1.680984 J-0.678407
G02 X309.553308 Y111.471495 Z-0.687500 I-5.032695 J0.026075
G02 X307.078140 Y107.918895 Z-0.687500 I-14.953306 J7.779719
G02 X305.698291 Y106.664046 Z-0.687500 I-7.240418 J6.575587
G02 X302.706581 Y104.647069 Z-0.687500 I-21.932824 J29.304934
G02 X299.484384 Y103.079808 Z-0.687500 I-10.181583 J16.836786
G02 X296.161785 Y102.172192 Z-0.687500 I-6.430626 J17.005748
G02 X290.739931 Y101.857014 Z-0.687500 I-4.090632 J23.576808
G02 X287.871405 Y102.634121 Z-0.687500 I0.398624 J7.154269
G03 X286.894940 Y103.019125 Z-0.687500 I-2.448562 J-4.779375
G03 X286.659608 Y103.005235 Z-0.687500 I-0.097821 J-0.343173
G03 X286.579005 Y102.847906 Z-0.687500 I0.052762 J-0.126343
G03 X286.793708 Y102.370531 Z-0.687500 I1.319860 J0.306647
G03 X287.671908 Y101.399173 Z-0.687500 I4.534108 J3.216598
G03 X289.875004 Y99.809854 Z-0.687500 I9.646962 J11.050895
G03 X291.649064 Y99.133312 Z-0.687500 I2.882864 J4.895300
G03 X294.877808 Y98.814289 Z-0.687500 I3.237700 J16.269745
G02 X297.948966 Y98.409134 Z-0.687500 I-0.006894 J-11.894845
G02 X298.733531 Y97.781250 Z-0.687500 I-0.323817 J-1.208737
G03 X299.458412 Y97.054914 Z-0.687500 I1.529456 J0.801510
G03 X300.691823 Y96.750000 Z-0.687500 I1.233411 J2.342181
G03 X302.997842 Y97.562201 Z-0.687500 I-0.000000 J3.679752
G03 X304.189189 Y99.562500 Z-0.687500 I-2.091182 J2.600398
G02 X304.540982 Y100.059731 Z-0.687500 I0.711014 J-0.129983
G02 X305.537242 Y100.334565 Z-0.687500 I1.034171 J-1.805704
G03 X306.651662 Y100.573094 Z-0.687500 I-0.054323 J2.976375
G03 X307.513706 Y101.178315 Z-0.687500 I-0.998177 J2.338286
G02 X308.808021 Y101.809416 Z-0.687500 I1.467772 J-1.367436
G02 X310.500004 Y101.437500 Z-0.687500 I0.251051 J-2.892559
G03 X312.471823 Y100.917496 Z-0.687500 I1.957540 J3.424353
G03 X314.654074 Y101.452538 Z-0.687500 I-0.017336 J4.788553
G02 X315.802189 Y101.817125 Z-0.687500 I1.637506 J-3.166594
G02 X317.066918 Y101.786936 Z-0.687500 I0.539762 J-3.894629
G03 X318.318122 Y101.799029 Z-0.687500 I0.595008 J3.171607
G03 X319.702905 Y102.334403 Z-0.687500 I-0.923840 J4.448187
G02 X321.949677 Y103.080373 Z-0.687500 I2.852300 J-4.834293
G02 X323.609475 Y102.758314 Z-0.687500 I0.308860 J-2.846311
G03 X324.327528 Y102.513586 Z-0.687500 I1.103435 J2.061792
G03 X326.209823 Y102.323839 Z-0.687500 I2.396722 J14.344473
G02 X327.853773 Y101.994254 Z-0.687500 I-0.183311 J-5.179104
G02 X328.125004 Y101.602211 Z-0.687500 I-0.147719 J-0.392043
G02 X327.527097 Y100.722911 Z-0.687500 I-0.945516 J0.000000
G02 X324.388316 Y100.125004 Z-0.687500 I-3.138781 J7.939732
G03 X323.073266 Y99.885408 Z-0.687500 I0.000000 J-3.728712
G03 X319.663024 Y98.344035 Z-0.687500 I10.307940 J-27.349221
G01 X316.312504 Y96.563070 Z-0.687500
G01 X310.875004 Y96.525870 Z-0.687500
G03 X305.481754 Y96.251741 Z-0.687500 I0.420316 J-61.460104
G03 X303.750004 Y95.848883 Z-0.687500 I0.630182 J-6.632470
G02 X300.719667 Y95.581911 Z-0.687500 I-1.989132 J5.246372
G02 X298.397509 Y96.859710 Z-0.687500 I0.790414 J4.185370
G03 X297.128581 Y97.654412 Z-0.687500 I-2.128642 J-1.988457
G03 X294.430421 Y98.085139 Z-0.687500 I-2.863091 J-9.268699
G02 X290.280866 Y99.095563 Z-0.687500 I0.164990 J9.703361
G02 X285.562504 Y102.486529 Z-0.687500 I7.986192 J16.090564
G03 X282.757258 Y104.672487 Z-0.687500 I-10.197560 J-10.193585
G03 X281.188571 Y105.098374 Z-0.687500 I-1.544262 J-2.586100
G03 X279.035493 Y104.670420 Z-0.687500 I0.047527 J-5.869264
G03 X278.625004 Y104.061619 Z-0.687500 I0.246215 J-0.608801
G02 X278.486816 Y103.613759 Z-0.687500 I-0.794836 J-0.000000
G02 X277.936748 Y103.052498 Z-0.687500 I-1.846134 J1.259136
G03 X277.404743 Y102.461478 Z-0.687500 I1.060509 J-1.489564
G03 X277.025509 Y101.437485 Z-0.687500 I3.002967 J-1.694365
G02 X276.768887 Y100.322253 Z-0.687500 I-18.405473 J3.648076
G02 X276.578269 Y99.733433 Z-0.687500 I-5.308660 J1.393299
G03 X276.724153 Y99.356100 Z-0.687500 I0.280223 J-0.108528
G03 X278.708258 Y98.668946 Z-0.687500 I3.618893 J7.241232
G02 X281.408471 Y97.508220 Z-0.687500 I-1.474520 J-7.151335
G02 X282.000000 Y96.375000 Z-0.687500 I-0.789718 J-1.133220
G03 X282.172647 Y95.422910 Z-0.687500 I2.711555 J-0.000000
G03 X282.562500 Y94.875000 Z-0.687500 I1.226199 J0.459825
G02 X282.917430 Y93.791449 Z-0.687500 I-0.683758 J-0.823879
G02 X281.812500 Y91.875000 Z-0.687500 I-3.909805 J0.977451
G03 X280.950364 Y90.425406 Z-0.687500 I2.245266 J-2.316528
G03 X281.258464 Y89.889131 Z-0.687500 I0.417853 J-0.116577
G02 X281.778659 Y89.503662 Z-0.687500 I-0.219739 J-0.840279
G02 X282.034466 Y88.626645 Z-0.687500 I-1.473186 J-0.905513
G03 X282.116939 Y85.975800 Z-0.687500 I90.688824 J1.494779
G03 X282.302188 Y85.175299 Z-0.687500 I2.271232 J0.103918
G03 X282.791823 Y84.601329 Z-0.687500 I1.181970 J0.512466
G03 X284.110849 Y83.837599 Z-0.687500 I9.635063 J15.119665
G02 X285.971405 Y82.658637 Z-0.687500 I-6.200483 J-11.842755
G02 X286.751053 Y81.729059 Z-0.687500 I-1.635256 J-2.163249
G02 X287.068637 Y80.544559 Z-0.687500 I-2.615243 J-1.336015
G02 X287.022019 Y78.139001 Z-0.687500 I-16.937024 J-0.874999
G02 X286.407384 Y75.519329 Z-0.687500 I-9.596423 J0.869600
G02 X285.655976 Y74.622645 Z-0.687500 I-1.697826 J0.659577
G02 X284.497937 Y74.085309 Z-0.687500 I-2.968956 J4.882006
G02 X282.898748 Y73.701289 Z-0.687500 I-3.005618 J8.994602
G03 X281.659872 Y73.101053 Z-0.687500 I0.342844 J-2.286250
G03 X281.250000 Y72.154530 Z-0.687500 I0.887973 J-0.946523
G02 X280.265161 Y69.439384 Z-0.687500 I-4.235170 J0.000000
G02 X277.927545 Y68.177183 Z-0.687500 I-2.749908 J2.297121
G03 X277.201962 Y67.819310 Z-0.687500 I0.138445 J-1.195189
G03 X276.907890 Y67.125000 Z-0.687500 I0.750507 J-0.727305
G02 X276.544934 Y63.999538 Z-0.687500 I-18.732873 J0.591618
G02 X276.072480 Y62.996385 Z-0.687500 I-2.281383 J0.461629
G02 X275.260720 Y62.498994 Z-0.687500 I-1.108022 J0.897224
G02 X273.415429 Y62.431939 Z-0.687500 I-1.114510 J5.246412
G02 X270.580653 Y63.692049 Z-0.687500 I0.760499 J5.529484
G02 X267.746797 Y67.205542 Z-0.687500 I7.611825 J9.039009
G03 X265.914729 Y69.612215 Z-0.687500 I-8.183035 J-4.328638
G03 X265.076108 Y69.723833 Z-0.687500 I-0.496873 J-0.526943
G02 X264.401588 Y69.465606 Z-0.687500 I-1.358345 J2.538088
G02 X263.649653 Y69.375000 Z-0.687500 I-0.751935 J3.074833
G03 X263.184348 Y68.908433 Z-0.687500 I0.000000 J-0.465306
G03 X263.659365 Y65.789494 Z-0.687500 I10.666618 J0.028893
G02 X263.970669 Y62.317565 Z-0.687500 I-7.982985 J-2.465699
G02 X262.910190 Y59.614080 Z-0.687500 I-5.756598 J0.698367
G03 X261.830564 Y58.058053 Z-0.687500 I37.713616 J-27.319587
G03 X261.679387 Y57.760815 Z-0.687500 I1.202815 J-0.798819
G02 X261.465602 Y57.567726 Z-0.687500 I-0.291686 J0.108056
G02 X259.455750 Y57.185606 Z-0.687500 I-3.928786 J15.187690
G02 X257.490444 Y57.315603 Z-0.687500 I-0.642262 J5.211073
G02 X256.350281 Y57.994226 Z-0.687500 I0.600423 J2.305889
G02 X255.483296 Y59.133688 Z-0.687500 I5.169117 J4.832603
G02 X255.123060 Y60.000000 Z-0.687500 I2.591915 J1.585843
G03 X254.746411 Y60.852789 Z-0.687500 I-2.574425 J-0.627467
G03 X253.728529 Y62.070499 Z-0.687500 I-6.369708 J-4.290156
G02 X252.623227 Y63.250899 Z-0.687500 I11.938480 J12.286635
G02 X252.132041 Y63.945499 Z-0.687500 I3.610098 J3.073848
G03 X251.733296 Y64.118144 Z-0.687500 I-0.316159 J-0.183410
G03 X251.289188 Y63.750000 Z-0.687500 I0.145556 J-0.627537
G02 X250.836599 Y62.835338 Z-0.687500 I-10.366532 J4.560219
G02 X250.409055 Y62.156250 Z-0.687500 I-6.130162 J3.385323
G03 X250.194911 Y61.498289 Z-0.687500 I0.939492 J-0.669601
G03 X250.395817 Y60.843750 Z-0.687500 I1.129542 J-0.011397
G02 X252.716379 Y56.548990 Z-0.687500 I-18.227337 J-12.622975
G02 X253.393324 Y53.448120 Z-0.687500 I-8.686258 J-3.520604
G02 X253.433859 Y44.605504 Z-0.687500 I-109.864601 J-4.925028
G02 X253.065458 Y44.250000 Z-0.687500 I-0.368402 J0.013132
G03 X252.605373 Y43.880873 Z-0.687500 I0.000000 J-0.471291
G03 X251.233515 Y36.000000 Z-0.687500 I84.616791 J-18.789458
G02 X249.095622 Y20.553728 Z-0.687500 I-681.604564 J86.468658
G02 X248.580611 Y18.313087 Z-0.687500 I-14.770166 J2.215415
G02 X245.215144 Y13.909463 Z-0.687500 I-7.722355 J2.413964
G02 X230.812507 Y6.958102 Z-0.687500 I-36.274994 J56.762540
G02 X222.566049 Y4.576303 Z-0.687500 I-28.157448 J82.022304
G02 X210.827386 Y2.154442 Z-0.687500 I-48.790725 J206.827361
G02 X198.910642 Y0.414098 Z-0.687500 I-34.726871 J196.117846
G02 X191.887050 Y0.065516 Z-0.687500 I-6.181633 J53.620341
G02 X189.374919 Y0.178661 Z-0.687500 I0.667093 J42.755930
G02 X189.375008 Y0.252806 Z-0.687500 I0.002764 J0.037069
G03 X201.812132 Y1.549316 Z-0.687500 I-14.139013 J195.933948
G03 X215.250007 Y3.785824 Z-0.687500 I-31.541756 J231.004471
G03 X236.483080 Y9.870108 Z-0.687500 I-25.116896 J127.745481
G03 X245.132257 Y15.170235 Z-0.687500 I-9.776124 J25.660751
G03 X247.419447 Y18.106271 Z-0.687500 I-7.235176 J7.995129
G03 X248.391855 Y21.305539 Z-0.687500 I-7.686413 J4.083678
G01 X248.595424 Y23.298581 Z-0.687500
G01 X246.453968 Y21.473925 Z-0.687500
G02 X242.250165 Y18.445758 Z-0.687500 I-20.651594 J24.237216
G02 X236.624704 Y15.544444 Z-0.687500 I-24.549449 J40.695442
G02 X219.477492 Y10.220133 Z-0.687500 I-33.022245 J76.075918
G02 X185.437508 Y5.561685 Z-0.687500 I-58.128788 J298.058993
G02 X178.476136 Y5.223201 Z-0.687500 I-8.969773 J112.721265
G02 X161.761867 Y5.072831 Z-0.687500 I-16.933990 J953.271709
G02 X144.999712 Y5.218346 Z-0.687500 I-0.216751 J940.531184
G02 X138.562508 Y5.550885 Z-0.687500 I1.666836 J94.737403
G02 X118.543002 Y7.783953 Z-0.687500 I33.848665 J394.308185
G02 X105.207484 Y10.133617 Z-0.687500 I24.341647 J177.168709
G02 X85.998955 Y15.658182 Z-0.687500 I31.088564 J144.248429
G02 X77.830391 Y20.059729 Z-0.687500 I10.840176 J29.898170
G01 X74.625000 Y22.449465 Z-0.687500
G01 X74.627250 Y21.255983 Z-0.687500
G03 X75.497745 Y17.889732 Z-0.687500 I6.991261 J0.012227
G03 X78.494501 Y14.388711 Z-0.687500 I9.977317 J5.507176
G03 X82.718230 Y11.804579 Z-0.687500 I13.789658 J17.795125
G03 X91.312658 Y8.326249 Z-0.687500 I36.296048 J77.325111
G03 X108.464071 Y3.758189 Z-0.687500 I41.162408 J120.067245
G03 X132.375158 Y0.415549 Z-0.687500 I44.427704 J230.613541
G01 X135.937658 Y0.103140 Z-0.687500
G01 X132.000158 Y0.092227 Z-0.687500
G02 X128.070123 Y0.205384 Z-0.687500 I-0.172628 J62.307974
G02 X124.125158 Y0.567975 Z-0.687500 I3.815102 J63.149825
G01 X124.125000 Y0.567986 Z-0.687500
G00 Z6.875000

(End cutting path id: path567)


(Start cutting path id: path567)
(Simple flower pattern. 178x73.500000mm)
(Change tool to Cone cutter)

G00 Z6.875000
G00 X114.281981 Y12.843750

G01 Z-0.687500 F 1000.000000(Penetrate)
G03 X114.478068 Y13.365911 Z-0.687500 I-0.706020 J0.563031 F 1000.000000
G03 X114.421650 Y15.926692 Z-0.687500 I-19.023956 J0.861882
G01 X114.187500 Y18.540885 Z-0.687500
G01 X112.687500 Y18.991624 Z-0.687500
G03 X111.175621 Y19.369768 Z-0.687500 I-4.791316 J-15.944960
G03 X110.300542 Y19.471181 Z-0.687500 I-1.047847 J-5.215563
G03 X109.820002 Y19.125690 Z-0.687500 I-0.015764 J-0.485010
G03 X109.661925 Y17.343750 Z-0.687500 I4.246339 J-1.274676
G03 X110.562061 Y13.817080 Z-0.687500 I13.409772 J1.544461
G03 X111.495443 Y12.820774 Z-0.687500 I1.759987 J0.713460
G03 X113.369452 Y12.399660 Z-0.687500 I1.839169 J3.804191
G03 X114.281981 Y12.843761 Z-0.687500 I-0.009726 J1.179558
G01 X114.281981 Y12.843750 Z-0.687500
G00 Z6.875000

(End cutting path id: path567)


(Start cutting path id: path567)
(Simple flower pattern. 178x73.500000mm)
(Change tool to Cone cutter)

G00 Z6.875000
G00 X109.125000 Y16.100587

G01 Z-0.687500 F 1000.000000(Penetrate)
G03 X108.962266 Y18.059479 Z-0.687500 I-11.871365 J-0.000000 F 1000.000000
G03 X108.562798 Y18.848004 Z-0.687500 I-1.460214 J-0.244299
G03 X107.782776 Y19.290647 Z-0.687500 I-1.152287 J-1.121955
G03 X105.687094 Y19.631437 Z-0.687500 I-3.397832 J-14.280825
G02 X97.273780 Y21.097994 Z-0.687500 I4.527641 J50.840016
G02 X89.121292 Y23.973390 Z-0.687500 I13.259701 J50.589572
G03 X86.759999 Y24.947358 Z-0.687500 I-17.084704 J-38.070890
G03 X86.066673 Y25.086148 Z-0.687500 I-0.768535 J-2.038070
G03 X85.694767 Y24.833580 Z-0.687500 I-0.013154 J-0.380730
G03 X85.637632 Y24.093750 Z-0.687500 I1.328919 J-0.474750
G02 X85.822668 Y23.060420 Z-0.687500 I-43.783374 J-8.373408
G02 X86.060198 Y21.562500 Z-0.687500 I-91.763713 J-15.319016
G01 X86.285542 Y20.062500 Z-0.687500
G01 X90.299021 Y18.461610 Z-0.687500
G03 X99.479448 Y15.596592 Z-0.687500 I23.148435 J58.033920
G03 X106.781250 Y14.681186 Z-0.687500 I8.178585 J35.657706
G01 X109.125000 Y14.625000 Z-0.687500
G01 X109.125000 Y16.100587 Z-0.687500
G00 Z6.875000

(End cutting path id: path567)


(Start cutting path id: path567)
(Simple flower pattern. 178x73.500000mm)
(Change tool to Cone cutter)

G00 Z6.875000
G00 X106.049366 Y20.289405

G01 Z-0.687500 F 1000.000000(Penetrate)
G03 X105.840800 Y20.516288 Z-0.687500 I-0.357221 J-0.119076 F 1000.000000
G03 X103.325340 Y21.516801 Z-0.687500 I-19.595627 J-45.604343
G03 X100.806053 Y22.370063 Z-0.687500 I-18.512700 J-50.513659
G03 X100.031250 Y22.494979 Z-0.687500 I-0.824300 J-2.647450
G03 X99.615270 Y21.971604 Z-0.687500 I-0.007508 J-0.421031
G03 X100.378155 Y21.110415 Z-0.687500 I1.209663 J0.303085
G03 X102.992855 Y20.318540 Z-0.687500 I6.771689 J17.646825
G03 X105.687499 Y19.913426 Z-0.687500 I4.135581 J18.343740
G03 X105.990477 Y20.028818 Z-0.687500 I0.029143 J0.378934
G03 X106.049366 Y20.289405 Z-0.687500 I-0.185963 J0.178973
G01 X106.049366 Y20.289405 Z-0.687500
G00 Z6.875000

(End cutting path id: path567)


(Start cutting path id: path567)
(Simple flower pattern. 178x73.500000mm)
(Change tool to Cone cutter)

G00 Z6.875000
G00 X99.036334 Y22.031250

G01 Z-0.687500 F 1000.000000(Penetrate)
G03 X98.883312 Y27.094749 Z-0.687500 I-29.607643 J1.639300 F 1000.000000
G03 X98.322945 Y28.167765 Z-0.687500 I-1.681921 J-0.195529
G03 X97.916362 Y28.393611 Z-0.687500 I-0.715634 J-0.809431
G03 X96.205941 Y28.843175 Z-0.687500 I-7.649196 J-25.623748
G03 X94.456280 Y29.176380 Z-0.687500 I-5.531092 J-24.283441
G03 X94.225946 Y29.100945 Z-0.687500 I-0.040715 J-0.265050
G03 X94.075182 Y28.707584 Z-0.687500 I0.365756 J-0.365756
G03 X94.325641 Y25.818623 Z-0.687500 I43.766229 J2.338981
G03 X94.766259 Y22.952629 Z-0.687500 I43.655327 J5.244709
G03 X95.007968 Y22.591642 Z-0.687500 I0.542473 J0.101814
G03 X96.642636 Y21.803240 Z-0.687500 I3.907072 J6.012041
G03 X98.531250 Y21.414319 Z-0.687500 I2.565214 J7.676715
G03 X98.848831 Y21.548784 Z-0.687500 I0.030978 J0.369102
G03 X99.036334 Y22.031250 Z-0.687500 I-0.645666 J0.528595
G01 X99.036334 Y22.031250 Z-0.687500
G00 Z6.875000

(End cutting path id: path567)


(Start cutting path id: path567)
(Simple flower pattern. 178x73.500000mm)
(Change tool to Cone cutter)

G00 Z6.875000
G00 X93.911239 Y23.207509

G01 Z-0.687500 F 1000.000000(Penetrate)
G03 X93.746652 Y23.775106 Z-0.687500 I-0.338832 J0.209410 F 1000.000000
G03 X91.125000 Y24.562912 Z-0.687500 I-3.738634 J-7.685327
G03 X89.469124 Y24.687033 Z-0.687500 I-1.929998 J-14.640436
G03 X89.388869 Y24.585795 Z-0.687500 I-0.001508 J-0.081234
G03 X89.518403 Y24.427160 Z-0.687500 I0.235019 J0.059702
G03 X91.363927 Y23.622364 Z-0.687500 I11.277341 J23.342296
G03 X93.525135 Y23.031419 Z-0.687500 I3.871780 J9.912429
G03 X93.911239 Y23.207509 Z-0.687500 I0.061364 J0.376791
G01 X93.911239 Y23.207509 Z-0.687500
G00 Z6.875000

(End cutting path id: path567)


(Start cutting path id: path567)
(Simple flower pattern. 178x73.500000mm)
(Change tool to Cone cutter)

G00 Z6.875000
G00 X93.745871 Y25.781250

G01 Z-0.687500 F 1000.000000(Penetrate)
G03 X93.282492 Y28.768866 Z-0.687500 I-10.278990 J-0.064529 F 1000.000000
G03 X92.535859 Y29.672707 Z-0.687500 I-1.475981 J-0.458954
G03 X91.763065 Y29.956963 Z-0.687500 I-1.402826 J-2.621196
G03 X88.280820 Y30.595391 Z-0.687500 I-11.646779 J-53.710214
G02 X81.114858 Y32.214023 Z-0.687500 I7.477697 J49.776835
G02 X75.291945 Y34.544966 Z-0.687500 I10.673896 J35.102953
G03 X73.134978 Y35.576971 Z-0.687500 I-26.762367 J-53.165209
G03 X72.913005 Y35.625000 Z-0.687500 I-0.221973 J-0.488930
G03 X72.761154 Y35.464611 Z-0.687500 I0.000000 J-0.152078
G03 X72.956567 Y33.617002 Z-0.687500 I18.303816 J1.001770
G03 X73.330137 Y31.756902 Z-0.687500 I22.251843 J3.501354
G03 X73.610644 Y31.191356 Z-0.687500 I1.404105 J0.344088
G03 X76.112254 Y29.395472 Z-0.687500 I4.525647 J3.663809
G03 X87.503033 Y26.041114 Z-0.687500 I30.094567 J81.177912
G02 X89.657107 Y25.489941 Z-0.687500 I-7.335111 J-33.151633
G02 X89.909284 Y25.340715 Z-0.687500 I-0.164805 J-0.566194
G03 X90.163953 Y25.219050 Z-0.687500 I0.299460 J0.299460
G03 X91.937501 Y25.125000 Z-0.687500 I1.773548 J16.675323
G03 X93.477501 Y25.395789 Z-0.687500 I-0.000000 J4.514442
G03 X93.745871 Y25.781250 Z-0.687500 I-0.138951 J0.382897
G01 X93.745871 Y25.781250 Z-0.687500
G00 Z6.875000

(End cutting path id: path567)


(Start cutting path id: path567)
(Simple flower pattern. 178x73.500000mm)
(Change tool to Cone cutter)

G00 Z6.875000
G00 X85.175033 Y21.093750

G01 Z-0.687500 F 1000.000000(Penetrate)
G03 X85.235670 Y21.939871 Z-0.687500 I-4.659587 J0.759165 F 1000.000000
G03 X85.125000 Y23.809673 Z-0.687500 I-23.013685 J-0.423961
G03 X84.273352 Y25.577243 Z-0.687500 I-2.853157 J-0.285749
G03 X82.031250 Y26.825355 Z-0.687500 I-3.423588 J-3.512210
G03 X81.324803 Y26.821496 Z-0.687500 I-0.345626 J-1.392553
G03 X81.016404 Y26.488640 Z-0.687500 I0.105845 J-0.407365
G03 X81.011315 Y25.834102 Z-0.687500 I1.901810 J-0.342077
G03 X81.451403 Y23.601634 Z-0.687500 I34.852392 J5.710858
G03 X82.165061 Y21.835272 Z-0.687500 I5.931625 J1.369189
G03 X83.045153 Y20.949427 Z-0.687500 I2.241795 J1.347127
G03 X84.598852 Y20.569254 Z-0.687500 I1.375135 J2.254992
G03 X85.175033 Y21.093750 Z-0.687500 I-0.042370 J0.625272
G01 X85.175033 Y21.093750 Z-0.687500
G00 Z6.875000

(End cutting path id: path567)


(Start cutting path id: path567)
(Simple flower pattern. 178x73.500000mm)
(Change tool to Cone cutter)

G00 Z6.875000
G00 X80.587620 Y24.843750

G01 Z-0.687500 F 1000.000000(Penetrate)
G03 X79.776564 Y26.819675 Z-0.687500 I-3.152712 J-0.139671 F 1000.000000
G03 X77.062703 Y28.745321 Z-0.687500 I-5.683704 J-5.135007
G03 X74.067926 Y29.941361 Z-0.687500 I-34.379937 J-81.736961
G03 X73.747301 Y30.000000 Z-0.687500 I-0.320625 J-0.847228
G03 X73.553796 Y29.804915 Z-0.687500 I0.000000 J-0.193512
G03 X73.684667 Y28.202095 Z-0.687500 I10.973244 J0.089218
G03 X74.039107 Y26.566318 Z-0.687500 I14.125038 J2.204324
G03 X74.374601 Y25.980326 Z-0.687500 I1.324775 J0.369430
G03 X76.371675 Y24.701278 Z-0.687500 I3.691506 J3.565208
G03 X79.968750 Y24.023599 Z-0.687500 I4.036476 J11.539989
G03 X80.396109 Y24.226987 Z-0.687500 I0.018429 J0.511953
G03 X80.587620 Y24.843750 Z-0.687500 I-0.761426 J0.574545
G01 X80.587620 Y24.843750 Z-0.687500
G00 Z6.875000

(End cutting path id: path567)


(Start cutting path id: path567)
(Simple flower pattern. 178x73.500000mm)
(Change tool to Cone cutter)

G00 Z6.875000
G00 X86.123096 Y32.106863

G01 Z-0.687500 F 1000.000000(Penetrate)
G03 X85.091729 Y32.276491 Z-0.687500 I-0.760407 J-1.403141 F 1000.000000
G03 X84.922080 Y31.899949 Z-0.687500 I0.042304 J-0.245548
G03 X85.249810 Y31.647028 Z-0.687500 I0.499890 J0.308955
G03 X86.178382 Y31.515015 Z-0.687500 I0.883698 J2.884112
G01 X87.187500 Y31.530015 Z-0.687500
G01 X86.123096 Y32.106848 Z-0.687500
G01 X86.123096 Y32.106863 Z-0.687500
G00 Z6.875000

(End cutting path id: path567)


(Start cutting path id: path567)
(Simple flower pattern. 178x73.500000mm)
(Change tool to Cone cutter)

G00 Z6.875000
G00 X83.719305 Y34.781250

G01 Z-0.687500 F 1000.000000(Penetrate)
G03 X83.514086 Y37.530543 Z-0.687500 I-58.120507 J-2.956060 F 1000.000000
G03 X83.277219 Y38.374990 Z-0.687500 I-2.502614 J-0.246538
G03 X82.726286 Y38.918605 Z-0.687500 I-1.035776 J-0.498739
G03 X81.521186 Y39.346283 Z-0.687500 I-2.862264 J-6.153523
G03 X79.814998 Y39.670653 Z-0.687500 I-3.607975 J-14.328494
G03 X79.596135 Y39.596137 Z-0.687500 I-0.033704 J-0.259681
G03 X79.506488 Y39.372609 Z-0.687500 I0.216629 J-0.216621
G03 X79.671607 Y36.249934 Z-0.687500 I51.631831 J1.164468
G03 X80.351866 Y33.422779 Z-0.687500 I9.505796 J0.791828
G03 X81.123608 Y32.708966 Z-0.687500 I1.153474 J0.472991
G03 X82.932100 Y32.246142 Z-0.687500 I4.714844 J14.658547
G03 X83.455057 Y32.375186 Z-0.687500 I0.121461 J0.631948
G03 X83.706739 Y32.858066 Z-0.687500 I-0.419803 J0.525836
G03 X83.719305 Y34.781250 Z-0.687500 I-16.742546 J1.071026
G01 X83.719305 Y34.781250 Z-0.687500
G00 Z6.875000

(End cutting path id: path567)


(Start cutting path id: path567)
(Simple flower pattern. 178x73.500000mm)
(Change tool to Cone cutter)

G00 Z6.875000
G00 X79.036991 Y34.201522

G01 Z-0.687500 F 1000.000000(Penetrate)
G03 X78.050726 Y35.167154 Z-0.687500 I-1.433773 J-0.477924 F 1000.000000
G03 X75.996600 Y35.144047 Z-0.687500 I-0.991225 J-3.197460
G03 X75.934269 Y34.454898 Z-0.687500 I0.119954 J-0.358243
G03 X78.499999 Y33.765015 Z-0.687500 I2.687338 J4.878404
G03 X78.955390 Y33.921181 Z-0.687500 I0.015222 J0.697673
G03 X79.036991 Y34.201522 Z-0.687500 I-0.161900 J0.199172
G01 X79.036991 Y34.201522 Z-0.687500
G00 Z6.875000

(End cutting path id: path567)


(Start cutting path id: path567)
(Simple flower pattern. 178x73.500000mm)
(Change tool to Cone cutter)

G00 Z6.875000
G00 X79.004677 Y35.852336

G01 Z-0.687500 F 1000.000000(Penetrate)
G03 X79.103885 Y36.465963 Z-0.687500 I-1.417799 J0.544054 F 1000.000000
G03 X78.899156 Y38.153096 Z-0.687500 I-11.339838 J-0.520069
G01 X78.562500 Y39.851524 Z-0.687500
G01 X75.800152 Y40.565291 Z-0.687500
G03 X73.035012 Y41.266483 Z-0.687500 I-79.015605 J-305.794399
G03 X72.612652 Y41.358281 Z-0.687500 I-1.750285 J-7.035429
G03 X72.334803 Y41.154306 Z-0.687500 I-0.043279 J-0.232274
G03 X72.273449 Y39.389218 Z-0.687500 I10.289008 J-1.241256
G03 X72.495251 Y37.529041 Z-0.687500 I13.745443 J0.695657
G03 X72.838399 Y36.897761 Z-0.687500 I1.153191 J0.217942
G03 X73.378323 Y36.567547 Z-0.687500 I1.033764 J1.083763
G03 X75.750000 Y35.880866 Z-0.687500 I7.516188 J21.520602
G03 X78.557019 Y35.547507 Z-0.687500 I2.920487 J12.606875
G03 X79.004677 Y35.852329 Z-0.687500 I0.004165 J0.475008
G01 X79.004677 Y35.852336 Z-0.687500
G00 Z6.875000

(End cutting path id: path567)


(Start cutting path id: path567)
(Simple flower pattern. 178x73.500000mm)
(Change tool to Cone cutter)

G00 Z6.875000
G00 X73.948751 Y42.425775

G01 Z-0.687500 F 1000.000000(Penetrate)
G03 X71.983909 Y43.400430 Z-0.687500 I-8.216513 J-14.096137 F 1000.000000
G03 X71.723749 Y43.348751 Z-0.687500 I-0.091430 J-0.220409
G03 X71.744754 Y42.833897 Z-0.687500 I0.247751 J-0.247748
G03 X73.610280 Y41.747280 Z-0.687500 I3.980343 J4.688843
G03 X75.218000 Y41.277370 Z-0.687500 I4.324003 J11.808637
G03 X75.358839 Y41.344566 Z-0.687500 I0.027386 J0.123793
G03 X75.325118 Y41.493559 Z-0.687500 I-0.107990 J0.053872
G03 X73.948751 Y42.425775 Z-0.687500 I-7.574497 J-9.701160
G01 X73.948751 Y42.425775 Z-0.687500
G00 Z6.875000

(End cutting path id: path567)


(Start cutting path id: path567)
(Simple flower pattern. 178x73.500000mm)
(Change tool to Cone cutter)

G00 Z6.875000
G00 X78.518992 Y44.318047

G01 Z-0.687500 F 1000.000000(Penetrate)
G03 X80.016582 Y44.858702 Z-0.687500 I-3.284016 J11.441041 F 1000.000000
G03 X81.016635 Y45.413674 Z-0.687500 I-2.467287 J5.624551
G02 X82.005269 Y46.004303 Z-0.687500 I5.302032 J-7.752153
G02 X84.100759 Y47.008234 Z-0.687500 I17.559693 J-33.963181
G03 X86.884566 Y49.181052 Z-0.687500 I-2.928327 J6.621473
G03 X87.748598 Y51.692111 Z-0.687500 I-3.230105 J2.515631
G02 X87.947804 Y52.883368 Z-0.687500 I3.685408 J-0.004004
G02 X88.576815 Y54.107872 Z-0.687500 I4.529664 J-1.553017
G03 X89.486882 Y56.871133 Z-0.687500 I-4.001634 J2.849414
G03 X88.659896 Y58.844250 Z-0.687500 I-2.656175 J0.046590
G03 X88.099371 Y59.156390 Z-0.687500 I-0.887981 J-0.935242
G03 X87.887385 Y59.047042 Z-0.687500 I-0.045261 J-0.172412
G02 X85.240042 Y55.347245 Z-0.687500 I-8.292739 J3.136729
G02 X83.057794 Y55.058910 Z-0.687500 I-1.321642 J1.600498
G03 X82.296333 Y55.033185 Z-0.687500 I-0.354853 J-0.778814
G03 X81.340526 Y54.131722 Z-0.687500 I1.209135 J-2.239472
G02 X79.337546 Y51.924869 Z-0.687500 I-6.949273 J4.294887
G02 X77.718750 Y51.376402 Z-0.687500 I-1.626830 J2.138415
G03 X77.310768 Y51.228928 Z-0.687500 I0.001871 J-0.643247
G03 X75.022267 Y49.147267 Z-0.687500 I20.846649 J-25.216810
G01 X72.794531 Y46.919531 Z-0.687500
G01 X73.584210 Y45.915619 Z-0.687500
G03 X74.470116 Y45.036339 Z-0.687500 I4.009933 J3.154220
G03 X75.530696 Y44.408029 Z-0.687500 I3.047062 J3.934128
G03 X76.860501 Y44.110135 Z-0.687500 I1.438241 J3.303260
G03 X78.518992 Y44.318047 Z-0.687500 I0.163129 J5.417500
G01 X78.518992 Y44.318047 Z-0.687500
G00 Z6.875000

(End cutting path id: path567)


(Start cutting path id: path567)
(Simple flower pattern. 178x73.500000mm)
(Change tool to Cone cutter)

G00 Z6.875000
G00 X75.017396 Y49.825155

G01 Z-0.687500 F 1000.000000(Penetrate)
G02 X76.464249 Y51.141671 Z-0.687500 I7.380827 J-6.658239 F 1000.000000
G02 X78.115830 Y52.130689 Z-0.687500 I5.746889 J-7.723327
G03 X80.911631 Y54.633512 Z-0.687500 I-2.784132 J5.922989
