(post-processed by deparam.py)
(input file name: sample_input.ngc)
(output file name: sample_output.nc)
(date: 2018-07-22 14:06:17)
(deparam: TRUE)
(swapping: FALSE)
%

(Header)

(Generated by gcodetools from Inkscape.)

(Using default header. To add your own header create file "header" in the output dir.)

M3

(Header end.)

G21 (ALL UNITS IN MM) 
(Z AXIS OFFSET = 0 [#8])
(X AXIS OFFSET = 0 [#6])
(Y AXIS OFFSET = 0 [#7])
(XY SCALE FACTOR = 0.375 [#10])
(Z SCALE FACTOR = 1 [#11])
(FEED DEFINITION = 1000.000000 [#20])

(Start cutting path id: path567)

(Simple flower pattern. 178x[196*#10+#6]mm)

(Change tool to Cone cutter)


G00 Z 5.0 
G00 X 124.125 Y 0.56798625 

G01 Z -0.5 F 1000.0 
G02 X 93.103106625 Y 6.643665 Z -0.5 I 27.5486085 J 222.896224875 F 1000.0 
G02 X 79.6875 Y 12.5720475 Z -0.5 I 12.609105 J 46.677301875 
G02 X 75.718740375 Y 15.866178 Z -0.5 I 11.185811625 J 17.514475875 
G02 X 74.31141375 Y 18.30132375 Z -0.5 I 4.506377625 J 4.228575375 
G02 X 73.989623625 Y 19.7083815 Z -0.5 I 9.927946875 J 3.01081875 
G02 X 73.1263725 Y 25.875 Z -0.5 I 190.7518515 J 29.84665575 
G03 X 70.488233625 Y 46.06012125 Z -0.5 I -1442.62538662 J -178.282132875 
G03 X 70.28907375 Y 46.46110125 Z -0.5 I -0.69651525 J -0.09599775 
G03 X 70.0239555 Y 46.595815125 Z -0.5 I -0.338808 J -0.3385425 
G03 X 68.6876775 Y 46.71045 Z -0.5 I -1.498837125 J -9.62598525 
G02 X 66.263853375 Y 47.51711175 Z -0.5 I 0.071090625 J 4.258445625 
G02 X 64.46908875 Y 49.75961625 Z -0.5 I 3.154147875 J 4.363851 
G03 X 63.69772275 Y 51.265249125 Z -0.5 I -11.358964875 J -4.869018 
G03 X 63.4820775 Y 51.39894 Z -0.5 I -0.2381625 J -0.143394375 
G02 X 60.818466375 Y 52.016232375 Z -0.5 I 0.757825125 J 9.32538375 
G02 X 59.35691625 Y 53.01973125 Z -0.5 I 1.438492125 J 3.661187625 
G02 X 58.328337 Y 54.44306475 Z -0.5 I 5.590559625 J 5.123368125 
G02 X 58.125 Y 55.22355375 Z -0.5 I 1.396248 J 0.780489 
G03 X 57.433575375 Y 57.05857275 Z -0.5 I -2.78075325 J 0.0 
G03 X 55.906065 Y 57.75 Z -0.5 I -1.527510375 J -1.34158425 
G02 X 53.7636825 Y 58.328440125 Z -0.5 I 0.0 J 4.256616375 
G02 X 51.4775625 Y 60.329415 Z -0.5 I 4.015669125 J 6.894351375 
G02 X 50.860621875 Y 62.02572075 Z -0.5 I 2.326348125 J 1.8064275 
G02 X 51.33525375 Y 64.132935 Z -0.5 I 4.214868375 J 0.157697625 
G03 X 52.087954875 Y 65.657170875 Z -0.5 I -34.588922625 J 18.028738125 
G03 X 52.125 Y 65.82404625 Z -0.5 I -0.357335625 J 0.166875375 
G03 X 51.745611375 Y 66.116251875 Z -0.5 I -0.302223 J 0.0 
G03 X 49.83005625 Y 65.2179975 Z -0.5 I 1.50624675 J -5.703734625 
G02 X 48.663027375 Y 64.639552125 Z -0.5 I -2.391680625 J 3.358799625 
G02 X 47.1471675 Y 64.3835025 Z -0.5 I -1.706019 J 5.48483625 
G02 X 45.950491125 Y 64.7858205 Z -0.5 I -0.0597285 J 1.80322875 
G02 X 45.375 Y 65.821755 Z -0.5 I 1.001742 J 1.234314 
G03 X 44.81332875 Y 66.8486715 Z -0.5 I -1.58382075 J -0.199208625 
G03 X 43.74004125 Y 67.1847225 Z -0.5 I -0.9436905 J -1.1320095 
G03 X 42.3519375 Y 66.871888125 Z -0.5 I 0.469629 J -5.31988125 
G03 X 40.42036875 Y 65.95304625 Z -0.5 I 4.197952125 J -11.314513875 
G02 X 38.489022 Y 65.094076125 Z -0.5 I -4.707750375 J 7.98436875 
G02 X 37.164351 Y 64.93080375 Z -0.5 I -1.10699025 J 3.525960375 
G03 X 35.851236375 Y 64.774569 Z -0.5 I -0.220738875 J -3.741060375 
G03 X 34.6224375 Y 64.15622625 Z -0.5 I 1.18208925 J -3.879236625 
G02 X 33.375588375 Y 63.569299875 Z -0.5 I -2.09620725 J 2.83527375 
G02 X 31.172563125 Y 63.3 Z -0.5 I -2.20302525 J 8.87634225 
G03 X 28.959484875 Y 63.07050975 Z -0.5 I 0.0 J -10.785592125 
G03 X 28.034148375 Y 62.64203625 Z -0.5 I 0.464866125 J -2.2173525 
G02 X 25.259406375 Y 61.161021375 Z -0.5 I -5.69184075 J 7.3240935 
G02 X 24.00733125 Y 61.30797 Z -0.5 I -0.46864125 J 1.414569 
G02 X 23.305401 Y 62.61314175 Z -0.5 I 0.778845375 J 1.260205875 
G02 X 24.189442125 Y 67.30506 Z -0.5 I 15.369965625 J -0.4667325 
G03 X 24.566029875 Y 68.80507575 Z -0.5 I -7.588806 J 2.70249375 
G03 X 24.529765875 Y 69.55941375 Z -0.5 I -1.8993525 J 0.28673175 
G02 X 24.656117625 Y 71.129928 Z -0.5 I 2.384591625 J 0.598493625 
G02 X 26.737747875 Y 74.68909125 Z -0.5 I 15.465159375 J -6.6567135 
G03 X 27.881448 Y 76.411111125 Z -0.5 I -12.51360075 J 9.551869125 
G03 X 28.2521715 Y 77.33064 Z -0.5 I -3.141470625 J 1.801032375 
G02 X 28.68986175 Y 78.195183375 Z -0.5 I 2.12730225 J -0.53391825 
G02 X 30.7490265 Y 80.34732375 Z -0.5 I 15.96368625 J -13.212858 
G03 X 32.802929625 Y 82.471784625 Z -0.5 I -14.86510275 J 16.42647525 
G03 X 33.0 Y 83.01018 Z -0.5 I -0.63691125 J 0.538395375 
G02 X 33.588119625 Y 84.04670775 Z -0.5 I 1.207471125 J 0.0 
G02 X 37.194983625 Y 85.51678875 Z -0.5 I 6.615582375 J -11.071638375 
G01 X 39.01541625 Y 85.9535025 Z -0.5 
G01 X 38.78120625 Y 87.719085 Z -0.5 
G02 X 38.737032375 Y 89.47807575 Z -0.5 I 8.183412 J 1.085562 
G02 X 39.179595 Y 92.58623625 Z -0.5 I 26.19196125 J -2.143815375 
G03 X 39.687283875 Y 95.650246875 Z -0.5 I -41.134548375 J 8.389821375 
G03 X 39.6030225 Y 95.89698 Z -0.5 I -0.29346825 J 0.037533 
G03 X 39.43835475 Y 95.877186375 Z -0.5 I -0.074560875 J -0.074563125 
G03 X 38.61520875 Y 94.2718275 Z -0.5 I 10.66192875 J -6.48060525 
G02 X 36.589519125 Y 90.083683125 Z -0.5 I -43.65507225 J 18.530793375 
G02 X 35.4965235 Y 88.557255 Z -0.5 I -6.779202375 J 3.69970125 
G02 X 32.702353125 Y 86.384091 Z -0.5 I -7.862328 J 7.226178 
G02 X 31.530409125 Y 86.418705 Z -0.5 I -0.556026 J 1.031199 
G02 X 31.322404125 Y 86.688893625 Z -0.5 I 0.253676625 J 0.410454 
G02 X 30.95910375 Y 88.29914625 Z -0.5 I 10.820131125 J 3.2873145 
G03 X 30.58965975 Y 89.90535225 Z -0.5 I -10.563085125 J -1.5840285 
G03 X 30.36646875 Y 90.1927725 Z -0.5 I -0.496944375 J -0.15552525 
G03 X 30.028504875 Y 90.221088 Z -0.5 I -0.19685475 J -0.31851975 
G03 X 28.6068855 Y 89.47688625 Z -0.5 I 3.1587945 J -7.764052875 
G02 X 24.42900675 Y 87.778603125 Z -0.5 I -6.456283125 J 9.89478825 
G02 X 14.0625 Y 86.61845625 Z -0.5 I -12.189187125 J 62.021524875 
G03 X 5.857969125 Y 86.145378375 Z -0.5 I 4.121185875 J -142.854856875 
G03 X 4.125 Y 85.75818375 Z -0.5 I 0.575436 J -6.647208375 
G02 X 0.5319915 Y 85.0002645 Z -0.5 I -4.384673625 J 11.890573875 
G02 X 0.0 Y 85.5 Z -0.5 I -0.031278375 J 0.4997355 
G02 X 0.155814375 Y 85.719185625 Z -0.5 I 0.232072125 J 0.0 
G02 X 1.07785275 Y 85.875 Z -0.5 I 0.922038 J -2.6501895 
G03 X 2.133804375 Y 85.994410875 Z -0.5 I 0.0 J 4.728598875 
G03 X 3.796602375 Y 86.49785625 Z -0.5 I -2.822365875 J 12.319513875 
G02 X 5.484883875 Y 86.880644625 Z -0.5 I 2.204098875 J -5.80667925 
G02 X 14.0625 Y 87.3533925 Z -0.5 I 12.702273375 J -152.418895875 
G03 X 22.611670125 Y 87.940597875 Z -0.5 I -2.777949 J 102.971998875 
G03 X 25.048128 Y 88.56876375 Z -0.5 I -0.976549125 J 8.8269375 
G03 X 27.361404 Y 89.638630125 Z -0.5 I -12.649407375 J 30.38650425 
G03 X 28.679329125 Y 90.4220625 Z -0.5 I -5.41467 J 10.609054125 
G03 X 29.516749125 Y 91.5135255 Z -0.5 I -1.252585125 J 1.828024875 
G03 X 29.881201125 Y 93.83239125 Z -0.5 I -6.084791625 J 2.144409 
G03 X 29.671786125 Y 96.2282115 Z -0.5 I -19.998535125 J -0.540977625 
G03 X 29.5040805 Y 96.3735525 Z -0.5 I -0.168504 J -0.025006875 
G03 X 29.211768375 Y 96.30808125 Z -0.5 I -0.002971125 J -0.672019125 
G03 X 25.5029535 Y 94.4648175 Z -0.5 I 55.247562375 J -115.816004625 
G02 X 21.756606 Y 92.75457225 Z -0.5 I -19.266655875 J 37.245867375 
G02 X 20.561373 Y 92.4960675 Z -0.5 I -1.368459375 J 3.4348455 
G01 X 19.3125 Y 92.4375 Z -0.5 
G01 X 19.2035415 Y 94.88429625 Z -0.5 
G02 X 19.386978375 Y 97.265059125 Z -0.5 I 9.84899175 J 0.438588 
G02 X 20.06006025 Y 99.1469025 Z -0.5 I 6.771302625 J -1.36061025 
G01 X 21.0255375 Y 100.96271625 Z -0.5 
G01 X 19.98151875 Y 100.68201375 Z -0.5 
G02 X 16.821304875 Y 100.012651875 Z -0.5 I -7.779757875 J 28.935320625 
G02 X 15.67041375 Y 100.063778625 Z -0.5 I -0.448809375 J 2.87622675 
G02 X 14.938298625 Y 100.6561665 Z -0.5 I 0.26850375 J 1.080430125 
G02 X 14.625 Y 102.0131925 Z -0.5 I 2.782272 J 1.357026 
G03 X 14.416888875 Y 103.2918885 Z -0.5 I -4.032397875 J 0.0 
G03 X 14.12786775 Y 103.5 Z -0.5 I -0.289021125 J -0.0966375 
G03 X 12.621356625 Y 102.878647875 Z -0.5 I 0.0 J -2.136996 
G03 X 12.0 Y 101.3849475 Z -0.5 I 1.4847 J -1.493700375 
G02 X 11.4151035 Y 100.210752375 Z -0.5 I -1.471062 J 0.0 
G02 X 9.018758625 Y 99.135 Z -0.5 I -3.5531025 J 4.707963375 
G03 X 5.66702175 Y 96.896371875 Z -0.5 I 1.035877125 J -5.17941525 
G03 X 4.12359825 Y 91.8314925 Z -0.5 I 7.571752875 J -5.074948125 
G02 X 3.94441725 Y 90.6125265 Z -0.5 I -4.26866475 J 0.0048165 
G02 X 3.37911 Y 89.34375 Z -0.5 I -5.196958875 J 1.5551955 
G02 X 2.4605415 Y 88.4375205 Z -0.5 I -2.274426375 J 1.3867425 
G02 X 1.31801175 Y 88.125 Z -0.5 I -1.142529375 J 1.932199875 
G02 X 0.224176875 Y 88.349176875 Z -0.5 I 0.0 J 2.78068425 
G02 X 0.0 Y 88.68892875 Z -0.5 I 0.14536725 J 0.339751875 
G02 X 0.221551125 Y 89.01307425 Z -0.5 I 0.347899875 J 0.0 
G02 X 1.202575875 Y 89.15767875 Z -0.5 I 0.805941375 J -2.0676285 
G03 X 2.424343125 Y 89.793454125 Z -0.5 I 0.102482625 J 1.29488025 
G03 X 3.520378875 Y 93.09375 Z -0.5 I -7.135630875 J 4.201905 
G03 X 3.376525875 Y 94.909325625 Z -0.5 I -4.83935325 J 0.530051625 
G03 X 2.93004525 Y 95.25 Z -0.5 I -0.446480625 J -0.1222365 
G03 X 2.17932675 Y 95.06134425 Z -0.5 I 0.0 J -1.587996 
G03 X 1.051769625 Y 94.24234125 Z -0.5 I 2.433378375 J -4.535818875 
G02 X 0.199740375 Y 93.70266075 Z -0.5 I -1.76156325 J 1.838678625 
G02 X 0.0 Y 93.84012375 Z -0.5 I -0.052568625 J 0.137463 
G02 X 0.751023 Y 95.248978875 Z -0.5 I 1.6969575 J 0.0 
G02 X 3.216871125 Y 96.0 Z -0.5 I 2.46584775 J -3.672582375 
G03 X 4.295983125 Y 96.28317525 Z -0.5 I 0.0 J 2.197704 
G03 X 5.076898125 Y 97.04839125 Z -0.5 I -1.03638525 J 1.838724 
G02 X 6.8278965 Y 98.9890395 Z -0.5 I 5.64982275 J -3.3374295 
G02 X 8.983845 Y 99.9343875 Z -0.5 I 3.162502875 J -4.281274125 
G03 X 10.539657 Y 100.574527125 Z -0.5 I -0.80037825 J 4.155973125 
G03 X 10.8755835 Y 101.202165 Z -0.5 I -0.421880625 J 0.629517 
G03 X 10.7607255 Y 101.31992775 Z -0.5 I -0.117500625 J 0.000291375 
G03 X 5.4380835 Y 101.3244825 Z -0.5 I -2.766569625 J -122.985698625 
G02 X 0.252567 Y 101.4693375 Z -0.5 I -1.106928375 J 53.262174 
G02 X 0.0 Y 101.74204125 Z -0.5 I 0.02093925 J 0.27270375 
G02 X 0.230862375 Y 101.996006625 Z -0.5 I 0.255121125 J 0.0 
G02 X 1.91351475 Y 101.92482 Z -0.5 I 0.584122125 J -6.115179375 
G03 X 3.469233375 Y 101.719354125 Z -0.5 I 2.895228375 J 15.9292785 
G03 X 3.8963055 Y 101.773315875 Z -0.5 I 0.08602275 J 1.036168125 
G03 X 4.023224625 Y 101.998257375 Z -0.5 I -0.0640305 J 0.18440475 
G03 X 3.75 Y 102.5625 Z -0.5 I -1.280690625 J -0.27187875 
G02 X 3.77365425 Y 103.101345375 Z -0.5 I 0.30891975 J 0.256381125 
G02 X 4.3094685 Y 103.12751625 Z -0.5 I 0.28219425 J -0.279423375 
G03 X 4.951321125 Y 102.865182 Z -0.5 I 0.737956875 J 0.88918125 
G03 X 7.032231375 Y 102.9002775 Z -0.5 I 0.86579175 J 10.37384775 
G02 X 8.60766 Y 102.937899 Z -0.5 I 0.98913825 J -8.41598925 
G02 X 8.8123215 Y 102.82282275 Z -0.5 I -0.018949875 J -0.273233625 
G02 X 8.7747495 Y 102.676700625 Z -0.5 I -0.080765625 J -0.0571245 
G02 X 7.5 Y 102.23892375 Z -0.5 I -2.436847875 J 5.020944375 
G03 X 7.50648675 Y 102.16783875 Z -0.5 I 0.00748425 J -0.0351555 
G03 X 9.10713975 Y 102.19431 Z -0.5 I 0.501679875 J 18.071784 
G03 X 11.479744125 Y 102.691288125 Z -0.5 I -0.507644625 J 8.33549475 
G03 X 12.601923 Y 103.47846375 Z -0.5 I -0.9209565 J 2.506357875 
G02 X 13.58979075 Y 104.489800875 Z -0.5 I 7.300768125 J -6.143202 
G02 X 13.80728325 Y 104.54202375 Z -0.5 I 0.158016 J -0.17908275 
G03 X 14.8935075 Y 104.67960375 Z -0.5 I 0.3697005 J 1.437913875 
G03 X 16.058161125 Y 105.78232875 Z -0.5 I -1.53751575 J 2.790254625 
G03 X 16.373067 Y 106.517712375 Z -0.5 I -2.2166805 J 1.384342875 
G03 X 16.336497375 Y 106.74834975 Z -0.5 I -0.284928375 J 0.073039875 
G03 X 16.164309 Y 106.816341 Z -0.5 I -0.132790125 J -0.084262875 
G03 X 15.588870375 Y 106.521885 Z -0.5 I 0.37142025 J -1.435347 
G02 X 14.97426225 Y 106.220441625 Z -0.5 I -0.932038125 J 1.1230395 
G02 X 13.245515625 Y 105.9996975 Z -0.5 I -2.0573775 J 9.232575 
G01 X 11.45641425 Y 105.9375 Z -0.5 
G01 X 11.168595375 Y 108.1875 Z -0.5 
G03 X 10.833604125 Y 110.42567325 Z -0.5 I -52.59923175 J -6.728461875 
G03 X 10.702157625 Y 110.90625 Z -0.5 I -2.533131375 J -0.43459275 
G03 X 9.9189315 Y 111.31254 Z -0.5 I -0.61943475 J -0.236038125 
G03 X 7.435402125 Y 110.07323625 Z -0.5 I 1.62079425 J -6.356137875 
G02 X 5.769013875 Y 108.837051 Z -0.5 I -17.185917 J 21.425517 
G02 X 4.5 Y 108.06297 Z -0.5 I -7.96558275 J 11.631388125 
G02 X 0.641890875 Y 106.709766375 Z -0.5 I -6.185260125 J 11.458234875 
G02 X 0.0 Y 107.24556375 Z -0.5 I -0.097325625 J 0.535797375 
G02 X 0.311532 Y 107.688465375 Z -0.5 I 0.47060025 J 0.0 
G02 X 2.100622125 Y 108.0 Z -0.5 I 1.789090125 J -4.981454625 
G03 X 4.103907 Y 108.52841925 Z -0.5 I 0.0 J 4.061526375 
G03 X 6.353192625 Y 110.41122375 Z -0.5 I -4.015658625 J 7.082244 
G02 X 7.974490125 Y 111.6920955 Z -0.5 I 3.823641375 J -3.17333925 
G02 X 9.8251275 Y 112.1278875 Z -0.5 I 1.864719375 J -3.771370875 
G03 X 10.53429 Y 112.393596 Z -0.5 I -0.0033495 J 1.08815325 
G03 X 11.528175 Y 113.60308875 Z -0.5 I -3.046449 J 3.51648225 
G01 X 12.36885 Y 115.0754025 Z -0.5 
G01 X 11.383852875 Y 115.85020125 Z -0.5 
G03 X 10.3658715 Y 116.5297155 Z -0.5 I -4.86000525 J -6.17850225 
G03 X 10.0008345 Y 116.625 Z -0.5 I -0.365037 J -0.65159175 
G02 X 9.632391375 Y 116.719359375 Z -0.5 I 0.0 J 0.76650675 
G02 X 8.11953375 Y 117.65625 Z -0.5 I 8.065285125 J 14.713432875 
G03 X 6.3898695 Y 118.534204875 Z -0.5 I -4.029506625 J -5.795767875 
G03 X 4.013574 Y 119.146700625 Z -0.5 I -5.027121 J -14.58778725 
G03 X 1.581362625 Y 119.321006625 Z -0.5 I -2.07509925 J -11.8989705 
G03 X 0.65625 Y 118.95779625 Z -0.5 I 0.043497 J -1.470544875 
G02 X 0.17935275 Y 118.778928375 Z -0.5 I -0.476161875 J 0.544357875 
G02 X 0.0 Y 118.95846375 Z -0.5 I 0.000182625 J 0.179535375 
G02 X 0.61924725 Y 119.772166125 Z -0.5 I 0.84423375 J 0.0 
G02 X 3.8757495 Y 120.03009375 Z -0.5 I 2.296231875 J -8.3047275 
G02 X 6.696006375 Y 119.5496985 Z -0.5 I -2.7962985 J -24.93486975 
G02 X 7.3278825 Y 119.237235 Z -0.5 I -0.34100175 J -1.48472175 
G03 X 7.88720925 Y 118.88729025 Z -0.5 I 1.580963625 J 1.904934375 
G03 X 8.038408875 Y 118.9153125 Z -0.5 I 0.055495875 J 0.12248625 
G03 X 8.29713075 Y 120.031297125 Z -0.5 I -0.778546125 J 0.768475125 
G03 X 6.454960125 Y 123.64168875 Z -0.5 I -12.98486325 J -4.350241125 
G02 X 4.606206375 Y 127.224850875 Z -0.5 I 11.430078 J 8.165935125 
G02 X 4.000450875 Y 130.7537625 Z -0.5 I 10.471627125 J 3.613954125 
G02 X 4.217399625 Y 133.006461375 Z -0.5 I 10.93245675 J 0.0839325 
G02 X 4.616235 Y 133.79625375 Z -0.5 I 1.63784625 J -0.331492125 
G03 X 5.103491625 Y 134.553007125 Z -0.5 I -2.049879375 J 1.855116 
G03 X 5.25 Y 135.260205 Z -0.5 I -1.633575 J 0.707197875 
G02 X 5.94016275 Y 137.309838375 Z -0.5 I 3.38856525 J 0.0 
G02 X 7.331072625 Y 138.0 Z -0.5 I 1.390909875 J -1.056497625 
G03 X 7.767864 Y 138.163668375 Z -0.5 I 0.0 J 0.664679625 
G03 X 8.513943375 Y 139.03125 Z -0.5 I -2.62855275 J 3.015019125 
G02 X 9.2174325 Y 140.017821 Z -0.5 I 9.699219375 J -6.17207025 
G02 X 9.55383825 Y 140.33800875 Z -0.5 I 1.321525125 J -1.051645875 
G02 X 10.163583 Y 140.5468875 Z -0.5 I 0.651399 J -0.90711825 
G02 X 14.696304 Y 140.612518875 Z -0.5 I 3.703566375 J -99.225051375 
G02 X 19.23768975 Y 140.4693555 Z -0.5 I -0.8190795 J -98.084168625 
G02 X 19.721904 Y 140.2530975 Z -0.5 I -0.04055775 J -0.741032625 
G03 X 20.1261765 Y 140.10638175 Z -0.5 I 0.359070375 J 0.35907075 
G03 X 21.2572935 Y 140.317390875 Z -0.5 I -0.538215375 J 6.022297875 
G03 X 22.31102025 Y 140.739102375 Z -0.5 I -1.554502125 J 5.411541375 
G03 X 22.5 Y 141.05112375 Z -0.5 I -0.163096125 J 0.312021375 
G03 X 22.454743875 Y 141.303529125 Z -0.5 I -0.72649425 J 0.0 
G03 X 21.785130375 Y 142.98054375 Z -0.5 I -33.780679875 J -12.516062625 
G02 X 20.91001875 Y 146.14148475 Z -0.5 I 11.209653375 J 4.805019 
G02 X 21.226091625 Y 147.596563125 Z -0.5 I 2.15664 J 0.293401125 
G02 X 22.4038425 Y 148.522023375 Z -0.5 I 1.8896595 J -1.192662 
G02 X 25.690564125 Y 149.1683325 Z -0.5 I 4.11367125 J -12.239289375 
G01 X 28.555654875 Y 149.3522025 Z -0.5 
G01 X 28.2985005 Y 150.33235125 Z -0.5 
G02 X 27.703251 Y 154.433237625 Z -0.5 I 17.8620975 J 4.6863525 
G02 X 28.119029625 Y 155.99034 Z -0.5 I 2.791927125 J 0.088559625 
G02 X 29.261052375 Y 156.50272125 Z -0.5 I 0.94914 J -0.586602375 
G02 X 35.25 Y 154.73878125 Z -0.5 I -4.79870625 J -27.341454375 
G03 X 35.679492 Y 154.827462 Z -0.5 I 0.150313875 J 0.356394 
G03 X 36.42543975 Y 155.9645625 Z -0.5 I -2.6845815 J 2.574333 
G01 X 37.0383795 Y 157.4275875 Z -0.5 
G01 X 35.86293975 Y 157.68913875 Z -0.5 
G03 X 33.0638325 Y 158.0061885 Z -0.5 I -2.887213125 J -12.97544025 
G03 X 30.375 Y 157.72551375 Z -0.5 I -0.081145125 J -12.24234 
G01 X 29.0625 Y 157.439385 Z -0.5 
G01 X 30.234899625 Y 158.54799 Z -0.5 
G02 X 31.451712 Y 159.584046375 Z -0.5 I 10.5417345 J -11.148320625 
G02 X 31.922399625 Y 159.83946 Z -0.5 I 1.0470165 J -1.368080625 
G03 X 32.186324625 Y 160.083435375 Z -0.5 I -0.15258075 J 0.429797625 
G03 X 32.143922625 Y 160.33598625 Z -0.5 I -0.211443375 J 0.094334625 
G03 X 31.795536 Y 160.47608175 Z -0.5 I -0.324487875 J -0.303701625 
G03 X 29.736964875 Y 160.2063675 Z -0.5 I 0.730597875 J -13.567016625 
G02 X 27.673998375 Y 159.966459 Z -0.5 I -2.346275625 J 11.185918125 
G02 X 27.166263375 Y 160.142625 Z -0.5 I -0.018970875 J 0.7650885 
G03 X 26.6768835 Y 160.327473375 Z -0.5 I -0.513144 J -0.618299625 
G03 X 25.823221125 Y 160.18236375 Z -0.5 I -0.0651105 J -2.200515375 
G02 X 21.74322375 Y 158.961352125 Z -0.5 I -10.105740375 J 26.341081875 
G02 X 21.100200375 Y 159.14980125 Z -0.5 I -0.14916675 J 0.682297125 
G02 X 21.056505 Y 159.45694275 Z -0.5 I 0.182665125 J 0.1826655 
G02 X 21.690747375 Y 160.356625875 Z -0.5 I 4.342833 J -2.388132 
G02 X 22.524129 Y 161.152513875 Z -0.5 I 5.195683875 J -4.606182375 
G02 X 23.16614175 Y 161.48014125 Z -0.5 I 1.099306125 J -1.3613295 
G03 X 23.911833 Y 161.846995125 Z -0.5 I -0.56681475 J 2.093442 
G03 X 24.39672675 Y 162.4155975 Z -0.5 I -1.06126425 J 1.396081875 
G02 X 24.9176805 Y 162.917764875 Z -0.5 I 1.0379895 J -0.55551675 
G02 X 26.354734875 Y 163.37274375 Z -0.5 I 2.2437795 J -4.59003 
G01 X 27.93579975 Y 163.625565 Z -0.5 
G01 X 26.811649875 Y 163.9652025 Z -0.5 
G02 X 25.7026365 Y 164.34349575 Z -0.5 I 4.79844675 J 15.881988375 
G02 X 24.848553 Y 164.71321875 Z -0.5 I 3.726124125 J 9.778939125 
G03 X 23.992223625 Y 164.8946745 Z -0.5 I -0.792286125 J -1.627641 
G03 X 22.411053 Y 164.6269275 Z -0.5 I 0.214955625 J -6.072061875 
G02 X 20.50731675 Y 164.255379 Z -0.5 I -2.67563925 J 8.646465375 
G02 X 16.777218375 Y 164.066819625 Z -0.5 I -4.566946875 J 53.35488375 
G02 X 13.024552875 Y 164.179738125 Z -0.5 I -0.642009 J 41.07716475 
G02 X 12.75 Y 164.47593 Z -0.5 I 0.02249175 J 0.296191875 
G03 X 12.225641625 Y 165.0979875 Z -0.5 I -0.631159125 J 0.0 
G03 X 8.34375 Y 165.23243625 Z -0.5 I -2.43435525 J -14.178800625 
G02 X 6.898688625 Y 165.235753875 Z -0.5 I -0.70649625 J 6.986061 
G02 X 6.75 Y 165.40099875 Z -0.5 I 0.017478 J 0.165244875 
G02 X 7.205633625 Y 166.099416 Z -0.5 I 0.763100625 J 0.0 
G02 X 10.968984375 Y 167.25833625 Z -0.5 I 6.855921 J -15.573359625 
G03 X 12.906809625 Y 167.711341875 Z -0.5 I -3.85912125 J 20.879421 
G03 X 13.75936725 Y 168.0502425 Z -0.5 I -1.23197175 J 4.341038625 
G02 X 14.60101125 Y 168.234908625 Z -0.5 I 0.762134625 J -1.463251875 
G02 X 16.245940875 Y 167.93026875 Z -0.5 I -0.299696625 J -6.21152925 
G03 X 17.868303 Y 167.650290375 Z -0.5 I 1.755658875 J 5.332882125 
G03 X 18.58419825 Y 167.87473875 Z -0.5 I 0.02768175 J 1.165631625 
G03 X 18.682215375 Y 168.3861915 Z -0.5 I -0.225453375 J 0.30832575 
G03 X 17.6987415 Y 169.2847875 Z -0.5 I -2.116815375 J -1.329279375 
G03 X 16.422237 Y 169.682344125 Z -0.5 I -1.80557025 J -3.549332625 
G03 X 14.82579975 Y 169.66989375 Z -0.5 I -0.754377 J -5.627734125 
G02 X 13.34518275 Y 169.730718 Z -0.5 I -0.582097125 J 3.881670375 
G02 X 12.806298 Y 170.144805 Z -0.5 I 0.188983875 J 0.80363025 
G03 X 11.91909975 Y 170.9287875 Z -0.5 I -1.4988 J -0.802132875 
G03 X 8.15625 Y 171.9378525 Z -0.5 I -6.622057125 J -17.173501125 
G02 X 6.89712525 Y 172.2847845 Z -0.5 I 0.9005085 J 5.726572125 
G02 X 6.75 Y 172.502385 Z -0.5 I 0.08735475 J 0.2176005 
G03 X 6.065225625 Y 173.690223375 Z -0.5 I -1.372624125 J 0.0 
G03 X 3.51620175 Y 174.375 Z -0.5 I -2.549023875 J -4.4018745 
G02 X 1.945734375 Y 174.493823625 Z -0.5 I 0.0 J 10.4376735 
G02 X 0.8681625 Y 174.7780125 Z -0.5 I 0.786319875 J 5.166561 
G02 X 0.361725375 Y 175.25531475 Z -0.5 I 0.325552875 J 0.852751125 
G02 X 0.46875 Y 175.66310625 Z -0.5 I 0.3053595 J 0.13779825 
G03 X 0.946579125 Y 176.536924875 Z -0.5 I -0.69683925 J 0.948606375 
G03 X 0.5625 Y 177.13561125 Z -0.5 I -0.5991795 J 0.038148 
G02 X 0.145768875 Y 177.45165675 Z -0.5 I 0.336158625 J 0.876021 
G02 X 0.0 Y 177.89189625 Z -0.5 I 0.59190375 J 0.4402395 
G02 X 0.187039125 Y 178.0193655 Z -0.5 I 0.13695525 J 0.0 
G02 X 1.1152725 Y 177.45369375 Z -0.5 I -1.155111375 J -2.939891625 
G02 X 1.764438375 Y 176.448229125 Z -0.5 I -1.44194775 J -1.643270625 
G02 X 1.619652375 Y 175.80003 Z -0.5 I -0.6439935 J -0.196423125 
G03 X 1.271806875 Y 175.351630125 Z -0.5 I 2.778769875 J -2.514745125 
G03 X 1.284442125 Y 175.223449875 Z -0.5 I 0.085209 J -0.05631375 
G03 X 1.435165875 Y 175.15439775 Z -0.5 I 0.166895625 J 0.165269625 
G03 X 2.28810525 Y 175.125 Z -0.5 I 0.852939375 J 12.35884575 
G02 X 5.331642375 Y 174.6013695 Z -0.5 I 0.0 J -9.106907625 
G02 X 6.9375 Y 173.47637625 Z -0.5 I -1.22682075 J -3.459837 
G03 X 8.34072225 Y 172.56892575 Z -0.5 I 2.130859875 J 1.756371375 
G03 X 9.862830375 Y 172.67731125 Z -0.5 I 0.606744 J 2.221240875 
G02 X 10.492014 Y 172.705314375 Z -0.5 I 0.351305625 J -0.810891375 
G02 X 11.3869995 Y 172.17244125 Z -0.5 I -0.7600665 J -2.29458825 
G03 X 12.277201875 Y 171.47944125 Z -0.5 I 4.171837875 J 4.440729 
G03 X 12.634502625 Y 171.375 Z -0.5 I 0.35730075 J 0.55895475 
G02 X 12.98445525 Y 171.27127125 Z -0.5 I 0.0 J -0.6421875 
G02 X 13.5 Y 170.8125 Z -0.5 I -1.251009375 J -1.924880625 
G03 X 14.06030925 Y 170.447101125 Z -0.5 I 0.87036225 J 0.722335875 
G03 X 15.514666875 Y 170.2382325 Z -0.5 I 1.4958315 J 5.247712125 
G02 X 17.011960125 Y 170.014794375 Z -0.5 I -0.041031 J -5.403466125 
G02 X 19.302952125 Y 169.1132325 Z -0.5 I -4.068891375 J -13.701255 
G03 X 21.564525 Y 168.08997375 Z -0.5 I 15.2369775 J 30.6654135 
G03 X 22.021702125 Y 168.0 Z -0.5 I 0.457177125 J 1.11652275 
G02 X 22.38270225 Y 167.8827045 Z -0.5 I 0.0 J -0.614171625 
G02 X 22.5 Y 167.652495 Z -0.5 I -0.167256 J -0.2302095 
G03 X 22.62332475 Y 167.402442 Z -0.5 I 0.31516575 J 0.0 
G03 X 23.15625 Y 167.14901625 Z -0.5 I 0.85941 J 1.12018725 
G02 X 23.230428375 Y 166.947651 Z -0.5 I -0.029784375 J -0.125317125 
G02 X 22.712281125 Y 166.5420825 Z -0.5 I -0.977446875 J 0.71499675 
G02 X 21.443057625 Y 166.18635 Z -0.5 I -2.1645855 J 5.2809495 
G02 X 19.6672305 Y 166.0044285 Z -0.5 I -2.52686625 J 15.90769275 
G02 X 18.009166125 Y 166.0746 Z -0.5 I -0.435589125 J 9.3316845 
G02 X 17.865675 Y 166.31584875 Z -0.5 I 0.023391 J 0.177210375 
G03 X 17.783794125 Y 166.609395375 Z -0.5 I -0.238720125 J 0.091605375 
G03 X 16.764472125 Y 167.1711075 Z -0.5 I -2.287454625 J -2.945251125 
G03 X 14.59683375 Y 167.586122625 Z -0.5 I -2.387843625 J -6.603456375 
G03 X 14.25 Y 167.25 Z -0.5 I -0.01054575 J -0.336122625 
G02 X 14.083655625 Y 167.041344375 Z -0.5 I -0.214036875 J 0.0 
G02 X 12.609375 Y 166.875 Z -0.5 I -1.474280625 J 6.44997825 
G03 X 8.983984125 Y 166.516015125 Z -0.5 I 0.0 J -18.4859205 
G03 X 8.625 Y 166.078125 Z -0.5 I 0.08757825 J -0.437890125 
G03 X 8.763519 Y 165.887965875 Z -0.5 I 0.199785 J 0.0 
G03 X 9.65625 Y 165.74587125 Z -0.5 I 0.904549125 J 2.80756275 
G02 X 13.067043 Y 165.29926275 Z -0.5 I -0.054594 J -13.6645275 
G02 X 13.5 Y 164.73816375 Z -0.5 I -0.147105375 J -0.561099 
G03 X 13.67974575 Y 164.43557625 Z -0.5 I 0.344563875 J 0.0 
G03 X 14.15625 Y 164.38070625 Z -0.5 I 0.30612825 J 0.562016625 
G02 X 17.87002275 Y 164.992682625 Z -0.5 I 4.728568875 J -17.120786625 
G02 X 18.90444675 Y 164.65243125 Z -0.5 I 0.084942375 J -1.484300625 
G03 X 19.43339625 Y 164.481481875 Z -0.5 I 0.478395 J 0.576434625 
G03 X 21.224786625 Y 164.80938375 Z -0.5 I -0.542597625 J 8.021616375 
G02 X 24.587311875 Y 165.410140875 Z -0.5 I 4.22056275 J -13.912453125 
G02 X 25.2820575 Y 165.04925625 Z -0.5 I 0.04507425 J -0.76240275 
G03 X 25.555948875 Y 164.83240125 Z -0.5 I 0.436284 J 0.269641125 
G03 X 26.9701695 Y 164.48576625 Z -0.5 I 2.82111825 J 8.4515325 
G02 X 28.72104225 Y 163.794874875 Z -0.5 I -0.689347125 J -4.31095575 
G02 X 28.77151425 Y 163.2715125 Z -0.5 I -0.190413375 J -0.28247775 
G02 X 28.56216825 Y 163.1539605 Z -0.5 I -0.313999125 J 0.314008875 
G02 X 27.140213625 Y 162.87592875 Z -0.5 I -3.8108595 J 15.714899625 
G03 X 25.76762325 Y 162.518573625 Z -0.5 I 0.98640975 J -6.60348525 
G03 X 25.299514125 Y 162.1807425 Z -0.5 I 0.390783 J -1.034710125 
G02 X 24.846370875 Y 161.789619 Z -0.5 I -1.3193055 J 1.070444625 
G02 X 23.49127575 Y 161.109135 Z -0.5 I -5.5581975 J 9.378937125 
G03 X 22.35619725 Y 160.414512375 Z -0.5 I 1.678916625 J -4.018230375 
G03 X 22.303953375 Y 160.182644625 Z -0.5 I 0.127455375 J -0.150537375 
G03 X 22.520569125 Y 160.038519 Z -0.5 I 0.2235825 J 0.1011915 
G03 X 23.90425275 Y 160.1966625 Z -0.5 I 0.13949175 J 4.911885 
G02 X 25.326009 Y 160.481776125 Z -0.5 I 3.16283775 J -12.084459375 
G02 X 27.5625 Y 160.7115825 Z -0.5 I 4.18557675 J -29.7365745 
G03 X 29.811679125 Y 160.867845 Z -0.5 I -16.580004375 J 254.910612 
G03 X 30.5625 Y 160.93331625 Z -0.5 I -2.103970125 J 28.46621025 
G02 X 33.417703875 Y 160.851410625 Z -0.5 I 1.1115735 J -11.05759125 
G02 X 33.667515375 Y 160.440045 Z -0.5 I -0.049501125 J -0.311595375 
G02 X 33.421380375 Y 160.090314375 Z -0.5 I -0.705842625 J 0.235282875 
G02 X 32.235865875 Y 159.315045 Z -0.5 I -5.04333675 J 6.418035 
G01 X 30.949201125 Y 158.625 Z -0.5 
G01 X 33.19335075 Y 158.55630375 Z -0.5 
G03 X 36.919261125 Y 158.898252 Z -0.5 I 0.4698645 J 15.35026125 
G03 X 38.07383625 Y 159.61513875 Z -0.5 I -0.429564 J 1.980019125 
G01 X 38.885265 Y 160.63276875 Z -0.5 
G01 X 40.03177125 Y 159.81638625 Z -0.5 
G03 X 41.119227 Y 159.14750775 Z -0.5 I 5.50272075 J 7.727841 
G03 X 41.569314 Y 159.080844375 Z -0.5 I 0.32016075 J 0.608865 
G03 X 41.94808425 Y 159.316034625 Z -0.5 I -0.117753 J 0.612236625 
G03 X 42.586125 Y 160.30767375 Z -0.5 I -6.046275 J 4.591380375 
G03 X 42.946474875 Y 161.6392935 Z -0.5 I -2.66704275 J 1.436296125 
G03 X 42.68757375 Y 163.24173 Z -0.5 I -4.191484125 J 0.144926625 
G02 X 42.43618875 Y 164.81493075 Z -0.5 I 3.8261295 J 1.418070375 
G02 X 42.7840575 Y 165.77780625 Z -0.5 I 1.683838125 J -0.064062 
G03 X 43.487327625 Y 166.986273 Z -0.5 I -4.331743125 J 3.329736 
G03 X 43.47631125 Y 167.262742125 Z -0.5 I -0.300236625 J 0.126490875 
G03 X 43.295839875 Y 167.318134875 Z -0.5 I -0.11742675 J -0.060892875 
G03 X 42.36400875 Y 166.5878325 Z -0.5 I 1.687886625 J -3.113300625 
G03 X 41.4552675 Y 165.283774875 Z -0.5 I 4.552188375 J -4.14088275 
G03 X 41.25 Y 164.44335375 Z -0.5 I 1.61782275 J -0.840421125 
G02 X 40.76978175 Y 164.038007625 Z -0.5 I -0.411183 J 0.0 
G02 X 39.795795 Y 164.6910225 Z -0.5 I 0.240378375 J 1.4113995 
G02 X 39.442647 Y 165.665869125 Z -0.5 I 2.1025215 J 1.313048625 
G02 X 39.166953375 Y 168.7139475 Z -0.5 I 32.501739 J 4.476235875 
G02 X 39.170932125 Y 171.761295 Z -0.5 I 33.952284375 J 1.47934725 
G02 X 39.43459875 Y 172.9807725 Z -0.5 I 3.75381675 J -0.173380875 
G03 X 39.718359 Y 173.99677575 Z -0.5 I -4.571552625 J 1.824420375 
G03 X 39.6429375 Y 174.23206125 Z -0.5 I -0.266358375 J 0.044349 
G03 X 38.867011875 Y 174.11206725 Z -0.5 I -0.344037375 J -0.344034 
G03 X 38.0535975 Y 171.16822875 Z -0.5 I 6.534945375 J -3.389973 
G02 X 37.84806375 Y 169.936227 Z -0.5 I -5.966485875 J 0.362237625 
G02 X 37.56009375 Y 169.38490875 Z -0.5 I -1.428622125 J 0.39534525 
G03 X 37.33557075 Y 168.827599875 Z -0.5 I 0.758406 J -0.62942025 
G03 X 37.37842275 Y 166.9086 Z -0.5 I 10.031730375 J -0.735966 
G02 X 37.215184125 Y 165.342129 Z -0.5 I -3.5560935 J -0.421168125 
G02 X 36.754507875 Y 165.06030375 Z -0.5 I -0.398925 J 0.1346625 
G02 X 35.110341375 Y 166.22460675 Z -0.5 I 0.326874375 J 2.204647875 
G02 X 34.6815465 Y 168.9877425 Z -0.5 I 3.796893375 J 2.004057 
G03 X 34.659616875 Y 170.03160675 Z -0.5 I -2.602450125 J 0.46749 
G03 X 34.374651 Y 170.36176125 Z -0.5 I -0.4502505 J -0.100566 
G02 X 33.99737775 Y 170.68509525 Z -0.5 I 0.26527575 J 0.691302375 
G02 X 33.544418625 Y 171.81151875 Z -0.5 I 3.83635725 J 2.19696525 
G01 X 33.23219475 Y 173.0625 Z -0.5 
G01 X 33.092422875 Y 171.375 Z -0.5 
G02 X 32.835297 Y 169.741371375 Z -0.5 I -11.225312625 J 0.929764125 
G02 X 32.618877 Y 169.3488 Z -0.5 I -0.80591775 J 0.188352375 
G03 X 32.48004225 Y 168.9819675 Z -0.5 I 0.345451125 J -0.340431 
G03 X 32.677291875 Y 168.27729 Z -0.5 I 1.685661375 J 0.091896 
G02 X 32.547728625 Y 167.289953625 Z -0.5 I -0.753544125 J -0.403285125 
G02 X 31.70339325 Y 167.23681125 Z -0.5 I -0.450372375 J 0.4215525 
G03 X 31.372339875 Y 167.07877875 Z -0.5 I -0.129029625 J -0.155471625 
G03 X 31.719822 Y 165.94079625 Z -0.5 I 2.125387875 J 0.026942625 
G02 X 32.00236725 Y 164.69592825 Z -0.5 I -1.5282735 J -1.001367375 
G02 X 31.492461375 Y 164.25 Z -0.5 I -0.509905875 J 0.068566875 
G02 X 31.1882985 Y 164.345899875 Z -0.5 I 0.0 J 0.530302125 
G02 X 29.082390375 Y 165.9375 Z -0.5 I 20.837503875 J 29.759917875 
G03 X 26.960926125 Y 167.485369125 Z -0.5 I -15.5959965 J -19.147674375 
G03 X 26.490558 Y 167.625 Z -0.5 I -0.470368125 J -0.722438625 
G02 X 25.980094875 Y 167.814669 Z -0.5 I 0.0 J 0.78174825 
G02 X 24.414793875 Y 169.328715375 Z -0.5 I 12.426609375 J 14.4134535 
G02 X 23.033319375 Y 170.9820345 Z -0.5 I 16.25876475 J 14.989263 
G02 X 22.4896245 Y 171.96478875 Z -0.5 I 3.165190125 J 2.392870125 
G02 X 22.2261975 Y 172.942413 Z -0.5 I 4.734460875 J 1.800033375 
G02 X 22.125 Y 174.18066375 Z -0.5 I 7.525009875 J 1.23825075 
G03 X 21.957061875 Y 175.31645775 Z -0.5 I -3.924753 J 0.0 
G03 X 21.702437625 Y 175.5783525 Z -0.5 I -0.380237625 J -0.114957 
G02 X 21.451839375 Y 175.85043075 Z -0.5 I 0.120952125 J 0.36284925 
G02 X 21.16802325 Y 177.765855 Z -0.5 I 10.181458125 J 2.48736675 
G02 X 21.174637875 Y 178.685050125 Z -0.5 I 7.43151825 J 0.40614225 
G02 X 21.23170875 Y 178.6875 Z -0.5 I 0.028672875 J -0.001981125 
G03 X 21.862532625 Y 177.121342125 Z -0.5 I 3.688421625 J 0.575517 
G03 X 22.37762175 Y 177.0515175 Z -0.5 I 0.28979325 J 0.20298375 
G02 X 22.668400125 Y 176.9713725 Z -0.5 I 0.11728875 J -0.142024875 
G02 X 22.7783895 Y 175.927905 Z -0.5 I -2.099455875 J -0.74882925 
G03 X 22.666870125 Y 174.294813375 Z -0.5 I 12.607968 J -1.681316625 
G03 X 22.767357 Y 173.01804 Z -0.5 I 7.786411125 J -0.0295215 
G03 X 23.204337 Y 171.828271875 Z -0.5 I 3.29326275 J 0.53442375 
G03 X 24.433224 Y 170.098265625 Z -0.5 I 12.198802875 J 7.36379325 
G03 X 25.90878975 Y 168.624703125 Z -0.5 I 8.5598115 J 7.0958805 
G03 X 26.487883125 Y 168.5299425 Z -0.5 I 0.370671375 J 0.4483815 
G02 X 26.94906825 Y 168.475803375 Z -0.5 I 0.179008875 J -0.46648425 
G02 X 28.92336975 Y 166.8632925 Z -0.5 I -8.503837125 J -12.42668775 
G03 X 30.887963625 Y 165.1609125 Z -0.5 I 16.2742995 J 16.796208 
G03 X 31.353432 Y 164.94558225 Z -0.5 I 0.702890625 J 0.908647875 
G03 X 31.476827625 Y 165.092167125 Z -0.5 I 0.022459125 J 0.10632375 
G03 X 30.699491625 Y 166.48811625 Z -0.5 I -5.788312875 J -2.308824375 
G02 X 30.201519 Y 168.20027325 Z -0.5 I 2.07028125 J 1.530626625 
G02 X 30.837293625 Y 168.4377075 Z -0.5 I 0.372043875 J -0.026296875 
G03 X 31.592576625 Y 168.34890225 Z -0.5 I 0.433876875 J 0.433875375 
G03 X 31.9549905 Y 169.125 Z -0.5 I -0.407731125 J 0.663064875 
G02 X 31.990696125 Y 170.076505125 Z -0.5 I 2.585118 J 0.379414875 
G02 X 32.207437875 Y 170.25 Z -0.5 I 0.21674175 J -0.048637125 
G03 X 32.447377875 Y 170.428348875 Z -0.5 I 0.0 J 0.250575 
G03 X 32.630742375 Y 171.65625 Z -0.5 I -4.137807375 J 1.2455475 
G02 X 32.762706375 Y 173.02449 Z -0.5 I 7.474765875 J -0.0304425 
G02 X 33.005742375 Y 173.625 Z -0.5 I 1.631103375 J -0.310698375 
G02 X 33.375 Y 173.82431025 Z -0.5 I 0.369257625 J -0.242402625 
G02 X 33.744257625 Y 173.625 Z -0.5 I 0.0 J -0.441712875 
G02 X 34.01249475 Y 173.03190825 Z -0.5 I -1.749375 J -1.148391375 
G02 X 34.119257625 Y 172.26248625 Z -0.5 I -2.8733175 J -0.790812 
G03 X 34.337149875 Y 171.62749575 Z -0.5 I 1.0563375 J 0.00759525 
G03 X 34.884642375 Y 171.26382375 Z -0.5 I 0.80366025 J 0.61592625 
G02 X 35.313550875 Y 170.8493235 Z -0.5 I -0.1538625 J -0.58836975 
G02 X 35.399892 Y 169.536825 Z -0.5 I -2.83398675 J -0.845519625 
G03 X 35.62521975 Y 166.458559875 Z -0.5 I 6.63809025 J -1.061473875 
G03 X 36.59083425 Y 165.75 Z -0.5 I 0.9656145 J 0.3036825 
G03 X 37.0215795 Y 166.186660875 Z -0.5 I 0.0 J 0.430785375 
G03 X 36.54412575 Y 169.1743425 Z -0.5 I -10.481082375 J -0.142963875 
G02 X 36.563886375 Y 169.68399825 Z -0.5 I 0.7255935 J 0.227077875 
G02 X 36.86828925 Y 169.98405 Z -0.5 I 0.495697125 J -0.19845075 
G03 X 37.201344 Y 170.31128175 Z -0.5 I -0.209744625 J 0.546583875 
G03 X 37.41690225 Y 171.341625 Z -0.5 I -2.758918125 J 1.114913625 
G02 X 38.078176875 Y 173.55179625 Z -0.5 I 4.446733875 J -0.12643425 
G02 X 39.75331875 Y 175.1267775 Z -0.5 I 3.760225125 J -2.321029875 
G02 X 40.432459125 Y 175.255702125 Z -0.5 I 0.545193 J -1.018705875 
G02 X 40.66946775 Y 175.02659025 Z -0.5 I -0.031479375 J -0.269709375 
G02 X 40.63314975 Y 174.505706625 Z -0.5 I -1.184568375 J -0.17911575 
G02 X 40.0703625 Y 173.0300325 Z -0.5 I -10.09328175 J 3.004186125 
G03 X 39.648907875 Y 171.376204125 Z -0.5 I 4.0916865 J -1.92332325 
G03 X 39.9352725 Y 170.767755 Z -0.5 I 0.70068 J -0.041839875 
G02 X 40.301235 Y 170.177574375 Z -0.5 I -0.546560625 J -0.747468375 
G02 X 40.18806375 Y 169.3011525 Z -0.5 I -1.47769875 J -0.2547045 
G03 X 39.58974 Y 165.875768625 Z -0.5 I 6.281863125 J -2.86222275 
G03 X 40.54012125 Y 165.0 Z -0.5 I 0.95038125 J 0.077791125 
G03 X 40.75780425 Y 165.1171935 Z -0.5 I 0.0 J 0.260766 
G03 X 40.875 Y 165.5077425 Z -0.5 I -0.5921445 J 0.390549 
G02 X 41.646187125 Y 167.228812125 Z -0.5 I 2.306061375 J 0.0 
G02 X 43.66959375 Y 168.0 Z -0.5 I 2.023406625 J -2.2688655 
G02 X 44.399025375 Y 167.8839945 Z -0.5 I 0.0 J -2.351299125 
G02 X 44.575858875 Y 167.67993825 Z -0.5 I -0.08128425 J -0.24909 
G02 X 44.5244385 Y 167.362296375 Z -0.5 I -0.484561125 J -0.0845415 
G02 X 43.9388325 Y 166.4568225 Z -0.5 I -5.913862125 J 3.1826265 
G03 X 43.1461155 Y 164.60396625 Z -0.5 I 3.229089375 J -2.47752225 
G03 X 43.3911825 Y 162.93087375 Z -0.5 I 2.831371875 J -0.43976775 
G03 X 44.221730625 Y 161.954343375 Z -0.5 I 2.252034 J 1.073916375 
G03 X 45.27486 Y 161.625 Z -0.5 I 1.053129375 J 1.519104375 
G02 X 46.429963125 Y 161.382586875 Z -0.5 I 0.0 J -2.8732485 
G02 X 47.40092625 Y 160.69152375 Z -0.5 I -1.17775425 J -2.682425625 
G03 X 48.26327775 Y 160.225098375 Z -0.5 I 1.117464375 J 1.035633 
G03 X 48.88302 Y 160.43980125 Z -0.5 I 0.114173625 J 0.672234375 
G03 X 49.373584875 Y 161.170267125 Z -0.5 I -2.270475 J 2.05476075 
G03 X 49.5 Y 161.726145 Z -0.5 I -1.158957375 J 0.555877875 
G02 X 50.114345625 Y 162.239969625 Z -0.5 I 0.522048375 J 0.0 
G02 X 51.82299 Y 161.30887125 Z -0.5 I -0.544834125 J -3.03311925 
G03 X 53.298759 Y 159.799843875 Z -0.5 I 32.68097175 J 30.484553625 
G03 X 53.4212475 Y 159.75 Z -0.5 I 0.1224885 J 0.125583375 
G03 X 53.513144625 Y 159.814992 Z -0.5 I 0.0 J 0.09746625 
G03 X 53.8021575 Y 160.8279075 Z -0.5 I -8.04833025 J 2.844100875 
G02 X 54.19246575 Y 161.81862 Z -0.5 I 3.282502125 J -0.720957375 
G02 X 54.94245375 Y 162.75465375 Z -0.5 I 3.6696135 J -2.171765625 
G03 X 55.346595 Y 164.1230745 Z -0.5 I -0.96720075 J 1.029535875 
G03 X 54.3383775 Y 165.199125 Z -0.5 I -1.46461875 J -0.361935375 
G02 X 53.600673375 Y 165.5332245 Z -0.5 I 1.041121875 J 3.28032675 
G02 X 52.89882375 Y 166.06827 Z -0.5 I 2.1126525 J 3.499135875 
G03 X 52.220648625 Y 166.654129875 Z -0.5 I -6.563444625 J -6.912213375 
G03 X 51.52959375 Y 167.14298625 Z -0.5 I -5.250752625 J -6.689673 
G02 X 51.228258375 Y 167.621524875 Z -0.5 I 0.3537255 J 0.5568855 
G02 X 51.417045 Y 168.08401875 Z -0.5 I 0.51114075 J 0.061133625 
G03 X 51.791441625 Y 168.659946 Z -0.5 I -0.688504125 J 0.85723725 
G03 X 51.85177125 Y 169.72658625 Z -0.5 I -2.570977875 J 0.680441625 
G03 X 51.39549675 Y 170.673808875 Z -0.5 I -1.742171625 J -0.2556945 
G03 X 50.00914125 Y 171.69632625 Z -0.5 I -3.452038125 J -3.229276125 
G02 X 48.81953175 Y 172.4507205 Z -0.5 I 2.73192825 J 5.623144125 
G02 X 48.61528875 Y 172.790224875 Z -0.5 I 0.361259625 J 0.44851875 
G02 X 48.748116 Y 173.045178 Z -0.5 I 0.2270745 J 0.043774125 
G02 X 49.7096325 Y 173.25 Z -0.5 I 0.9615165 J -2.154458625 
G03 X 50.43127725 Y 173.340286125 Z -0.5 I 0.0 J 2.929143375 
G03 X 50.565111 Y 173.5149255 Z -0.5 I -0.043756875 J 0.172133625 
G03 X 50.47315425 Y 173.79842925 Z -0.5 I -0.504963 J -0.0071235 
G03 X 49.6875075 Y 174.81838875 Z -0.5 I -12.203416875 J -8.587395 
G02 X 48.909053625 Y 175.990555125 Z -0.5 I 4.762689 J 4.00755 
G02 X 48.7500075 Y 176.65052625 Z -0.5 I 1.289770125 J 0.659971125 
G03 X 48.583204875 Y 177.312122625 Z -0.5 I -1.39545975 J 0.0 
G03 X 47.4375075 Y 179.0879775 Z -0.5 I -11.787446625 J -6.347199 
G02 X 46.212966 Y 181.07697825 Z -0.5 I 9.287866875 J 7.089586125 
G02 X 46.09928925 Y 181.668640125 Z -0.5 I 1.04670075 J 0.50785575 
G02 X 46.326333 Y 181.805548125 Z -0.5 I 0.161848125 J -0.011689125 
G02 X 47.5706175 Y 180.93102 Z -0.5 I -1.544118375 J -3.519435375 
G03 X 48.505356375 Y 180.11710875 Z -0.5 I 4.72072725 J 4.477826625 
G03 X 48.8831175 Y 179.99199375 Z -0.5 I 0.390262125 J 0.54547575 
G02 X 49.2364995 Y 179.840398875 Z -0.5 I -0.00947025 J -0.509756625 
G02 X 50.37966375 Y 178.47587625 Z -0.5 I -7.777262625 J -7.676724 
G03 X 51.50365575 Y 177.398719125 Z -0.5 I 3.3495465 J 2.370174375 
G03 X 52.0019925 Y 177.42852 Z -0.5 I 0.228859875 J 0.35449875 
G02 X 52.7196285 Y 177.354061125 Z -0.5 I 0.322377375 J -0.38844375 
G02 X 53.24426625 Y 175.86469125 Z -0.5 I -1.893330375 J -1.504023 
G03 X 53.893906875 Y 173.88765 Z -0.5 I 3.395713875 J 0.0205515 
G03 X 55.14627 Y 173.25 Z -0.5 I 1.252363125 J 0.911014125 
G03 X 55.54410225 Y 173.562432 Z -0.5 I 0.0 J 0.40950375 
G03 X 55.45440375 Y 174.512835 Z -0.5 I -1.41684675 J 0.34571325 
G02 X 55.274917125 Y 175.437265125 Z -0.5 I 1.83439425 J 0.835804125 
G02 X 55.545945 Y 176.5929825 Z -0.5 I 3.20014875 J -0.140830875 
G02 X 56.11689525 Y 177.659661375 Z -0.5 I 7.40854275 J -3.279350625 
G02 X 56.2813575 Y 177.75 Z -0.5 I 0.16446225 J -0.1045335 
G02 X 56.92579725 Y 177.300788625 Z -0.5 I 0.0 J -0.686863125 
G02 X 57.3750075 Y 174.7843575 Z -0.5 I -6.82379475 J -2.516431125 
G03 X 57.68150625 Y 174.09964425 Z -0.5 I 0.918068625 J 0.0 
G03 X 58.34827875 Y 173.915055 Z -0.5 I 0.520161 J 0.582372 
G01 X 59.32155375 Y 174.10111125 Z -0.5 
G01 X 58.6902375 Y 172.88028 Z -0.5 
G03 X 57.79448325 Y 169.15065 Z -0.5 I 7.12185225 J -3.682855125 
G03 X 58.7156625 Y 168.521415 Z -0.5 I 0.678199875 J 0.003956625 
G02 X 59.486816625 Y 168.267662625 Z -0.5 I 0.23005425 J -0.599510625 
G02 X 60.00000375 Y 166.51146 Z -0.5 I -2.748399375 J -1.756202625 
G03 X 60.568519125 Y 164.443519125 Z -0.5 I 4.045263375 J 0.0 
G03 X 61.5681525 Y 163.875 Z -0.5 I 0.999633375 J 0.59457375 
G03 X 61.894828125 Y 163.964436375 Z -0.5 I 0.0 J 0.641325 
G03 X 63.16178625 Y 164.81830875 Z -0.5 I -6.64730925 J 11.230021875 
G02 X 64.153434 Y 165.406758375 Z -0.5 I 3.019851375 J -3.959233875 
G02 X 64.642299375 Y 165.385719 Z -0.5 I 0.223333875 J -0.500764125 
G02 X 65.036007 Y 164.988784875 Z -0.5 I -0.483219375 J -0.873012375 
G02 X 65.822955 Y 163.34533125 Z -0.5 I -15.7696035 J -8.561221875 
G02 X 66.149859 Y 161.925589125 Z -0.5 I -3.98519175 J -1.665121125 
G02 X 65.977995 Y 160.6208175 Z -0.5 I -3.518655375 J -0.200228625 
G03 X 65.772793125 Y 159.219214125 Z -0.5 I 3.898286625 J -1.2865515 
G03 X 66.055099125 Y 158.89811625 Z -0.5 I 0.334428375 J 0.0093765 
G03 X 66.65864175 Y 158.987920875 Z -0.5 I 0.1587165 J 1.0063185 
G03 X 68.75246625 Y 160.18324875 Z -0.5 I -7.876288125 J 16.2282015 
G03 X 70.802665125 Y 162.165450375 Z -0.5 I -4.333088625 J 6.5330955 
G03 X 70.6866075 Y 162.89616 Z -0.5 I -0.429669 J 0.30632775 
G02 X 70.425513 Y 163.4165385 Z -0.5 I 0.382497 J 0.517603875 
G02 X 70.697295 Y 165.375 Z -0.5 I 7.42284075 J -0.032002875 
G03 X 70.956405 Y 167.43793575 Z -0.5 I -6.8592435 J 1.909278375 
G03 X 70.60015875 Y 169.875 Z -0.5 I -9.989141625 J -0.215626875 
G03 X 69.686972625 Y 172.037757 Z -0.5 I -8.67641175 J -2.38929525 
G03 X 69.10156875 Y 172.430745 Z -0.5 I -0.70025025 J -0.4105995 
G02 X 67.431523875 Y 173.437822875 Z -0.5 I 0.35369325 J 2.47479525 
G02 X 65.49562125 Y 177.40274625 Z -0.5 I 10.359231 J 7.51304025 
G03 X 64.73468625 Y 179.39451975 Z -0.5 I -12.21128025 J -3.523944 
G03 X 64.17674625 Y 180.1406625 Z -0.5 I -2.186271 J -1.05314325 
G02 X 63.076136625 Y 182.833945125 Z -0.5 I 2.256850875 J 2.49378525 
G02 X 64.53847875 Y 186.22846875 Z -0.5 I 5.418361125 J -0.321954375 
G03 X 64.801226625 Y 187.56336975 Z -0.5 I -0.93359175 J 0.87706725 
G03 X 63.8402475 Y 188.052975 Z -0.5 I -0.751796625 J -0.287709375 
G02 X 62.80308525 Y 187.836487125 Z -0.5 I -2.411995125 J 8.96282325 
G02 X 61.61012625 Y 187.718955 Z -0.5 I -1.7599665 J 11.75072025 
G03 X 60.49103025 Y 187.4650995 Z -0.5 I 0.1568535 J -3.285108375 
G03 X 59.5425075 Y 186.84865875 Z -0.5 I 1.2401445 J -2.946192 
G02 X 57.050174625 Y 185.406620625 Z -0.5 I -4.3302495 J 4.609326375 
G02 X 52.8749925 Y 184.8236025 Z -0.5 I -3.9395625 J 12.9710625 
G02 X 48.400407375 Y 185.507505 Z -0.5 I 0.2938155 J 16.902294 
G02 X 46.48956 Y 186.700995 Z -0.5 I 1.18124475 J 4.01767575 
G03 X 45.370167375 Y 187.555757625 Z -0.5 I -2.92847475 J -2.674758 
G03 X 43.84183875 Y 188.058105 Z -0.5 I -2.36037225 J -4.6050885 
G02 X 42.219571875 Y 188.431093875 Z -0.5 I 2.076060375 J 12.743976 
G02 X 40.8749925 Y 188.94505125 Z -0.5 I 2.765530125 J 9.2507595 
G03 X 39.510529875 Y 189.32997825 Z -0.5 I -1.839821625 J -3.91088025 
G03 X 35.295121875 Y 189.5625 Z -0.5 I -4.215408 J -38.094529875 
G02 X 31.18281675 Y 189.845216625 Z -0.5 I 0.0 J 30.04950525 
G02 X 30.615712125 Y 190.20896625 Z -0.5 I 0.109861125 J 0.79522725 
G02 X 30.577852125 Y 190.816743375 Z -0.5 I 0.530476125 J 0.338112375 
G02 X 31.60183275 Y 192.28727625 Z -0.5 I 4.92122625 J -2.335030125 
G03 X 32.877624375 Y 193.768963875 Z -0.5 I -11.1751215 J 10.912319625 
G03 X 33.0 Y 194.13321375 Z -0.5 I -0.480905625 J 0.364249875 
G02 X 33.129861375 Y 194.48728725 Z -0.5 I 0.547630875 J 0.0 
G02 X 34.25789625 Y 195.61740375 Z -0.5 I 7.489041375 J -6.347211375 
G03 X 36.211405125 Y 197.374351875 Z -0.5 I -30.878373375 J 36.297436875 
G03 X 37.58827125 Y 198.7830375 Z -0.5 I -18.454224 J 19.414602 
G02 X 38.575413 Y 199.59717 Z -0.5 I 3.301738875 J -2.99785875 
G02 X 40.32849375 Y 200.4468675 Z -0.5 I 5.3653545 J -8.836390875 
G03 X 42.137228625 Y 201.231439875 Z -0.5 I -6.5872185 J 17.663218875 
G03 X 43.06929375 Y 201.81022125 Z -0.5 I -2.600107125 J 5.22707625 
G02 X 44.009171625 Y 202.3435515 Z -0.5 I 2.453028375 J -3.228097125 
G02 X 45.22554375 Y 202.677645 Z -0.5 I 2.061787875 J -5.125245 
G03 X 46.4999175 Y 202.875523125 Z -0.5 I -239.188702125 J 1544.62312725 
G03 X 47.8416675 Y 203.0849625 Z -0.5 I -269.620872 J 1731.700245 
G01 X 49.18333125 Y 203.29492875 Z -0.5 
G01 X 48.8939775 Y 204.8662125 Z -0.5 
G02 X 48.72417075 Y 208.296210375 Z -0.5 I 12.7683525 J 2.351316375 
G02 X 49.28875125 Y 209.60131125 Z -0.5 I 2.218260375 J -0.184941 
G03 X 50.48595 Y 211.81701675 Z -0.5 I -3.967843875 J 3.575211375 
G03 X 50.7202275 Y 215.03977875 Z -0.5 I -8.502577875 J 2.237988375 
G02 X 50.905594875 Y 216.58162725 Z -0.5 I 3.357388125 J 0.37842825 
G02 X 51.787935 Y 217.95084375 Z -0.5 I 3.489825375 J -1.279983375 
G03 X 54.060892875 Y 220.61206125 Z -0.5 I -14.215081875 J 14.44244625 
G03 X 54.92820375 Y 222.3457125 Z -0.5 I -5.058413625 J 3.61439775 
G02 X 56.258647875 Y 224.417437125 Z -0.5 I 4.504479375 J -1.429675875 
G02 X 59.56234125 Y 226.54657125 Z -0.5 I 8.088055125 J -8.922244875 
G02 X 61.22202525 Y 227.081791125 Z -0.5 I 3.59120775 J -8.295213 
G02 X 62.77822125 Y 227.25 Z -0.5 I 1.556196 J -7.114530375 
G03 X 64.67562975 Y 227.845929 Z -0.5 I 0.0 J 3.318592125 
G03 X 66.30024375 Y 229.70447625 Z -0.5 I -2.923175625 J 4.194575625 
G03 X 66.31963575 Y 230.418312 Z -0.5 I -0.734188125 J 0.377125875 
G03 X 65.29491375 Y 231.95447625 Z -0.5 I -5.03905425 J -2.251517625 
G02 X 63.979017375 Y 233.503924125 Z -0.5 I 14.14477725 J 13.346203125 
G02 X 62.0173575 Y 236.25 Z -0.5 I 42.61015875 J 32.512270875 
G03 X 58.77798075 Y 239.68965225 Z -0.5 I -11.846027625 J -7.91107875 
G03 X 55.57047 Y 241.1383275 Z -0.5 I -4.77534825 J -6.297884625 
G02 X 53.4592575 Y 241.63934325 Z -0.5 I 6.46260075 J 31.9312095 
G02 X 52.5 Y 241.975917 Z -0.5 I 1.881978375 J 6.899024625 
G02 X 52.053058875 Y 242.2427925 Z -0.5 I 0.799515375 J 1.846650375 
G02 X 52.063035375 Y 242.37002775 Z -0.5 I 0.04756125 J 0.060279375 
G02 X 52.335764625 Y 242.46852975 Z -0.5 I 0.432303 J -0.770135625 
G02 X 53.8125 Y 242.712667125 Z -0.5 I 7.580205375 J -41.262737625 
G02 X 56.066825625 Y 242.904969375 Z -0.5 I 2.703966 J -18.388450875 
G02 X 58.621695 Y 242.82904575 Z -0.5 I 0.573856125 J -23.713792875 
G02 X 61.07171625 Y 242.293836 Z -0.5 I -0.79886325 J -9.532263 
G02 X 63.684195 Y 241.00095 Z -0.5 I -4.389293625 J -12.155158875 
G03 X 66.19499625 Y 239.399323125 Z -0.5 I 169.93575375 J 263.632092 
G03 X 67.5 Y 238.59228075 Z -0.5 I 44.43603675 J 70.395333 
G02 X 68.742205875 Y 237.708848625 Z -0.5 I -5.37355725 J -8.87089125 
G02 X 70.27557 Y 236.29336875 Z -0.5 I -12.399872625 J -14.970831375 
G03 X 71.819674875 Y 235.288655625 Z -0.5 I 2.994544875 J 2.913306375 
G03 X 72.82307625 Y 235.35028875 Z -0.5 I 0.431926875 J 1.166748 
G03 X 73.773968625 Y 236.038142625 Z -0.5 I -1.815816375 J 3.51137925 
G03 X 74.32058625 Y 236.81766375 Z -0.5 I -1.820815125 J 1.858207125 
G03 X 74.390913 Y 237.68569275 Z -0.5 I -1.166175 J 0.53134575 
G03 X 73.70736375 Y 239.06979075 Z -0.5 I -3.885138375 J -1.057873125 
G02 X 72.7965255 Y 240.481246875 Z -0.5 I 8.513188125 J 6.493332375 
G02 X 71.76172875 Y 242.677848375 Z -0.5 I 19.690470375 J 10.618024125 
G03 X 69.76214025 Y 246.535025625 Z -0.5 I -21.833494125 J -8.87175225 
G03 X 67.1628225 Y 249.84375 Z -0.5 I -18.602346375 J -11.93854425 
G02 X 65.610550125 Y 251.56230075 Z -0.5 I 31.50363525 J 30.01581975 
G02 X 65.63909625 Y 251.623714125 Z -0.5 I 0.028270125 J 0.024200625 
G02 X 65.806431 Y 251.59203 Z -0.5 I -0.003559875 J -0.476519625 
G02 X 68.615265 Y 250.48033575 Z -0.5 I -53.751724875 J -139.914704625 
G02 X 73.655853375 Y 247.401552 Z -0.5 I -6.93583875 J -17.020982625 
G02 X 79.2340125 Y 241.3587705 Z -0.5 I -23.217546 J -27.028398375 
G03 X 79.825159875 Y 240.997391625 Z -0.5 I 0.732265875 J 0.533656125 
G03 X 80.645865 Y 241.136166375 Z -0.5 I 0.203664 J 1.291728375 
G02 X 83.360442375 Y 241.894506375 Z -0.5 I 3.061023375 J -5.71957275 
G02 X 85.01763 Y 241.36997325 Z -0.5 I 0.131766375 J -2.463793875 
G03 X 86.1242175 Y 240.850323375 Z -0.5 I 1.675671 J 2.130262875 
G03 X 88.1736375 Y 240.692202375 Z -0.5 I 1.60879125 J 7.49126475 
G02 X 91.850859 Y 240.170127 Z -0.5 I 0.541363125 J -9.39816075 
G02 X 93.38846625 Y 238.84984125 Z -0.5 I -0.933719625 J -2.64290475 
G03 X 93.881868375 Y 238.368853875 Z -0.5 I 1.005968625 J 0.538371375 
G03 X 94.96924875 Y 238.0549725 Z -0.5 I 1.3828215 J 2.7500655 
G02 X 95.995546875 Y 237.649358625 Z -0.5 I -0.191476875 J -1.985676 
G02 X 96.9363975 Y 236.5388625 Z -0.5 I -2.11832925 J -2.74853025 
G03 X 97.934411625 Y 235.617457125 Z -0.5 I 1.828015875 J 0.97880475 
G03 X 99.618315 Y 235.367415 Z -0.5 I 1.303719375 J 2.984742375 
G02 X 101.427903 Y 235.27902975 Z -0.5 I 0.640695375 J -5.451304125 
G02 X 102.23401125 Y 234.7973025 Z -0.5 I -0.31404075 J -1.440829125 
G03 X 102.999537375 Y 234.18001875 Z -0.5 I 2.040284625 J 1.746938625 
G03 X 103.71271875 Y 234.0 Z -0.5 I 0.713181375 J 1.322697 
G02 X 104.98623975 Y 233.4548835 Z -0.5 I 0.0 J -1.760181375 
G02 X 106.08933375 Y 231.50904375 Z -0.5 I -3.320226 J -3.167822625 
G03 X 106.607230125 Y 230.75241525 Z -0.5 I 1.360930125 J 0.37596975 
G03 X 107.42570625 Y 230.51433375 Z -0.5 I 0.7285995 J 0.978858375 
G03 X 109.37017275 Y 231.317484 Z -0.5 I -0.247795875 J 3.35532675 
G03 X 109.7014725 Y 232.4691675 Z -0.5 I -0.711337125 J 0.82812075 
G02 X 108.75327 Y 236.800885875 Z -0.5 I 24.8225445 J 7.7032335 
G02 X 108.375 Y 242.608264875 Z -0.5 I 44.38968675 J 5.807379 
G03 X 108.030900375 Y 243.81711225 Z -0.5 I -2.295435 J 0.0 
G03 X 106.21875 Y 246.08890725 Z -0.5 I -10.431548625 J -6.462319125 
G03 X 102.6554325 Y 248.80599675 Z -0.5 I -12.393898875 J -12.5588415 
G03 X 100.5341775 Y 249.375 Z -0.5 I -2.121255 J -3.669536625 
G03 X 99.79310475 Y 248.929359 Z -0.5 I 0.0 J -0.838999125 
G03 X 100.0074825 Y 248.382726 Z -0.5 I 0.341671125 J -0.1813575 
G02 X 100.644183375 Y 248.06563575 Z -0.5 I -0.925924875 J -2.656986 
G02 X 102.81727125 Y 246.506295 Z -0.5 I -22.095010875 J -33.08534625 
G03 X 105.0251595 Y 245.03865375 Z -0.5 I 11.663618625 J 15.151927875 
G03 X 106.106325 Y 244.634985 Z -0.5 I 1.79173425 J 3.149185875 
G02 X 107.195253375 Y 244.301888625 Z -0.5 I -1.12454325 J -5.622717 
G02 X 107.476725 Y 244.0615335 Z -0.5 I -0.233851125 J -0.55884375 
G02 X 107.26460775 Y 243.757434375 Z -0.5 I -0.1718115 J -0.106185 
G02 X 104.8125 Y 244.6041075 Z -0.5 I 1.973125125 J 9.688698375 
G02 X 104.092098375 Y 245.027493375 Z -0.5 I 2.780454 J 5.555594625 
G02 X 101.90975625 Y 246.5841675 Z -0.5 I 36.0295245 J 52.8188115 
G03 X 99.685527 Y 248.032336125 Z -0.5 I -12.513297 J -16.7868885 
G03 X 98.6252325 Y 248.437449 Z -0.5 I -1.881760125 J -3.3349965 
G02 X 97.781849625 Y 248.8037925 Z -0.5 I 0.512694375 J 2.3342805 
G02 X 97.760542875 Y 249.012578625 Z -0.5 I 0.078183 J 0.113458875 
G02 X 98.10033975 Y 249.217806375 Z -0.5 I 0.550384125 J -0.527358375 
G02 X 99.69611625 Y 249.55508925 Z -0.5 I 3.148650375 J -10.95345225 
G02 X 101.487446625 Y 249.583224 Z -0.5 I 1.0113825 J -7.353627 
G02 X 102.934485 Y 249.21292725 Z -0.5 I -0.5421435 J -5.131081875 
G01 X 104.35257 Y 248.620412625 Z -0.5 
G01 X 104.11398375 Y 250.361107125 Z -0.5 
G02 X 104.390301 Y 253.45328325 Z -0.5 I 6.882754875 J 0.94338975 
G02 X 106.17728625 Y 256.704729375 Z -0.5 I 9.435582375 J -3.068983875 
G03 X 107.5309905 Y 258.490479 Z -0.5 I -20.587790625 J 17.012737125 
G03 X 107.625 Y 258.7908315 Z -0.5 I -0.432796125 J 0.3003525 
G02 X 107.74374375 Y 259.006256625 Z -0.5 I 0.254784375 J 0.0 
G02 X 108.15416625 Y 259.125 Z -0.5 I 0.4104225 J -0.64991775 
G02 X 109.1757285 Y 258.642395625 Z -0.5 I 0.0 J -1.322508 
G02 X 111.58959 Y 254.946541875 Z -0.5 I -15.594349125 J -12.821295 
G03 X 112.86257025 Y 253.399417875 Z -0.5 I 4.10441475 J 2.079861375 
G03 X 113.43915 Y 253.502667 Z -0.5 I 0.242019 J 0.31001925 
G02 X 114.380533125 Y 254.315355375 Z -0.5 I 1.761107625 J -1.088418 
G02 X 117.34533 Y 255.186945375 Z -0.5 I 5.06129625 J -11.73816825 
G01 X 119.00316375 Y 255.462576375 Z -0.5 
G01 X 117.72033 Y 253.637538375 Z -0.5 
G03 X 116.504049 Y 251.772659625 Z -0.5 I 26.21414925 J -18.426037125 
G03 X 115.53156375 Y 250.01226 Z -0.5 I 22.381654875 J -13.512953625 
G02 X 114.215728875 Y 248.152396125 Z -0.5 I -6.83147475 J 3.437797125 
G02 X 111.531795 Y 245.847916875 Z -0.5 I -13.297955625 J 12.7724175 
G01 X 110.5167525 Y 245.133334125 Z -0.5 
G01 X 110.77378875 Y 239.693421 Z -0.5 
G03 X 111.1139115 Y 234.2792475 Z -0.5 I 174.534807 J 8.24664225 
G03 X 111.22504125 Y 233.93925375 Z -0.5 I 0.757372875 J 0.059395125 
G03 X 112.152274875 Y 233.457121125 Z -0.5 I 0.8678565 J 0.53636475 
G03 X 114.6748725 Y 234.1403775 Z -0.5 I -0.37132275 J 6.36930375 
G02 X 115.728849 Y 234.515868 Z -0.5 I 1.979571 J -3.88955775 
G02 X 118.3125 Y 234.929805 Z -0.5 I 5.062032 J -23.325342 
G03 X 122.568033 Y 235.808395125 Z -0.5 I -2.269311375 J 21.736956375 
G03 X 123.0 Y 236.39613 Z -0.5 I -0.1838535 J 0.587734875 
G03 X 122.95059675 Y 236.497126125 Z -0.5 I -0.12793575 J 0.0 
G03 X 121.5 Y 237.5625 Z -0.5 I -20.122938 J -25.87884075 
G02 X 120.088863375 Y 238.9043055 Z -0.5 I 3.61057875 J 5.2100655 
G02 X 120.1066875 Y 239.6015685 Z -0.5 I 0.4383375 J 0.337654125 
G02 X 120.93161925 Y 240.1820505 Z -0.5 I 1.548556125 J -1.3242735 
G02 X 124.875 Y 241.509098625 Z -0.5 I 19.22332575 J -50.60046225 
G03 X 127.674063 Y 242.3747175 Z -0.5 I -30.084765375 J 102.24036075 
G03 X 128.625 Y 242.725519875 Z -0.5 I -3.93552225 J 12.132484875 
G03 X 128.949956625 Y 243.08379225 Z -0.5 I -0.217081125 J 0.52340025 
G03 X 128.8125 Y 243.340997625 Z -0.5 I -0.197043375 J 0.06002775 
G02 X 125.944252875 Y 244.7383065 Z -0.5 I 2.89916025 J 9.593559375 
G02 X 123.37951875 Y 247.163991 Z -0.5 I 7.060631625 J 10.034093625 
G02 X 121.99472625 Y 249.10895325 Z -0.5 I 18.676209375 J 14.7627225 
G02 X 121.875 Y 249.51870225 Z -0.5 I 0.64129575 J 0.409749 
G02 X 122.052465375 Y 249.838207125 Z -0.5 I 0.376348125 J 0.0 
G02 X 123.28125 Y 250.394052375 Z -0.5 I 2.708115375 J -4.350587625 
G03 X 128.982975 Y 252.546440625 Z -0.5 I -12.923553375 J 42.862975875 
G03 X 129.2504775 Y 253.125 Z -0.5 I -0.203736 J 0.44532 
G02 X 129.093997875 Y 253.688200875 Z -0.5 I 61.76328825 J 17.463663375 
G02 X 128.95196625 Y 254.218699125 Z -0.5 I 54.569064 J 14.89415175 
G02 X 129.089026125 Y 254.628061875 Z -0.5 I 0.38105025 J 0.1000455 
G02 X 131.25 Y 256.031395125 Z -0.5 I 8.69214675 J -11.019425625 
G03 X 133.676094375 Y 257.328398625 Z -0.5 I -92.519169375 J 175.97814675 
G03 X 133.78294125 Y 257.40813675 Z -0.5 I -0.222985125 J 0.410250375 
G03 X 133.813569 Y 257.518249875 Z -0.5 I -0.081939 J 0.082107375 
G03 X 133.462275 Y 258.6970245 Z -0.5 I -13.037240625 J -3.243577875 
G02 X 133.288971375 Y 259.960128 Z -0.5 I 3.04376475 J 1.061059125 
G02 X 133.700112 Y 260.567150625 Z -0.5 I 0.720493125 J -0.04524975 
G02 X 134.6433645 Y 260.802129375 Z -0.5 I 1.055097375 J -2.2246815 
G02 X 137.96146125 Y 260.830848375 Z -0.5 I 2.049230625 J -45.066014625 
G02 X 142.476007875 Y 260.02024875 Z -0.5 I -0.432997875 J -15.388469625 
G02 X 145.31071875 Y 258.336603375 Z -0.5 I -2.556350625 J -7.5322515 
G01 X 146.8882275 Y 256.88250975 Z -0.5 
G01 X 147.12986625 Y 260.286735375 Z -0.5 
G02 X 147.462396 Y 263.66162325 Z -0.5 I 61.846479375 J -4.38994275 
G02 X 147.60784875 Y 264.073377375 Z -0.5 I 1.020018375 J -0.1287555 
G02 X 148.446811125 Y 264.450715875 Z -0.5 I 0.698505 J -0.431703375 
G02 X 152.6713575 Y 263.19430275 Z -0.5 I -3.22418625 J -18.571445625 
G02 X 155.883840375 Y 261.07598925 Z -0.5 I -4.325385375 J -10.05463875 
G02 X 157.9435425 Y 258.18682125 Z -0.5 I -6.4089795 J -6.74776275 
G03 X 158.4772365 Y 257.410861875 Z -0.5 I 2.461767 J 1.121656125 
G03 X 158.692032 Y 257.44928925 Z -0.5 I 0.094241625 J 0.092752875 
G03 X 158.813876625 Y 257.9460675 Z -0.5 I -1.28226675 J 0.577831875 
G03 X 158.8627725 Y 260.226682875 Z -0.5 I -31.440006 J 1.814899125 
G02 X 159.1251 Y 263.097945375 Z -0.5 I 13.63691625 J 0.2017035 
G02 X 159.66740625 Y 264.257932875 Z -0.5 I 2.638041375 J -0.526551375 
G03 X 160.43728275 Y 265.3582335 Z -0.5 I -7.800498375 J 6.277471125 
G03 X 160.9092375 Y 266.313684375 Z -0.5 I -5.396878125 J 3.260132625 
G02 X 161.72280075 Y 267.40160325 Z -0.5 I 2.38841475 J -0.937938 
G02 X 162.50606325 Y 267.553081875 Z -0.5 I 0.54082425 J -0.695705625 
G02 X 163.35338775 Y 267.057291 Z -0.5 I -0.54438825 J -1.9023285 
G02 X 164.9203875 Y 265.165815375 Z -0.5 I -8.753257875 J -8.846498625 
G02 X 166.88653575 Y 261.299120625 Z -0.5 I -14.70785325 J -9.911915625 
G02 X 167.85209625 Y 257.079543 Z -0.5 I -16.60320375 J -6.019552875 
G03 X 168.15139875 Y 254.6779785 Z -0.5 I 54.990502875 J 5.633934375 
G03 X 168.21273 Y 254.625 Z -0.5 I 0.06133125 J 0.009010875 
G03 X 168.30546975 Y 254.66336775 Z -0.5 I 0.0 J 0.13126575 
G03 X 170.4971475 Y 256.905527625 Z -0.5 I -90.512356875 J 90.66672 
G02 X 174.114034875 Y 260.09488875 Z -0.5 I 20.2294485 J -19.295616 
G02 X 177.616599375 Y 262.271084625 Z -0.5 I 15.260991375 J -20.655637875 
G02 X 181.356935625 Y 263.607015375 Z -0.5 I 6.88074 J -13.360623375 
G02 X 182.8140225 Y 263.248737 Z -0.5 I 0.359226375 J -1.68111825 
G02 X 182.975167125 Y 262.7344725 Z -0.5 I -0.316720875 J -0.381624 
G02 X 182.3819175 Y 261.69198525 Z -0.5 I -2.367193125 J 0.65705775 
G03 X 181.714125 Y 260.8222755 Z -0.5 I 3.633730875 J -3.4813335 
G03 X 181.778775375 Y 260.676426 Z -0.5 I 0.08306625 J -0.050432625 
G03 X 182.093358 Y 260.703843 Z -0.5 I 0.10918275 J 0.565707 
G03 X 183.76502625 Y 261.42504225 Z -0.5 I -7.589248875 J 19.889105625 
G02 X 185.565204 Y 262.0635315 Z -0.5 I 3.81097275 J -7.8877965 
G02 X 187.7231025 Y 262.419628125 Z -0.5 I 3.6910785 J -15.65111925 
G02 X 189.86108025 Y 262.40633025 Z -0.5 I 1.00384275 J -10.480652625 
G02 X 190.32010875 Y 262.052892 Z -0.5 I -0.0598695 J -0.552556875 
G02 X 190.288915875 Y 260.84170425 Z -0.5 I -1.479870375 J -0.56788275 
G02 X 188.63323875 Y 258.254177625 Z -0.5 I -9.312688125 J 4.135425 
G01 X 187.46623875 Y 256.925037 Z -0.5 
G01 X 188.70187125 Y 256.8062685 Z -0.5 
G02 X 189.566686875 Y 256.3656135 Z -0.5 I -0.126637125 J -1.317491625 
G02 X 189.8824875 Y 255.47132775 Z -0.5 I -0.9466155 J -0.83718225 
G03 X 190.1806665 Y 254.6933325 Z -0.5 I 1.04116575 J -0.0470955 
G03 X 190.8199875 Y 254.51831625 Z -0.5 I 0.470256 J 0.462605625 
G02 X 194.836598625 Y 254.894607375 Z -0.5 I 3.13286625 J -11.8156575 
G02 X 197.64837 Y 254.023354125 Z -0.5 I -0.4705305 J -6.491332875 
G02 X 198.80881125 Y 253.196592 Z -0.5 I -3.9780765 J -6.811395 
G02 X 198.9375 Y 252.916480875 Z -0.5 I -0.2405085 J -0.280111125 
G02 X 198.786253125 Y 252.683892375 Z -0.5 I -0.254461875 J 0.0 
G02 X 197.34375 Y 252.209227125 Z -0.5 I -3.092335875 J 6.96837375 
G03 X 195.84533325 Y 251.7794385 Z -0.5 I 2.75805075 J -12.4426185 
G03 X 195.75 Y 251.64451875 Z -0.5 I 0.04780575 J -0.13491975 
G03 X 195.8355975 Y 251.488803 Z -0.5 I 0.18443475 J 0.0 
G03 X 196.85073 Y 250.945853625 Z -0.5 I 4.148482875 J 6.535813125 
G02 X 199.308105375 Y 249.19203225 Z -0.5 I -3.028551375 J -6.841961625 
G02 X 199.63739625 Y 247.941326625 Z -0.5 I -1.0067685 J -0.93376725 
G02 X 199.297312875 Y 246.989828625 Z -0.5 I -4.46353725 J 1.05882825 
G02 X 198.826935 Y 246.278950875 Z -0.5 I -2.934574875 J 1.430706375 
G03 X 198.3819645 Y 245.629098375 Z -0.5 I 2.58870825 J -2.249821125 
G03 X 198.4085475 Y 245.485657125 Z -0.5 I 0.104084625 J -0.054894375 
G03 X 198.57139275 Y 245.3629035 Z -0.5 I 0.920420625 J 1.051638 
G03 X 200.15625 Y 244.358251875 Z -0.5 I 64.138484625 J 99.427317375 
G02 X 201.616432875 Y 243.29142675 Z -0.5 I -6.4721205 J -10.39120875 
G02 X 201.75 Y 243.002440125 Z -0.5 I -0.2458425 J -0.288986625 
G02 X 201.57330675 Y 242.758628625 Z -0.5 I -0.25655925 J 0.0 
G02 X 198.84375 Y 242.05043175 Z -0.5 I -7.004911125 J 21.384296625 
G03 X 197.709874875 Y 241.6953015 Z -0.5 I 1.0066545 J -5.201797125 
G03 X 194.37187875 Y 240.13483425 Z -0.5 I 34.765116375 J -78.716473125 
G03 X 191.032671375 Y 238.383193125 Z -0.5 I 34.222363875 J -69.297775125 
G03 X 190.875 Y 238.11510375 Z -0.5 I 0.14908125 J -0.268089375 
G03 X 191.004058875 Y 237.926566125 Z -0.5 I 0.202243875 J 0.0 
G03 X 192.83286 Y 237.35512125 Z -0.5 I 5.14655175 J 13.2584805 
G02 X 197.535075 Y 235.7371995 Z -0.5 I -6.054825 J -25.239380625 
G02 X 199.93229625 Y 234.12208875 Z -0.5 I -3.634576125 J -7.981191375 
G01 X 200.9270925 Y 233.17953 Z -0.5 
G01 X 201.18286875 Y 233.98540875 Z -0.5 
G02 X 201.620549625 Y 234.596843625 Z -0.5 I 1.160456625 J -0.36831525 
G02 X 201.9049125 Y 234.582223875 Z -0.5 I 0.13326975 J -0.180652125 
G02 X 202.149579 Y 234.19085925 Z -0.5 I -0.57453 J -0.631334625 
G02 X 202.34309625 Y 232.92957375 Z -0.5 I -4.6270035 J -1.355403375 
G03 X 202.608510375 Y 231.48430425 Z -0.5 I 4.552075875 J 0.088953 
G03 X 203.09309625 Y 230.83411125 Z -0.5 I 1.305344625 J 0.46719075 
G02 X 203.427470625 Y 230.225104125 Z -0.5 I -0.48783075 J -0.66414 
G02 X 203.1995475 Y 229.24659375 Z -0.5 I -1.719429375 J -0.115295625 
G03 X 202.67724375 Y 228.152586 Z -0.5 I 6.62905725 J -3.83654325 
G03 X 202.32600375 Y 226.96875 Z -0.5 I 7.419471 J -2.84535525 
G03 X 202.4160885 Y 226.03362375 Z -0.5 I 1.5215025 J -0.325329375 
G03 X 202.8452025 Y 225.75 Z -0.5 I 0.429114 J 0.1828065 
G02 X 203.4674565 Y 225.170245875 Z -0.5 I 0.0 J -0.62381175 
G02 X 203.0348475 Y 223.07152875 Z -0.5 I -3.950210625 J -0.27968775 
G03 X 202.543692 Y 221.94567525 Z -0.5 I 8.286137625 J -4.284900375 
G03 X 202.5766275 Y 221.79837375 Z -0.5 I 0.13253175 J -0.047699625 
G03 X 202.7313795 Y 221.745290625 Z -0.5 I 0.1316295 J 0.13162275 
G03 X 204.1875 Y 222.0 Z -0.5 I -1.888521375 J 15.085810875 
G02 X 205.64258625 Y 222.251145 Z -0.5 I 3.19183425 J -14.152061625 
G02 X 205.80496125 Y 222.1950375 Z -0.5 I 0.023509875 J -0.194972625 
G02 X 205.907004 Y 221.336068875 Z -0.5 I -0.49425675 J -0.494261625 
G02 X 204.44217375 Y 219.96686625 Z -0.5 I -3.204035625 J 1.959641625 
G03 X 203.504284875 Y 219.353498625 Z -0.5 I 2.659718625 J -5.0906625 
G03 X 202.3125 Y 218.255625 Z -0.5 I 7.521669 J -9.36086925 
G03 X 201.691573875 Y 217.11436725 Z -0.5 I 1.82953425 J -1.73494125 
G03 X 201.89854125 Y 216.54699 Z -0.5 I 0.5295045 J -0.12828525 
G02 X 202.088761875 Y 215.971767375 Z -0.5 I -0.30956625 J -0.421434 
G02 X 201.28755 Y 214.56136125 Z -0.5 I -3.5825835 J 1.10238825 
G03 X 200.118583875 Y 213.0090135 Z -0.5 I 8.0867025 J -7.30584675 
G03 X 199.4987475 Y 211.68370125 Z -0.5 I 5.24661525 J -3.26139525 
G03 X 199.375918125 Y 210.398365875 Z -0.5 I 2.765987625 J -0.912859875 
G03 X 199.73473875 Y 209.853435 Z -0.5 I 0.737634375 J 0.09510825 
G03 X 200.467062375 Y 209.517853875 Z -0.5 I 1.962505875 J 3.3158385 
G03 X 201.5258475 Y 209.25 Z -0.5 I 2.26123725 J 6.711792 
G01 X 202.614195 Y 209.0625 Z -0.5 
G01 X 201.53101875 Y 207.778095 Z -0.5 
G03 X 200.657467125 Y 206.4113955 Z -0.5 I 4.714409625 J -3.97582725 
G03 X 200.3928975 Y 205.340595 Z -0.5 I 2.584047375 J -1.206541875 
G02 X 200.32281075 Y 204.1884915 Z -0.5 I -43.88453775 J 2.091469875 
G02 X 200.05263375 Y 200.7444375 Z -0.5 I -392.203736625 J 29.034749625 
G03 X 200.109216 Y 196.09088025 Z -0.5 I 24.488967 J -2.029362 
G03 X 201.08114625 Y 191.16853125 Z -0.5 I 28.398015375 J 3.05012925 
G03 X 201.549047625 Y 190.1296425 Z -0.5 I 3.912459375 J 1.137306 
G03 X 201.77238825 Y 190.0079385 Z -0.5 I 0.220869375 J 0.139540125 
G03 X 201.956262375 Y 190.141884375 Z -0.5 I -0.00185175 J 0.195721125 
G03 X 202.12314375 Y 191.17839375 Z -0.5 I -3.098177625 J 1.030506 
G02 X 203.03756925 Y 196.026972 Z -0.5 I 13.18297275 J 0.0242535 
G02 X 206.59675125 Y 202.5550875 Z -0.5 I 27.860730375 J -10.955592375 
G01 X 207.9823425 Y 204.48099 Z -0.5 
G01 X 206.53824375 Y 205.8342525 Z -0.5 
G02 X 204.5335305 Y 208.800085125 Z -0.5 I 5.522739 J 5.893464 
G02 X 204.41978625 Y 211.2811725 Z -0.5 I 3.62347275 J 1.40926725 
G03 X 204.721261125 Y 213.961870125 Z -0.5 I -7.785571125 J 2.232877125 
G03 X 204.1462125 Y 216.22155 Z -0.5 I -6.04201575 J -0.334576875 
G02 X 204.002968875 Y 217.994376375 Z -0.5 I 2.2659885 J 1.075291125 
G02 X 204.84207375 Y 218.625 Z -0.5 I 0.839104875 J -0.242942625 
G03 X 205.6423185 Y 218.820801375 Z -0.5 I 0.0 J 1.73321025 
G03 X 207.65926875 Y 220.0913925 Z -0.5 I -6.699862125 J 12.8715945 
G02 X 209.641381875 Y 221.500313625 Z -0.5 I 27.62978475 J -36.771710625 
G02 X 210.0866775 Y 221.7219975 Z -0.5 I 1.073139375 J -1.597538625 
G03 X 210.17357925 Y 221.97344475 Z -0.5 I -0.055150125 J 0.159800625 
G03 X 208.98961875 Y 223.422435 Z -0.5 I -7.027194 J -4.53367575 
G02 X 207.57932475 Y 225.61883925 Z -0.5 I 4.062597375 J 4.159533 
G02 X 206.83483875 Y 229.42961625 Z -0.5 I 12.1106025 J 4.344079125 
G03 X 206.629128375 Y 231.1570665 Z -0.5 I -11.288689875 J -0.468320625 
G03 X 206.2548975 Y 232.35682875 Z -0.5 I -5.78424675 J -1.145980875 
G02 X 206.16756075 Y 233.51589675 Z -0.5 I 1.626891375 J 0.70541175 
G02 X 207.51063 Y 237.10186125 Z -0.5 I 18.604370625 J -4.923492 
G02 X 210.12688275 Y 241.002374625 Z -0.5 I 15.906637125 J -7.841632875 
G02 X 211.269825 Y 241.356719625 Z -0.5 I 0.8627055 J -0.76220625 
G02 X 211.95052575 Y 240.90887025 Z -0.5 I -0.300781125 J -1.198400625 
G02 X 212.50165125 Y 239.74587975 Z -0.5 I -2.44848 J -1.872382875 
G03 X 213.07761225 Y 238.60363875 Z -0.5 I 2.675421375 J 0.63271725 
G03 X 213.9177675 Y 238.070865 Z -0.5 I 1.269738375 J 1.073482125 
G02 X 214.907125125 Y 237.605710875 Z -0.5 I -0.796879875 J -2.979652125 
G02 X 216.76306125 Y 236.0496375 Z -0.5 I -8.76658275 J -12.3407745 
G03 X 218.643567 Y 234.6690405 Z -0.5 I 5.682934125 J 5.7696885 
G03 X 219.7879275 Y 234.44105625 Z -0.5 I 0.95126325 J 1.788805125 
G03 X 220.90657275 Y 234.821988 Z -0.5 I -0.2441355 J 2.54990325 
G03 X 221.18064525 Y 235.308902625 Z -0.5 I -0.31164675 J 0.49601025 
G03 X 220.990340625 Y 235.9517865 Z -0.5 I -1.122174375 J 0.0174255 
G03 X 219.832455 Y 237.30860625 Z -0.5 I -6.435215625 J -4.31922825 
G02 X 218.15235525 Y 239.5821195 Z -0.5 I 5.221984875 J 5.6165295 
G02 X 218.09689125 Y 240.891897 Z -0.5 I 1.484296875 J 0.718917375 
G02 X 218.5064805 Y 241.228167375 Z -0.5 I 0.500515875 J -0.19206375 
G02 X 220.2616425 Y 241.264452375 Z -0.5 I 0.997816875 J -5.797871625 
G02 X 222.190262625 Y 240.463144875 Z -0.5 I -0.513836625 J -3.9583185 
G02 X 222.74425875 Y 239.34375 Z -0.5 I -0.873549375 J -1.129111125 
G03 X 222.787395 Y 238.708617375 Z -0.5 I 5.218699125 J 0.035406375 
G03 X 222.92748975 Y 238.5618 Z -0.5 I 0.17007 J 0.022033875 
G03 X 223.19076 Y 238.58679975 Z -0.5 I 0.086534625 J 0.4874535 
G03 X 224.3644125 Y 239.056129125 Z -0.5 I -14.680951875 J 38.4148065 
G03 X 225.529671 Y 239.763955875 Z -0.5 I -1.757568375 J 4.20645975 
G03 X 225.93547875 Y 240.368629125 Z -0.5 I -0.833851875 J 0.99812325 
G02 X 226.3624845 Y 240.869531625 Z -0.5 I 0.808195125 J -0.256507125 
G02 X 227.43835875 Y 241.125 Z -0.5 I 1.07587425 J -2.137725 
G03 X 228.681695625 Y 241.23105675 Z -0.5 I 0.0 J 7.341043125 
G03 X 229.74277875 Y 241.521016875 Z -0.5 I -0.966129375 J 5.62191375 
G02 X 230.776510875 Y 241.656087 Z -0.5 I 0.800951625 J -2.106659625 
G02 X 232.23693375 Y 241.26202425 Z -0.5 I -0.49006875 J -4.719472875 
G03 X 234.084679875 Y 241.162144125 Z -0.5 I 1.05277125 J 2.3346315 
G03 X 235.3759275 Y 242.287043625 Z -0.5 I -0.680882625 J 2.08511775 
G03 X 235.8132 Y 243.188061 Z -0.5 I -350.77643325 J 170.79191175 
G03 X 236.6884275 Y 245.00036175 Z -0.5 I -1418.01993225 J 685.93201875 
G02 X 238.196440125 Y 247.249076625 Z -0.5 I 8.6490315 J -4.170132375 
G02 X 243.99707325 Y 253.34461575 Z -0.5 I 110.101119 J -98.966589375 
G02 X 250.186807875 Y 259.136398125 Z -0.5 I 101.02050975 J -101.7582015 
G02 X 251.9889375 Y 260.18995125 Z -0.5 I 3.587907375 J -4.06913625 
G02 X 253.014854625 Y 260.38427925 Z -0.5 I 1.163654625 J -3.338062125 
G02 X 253.252784625 Y 260.26613625 Z -0.5 I 0.010797375 J -0.27691125 
G02 X 253.264209375 Y 260.016994125 Z -0.5 I -0.19112325 J -0.1335975 
G02 X 252.64345875 Y 259.253602125 Z -0.5 I -2.61268125 J 1.490419875 
G03 X 251.804701875 Y 258.39266025 Z -0.5 I 5.336230125 J -6.037767375 
G03 X 247.34833125 Y 252.9375 Z -0.5 I 212.0695155 J -177.78934275 
G03 X 243.925340625 Y 247.6448775 Z -0.5 I 25.162772625 J -20.02717725 
G03 X 241.9690725 Y 242.50146975 Z -0.5 I 21.78831 J -11.230801875 
G03 X 241.691506125 Y 240.076228125 Z -0.5 I 8.656222125 J -2.21919975 
G03 X 242.04042375 Y 239.40771975 Z -0.5 I 0.85254525 J 0.019662375 
G03 X 242.990724 Y 239.290566 Z -0.5 I 0.580090125 J 0.79265175 
G03 X 244.21287 Y 240.29171325 Z -0.5 I -1.00788 J 2.476903875 
G02 X 247.388998125 Y 243.724788 Z -0.5 I 12.0953235 J -8.004312375 
G02 X 253.26250875 Y 247.348878 Z -0.5 I 19.422406875 J -24.906012375 
G02 X 256.2414165 Y 248.468325375 Z -0.5 I 8.145054375 J -17.151178125 
G02 X 259.80136875 Y 249.197786625 Z -0.5 I 6.736510125 J -23.82438225 
G02 X 263.5532925 Y 249.561818625 Z -0.5 I 7.573814625 J -58.54333725 
G02 X 263.717919 Y 249.39813 Z -0.5 I 0.01002675 J -0.154545 
G02 X 263.544585 Y 249.143928 Z -0.5 I -0.299001 J 0.01768425 
G02 X 259.700145 Y 247.486307625 Z -0.5 I -33.954396375 J 73.461886875 
G03 X 254.002413375 Y 244.02332175 Z -0.5 I 7.555842375 J -18.850602 
G03 X 246.28125 Y 235.92841875 Z -0.5 I 37.308446625 J -43.315717125 
G03 X 244.78283025 Y 233.30150775 Z -0.5 I 8.220709125 J -6.42999825 
G03 X 244.96981125 Y 232.57692375 Z -0.5 I 0.5950815 J -0.232855125 
G03 X 245.447258625 Y 232.435756875 Z -0.5 I 0.40325775 J 0.485895375 
G03 X 246.166485 Y 232.718505 Z -0.5 I -0.1787475 J 1.51080225 
G02 X 246.946993875 Y 233.085758625 Z -0.5 I 1.3370025 J -1.828458375 
G02 X 248.2635525 Y 233.25 Z -0.5 I 1.316558625 J -5.1946395 
G03 X 249.533840625 Y 233.47518375 Z -0.5 I 0.0 J 3.695512125 
G03 X 250.3125 Y 234.0 Z -0.5 I -0.672985875 J 1.83854475 
G02 X 251.016009375 Y 234.627755625 Z -0.5 I 3.282913125 J -2.97099525 
G02 X 251.32268325 Y 234.67166325 Z -0.5 I 0.19554075 J -0.272815875 
G02 X 251.574410625 Y 234.451513875 Z -0.5 I -0.148837875 J -0.424179 
G02 X 252.011055 Y 233.40400125 Z -0.5 I -6.645052875 J -3.38468025 
G03 X 252.6604545 Y 232.259789625 Z -0.5 I 3.184528875 J 1.050995625 
G03 X 253.48845 Y 231.69783375 Z -0.5 I 1.466611125 J 1.269961125 
G02 X 254.378466 Y 231.180678375 Z -0.5 I -0.892642875 J -2.56065375 
G02 X 254.93082375 Y 230.43957375 Z -0.5 I -1.437376125 J -1.647693375 
G03 X 255.519099375 Y 229.87624275 Z -0.5 I 1.000300875 J 0.45576675 
G03 X 256.63313625 Y 229.75132125 Z -0.5 I 0.78049275 J 1.93046025 
G02 X 257.77851975 Y 229.62580575 Z -0.5 I 0.3459525 J -2.131852125 
G02 X 258.56920875 Y 228.97988625 Z -0.5 I -0.627666375 J -1.57525725 
G02 X 258.985060875 Y 227.95919775 Z -0.5 I -2.40127875 J -1.573394625 
G02 X 258.9639225 Y 226.96805625 Z -0.5 I -2.279291625 J -0.44718525 
G03 X 258.72591675 Y 225.935199375 Z -0.5 I 52.0163535 J -12.530205 
G03 X 258.3246225 Y 224.0625 Z -0.5 I 170.616894375 J -37.540252875 
G02 X 257.8310025 Y 222.23684025 Z -0.5 I -15.84567225 J 3.304773375 
G02 X 257.53834875 Y 221.70968625 Z -0.5 I -1.560426375 J 0.521472 
G03 X 257.665584375 Y 221.32147875 Z -0.5 I 0.186122625 J -0.1539525 
G03 X 259.07620125 Y 221.3231025 Z -0.5 I 0.7020945 J 2.7929685 
G02 X 260.6975925 Y 221.510976375 Z -0.5 I 1.51166025 J -5.955530625 
G02 X 263.25849375 Y 221.24839875 Z -0.5 I -0.272952375 J -15.28151325 
G03 X 265.81805925 Y 220.991655 Z -0.5 I 2.759789625 J 14.626311 
G03 X 267.44439375 Y 221.192085 Z -0.5 I 0.081246 J 6.039185625 
G02 X 269.069302125 Y 221.52144825 Z -0.5 I 3.614194125 J -13.657651125 
G02 X 269.8125 Y 221.52889125 Z -0.5 I 0.39978675 J -2.810971125 
G03 X 270.2799915 Y 221.786989875 Z -0.5 I 0.055145625 J 0.4525455 
G03 X 270.75 Y 223.516965 Z -0.5 I -4.647017625 J 2.1913605 
G02 X 272.46831225 Y 228.2309775 Z -0.5 I 9.732948375 J -0.87759375 
G02 X 274.52601 Y 228.92924625 Z -0.5 I 1.50321525 J -1.048754625 
G03 X 275.153868 Y 228.942436125 Z -0.5 I 0.29457 J 0.92811075 
G03 X 277.562955 Y 230.0355525 Z -0.5 I -5.914324875 J 16.235624625 
G02 X 282.84473775 Y 231.79788525 Z -0.5 I 7.46841675 J -13.5871215 
G02 X 285.1067475 Y 231.11021625 Z -0.5 I 0.39423075 J -2.767369875 
G03 X 286.003510875 Y 230.472057 Z -0.5 I 3.25309575 J 3.622201125 
G03 X 287.625 Y 229.71741 Z -0.5 I 6.221934375 J 11.249551875 
G02 X 289.179907875 Y 228.87009975 Z -0.5 I -2.3897895 J -6.235896375 
G02 X 291.2621025 Y 227.05488375 Z -0.5 I -9.59938125 J -13.113069375 
G03 X 293.302082625 Y 225.160528875 Z -0.5 I 18.643191375 J 18.030777375 
G03 X 294.4492275 Y 224.399115 Z -0.5 I 4.061219625 J 4.873776375 
G01 X 295.68674625 Y 223.75917 Z -0.5 
G01 X 293.999625 Y 223.0415775 Z -0.5 
G02 X 292.25538975 Y 222.618216375 Z -0.5 I -2.150973 J 5.0571645 
G02 X 285.9375 Y 222.44324625 Z -0.5 I -5.0433705 J 67.9561305 
G01 X 279.5625 Y 222.5625 Z -0.5 
G01 X 275.6593425 Y 220.59375 Z -0.5 
G02 X 271.729983 Y 218.735119875 Z -0.5 I -38.63539125 J 76.5968205 
G02 X 271.20884625 Y 218.625 Z -0.5 I -0.52113675 J 1.17806625 
G03 X 270.714576375 Y 218.484130875 Z -0.5 I 0.0 J -0.937560375 
G03 X 269.34334125 Y 217.46763 Z -0.5 I 5.45169225 J -8.78733375 
G02 X 267.936046875 Y 216.635386125 Z -0.5 I -2.909219625 J 3.313421625 
G02 X 266.78889375 Y 216.54218625 Z -0.5 I -0.744267375 J 2.054352375 
G03 X 265.7284815 Y 216.347931375 Z -0.5 I -0.2772615 J -1.47791925 
G03 X 264.383295 Y 215.07455625 Z -0.5 I 2.311982625 J -3.789577125 
G03 X 263.302386 Y 213.39959925 Z -0.5 I 27.792094875 J -19.12147575 
G03 X 263.325735 Y 213.32435625 Z -0.5 I 0.045097125 J -0.02724975 
G03 X 263.4426885 Y 213.29632725 Z -0.5 I 0.131211375 J 0.289477125 
G03 X 265.76800125 Y 213.21466875 Z -0.5 I 5.3405925 J 118.930329 
G02 X 267.981706125 Y 212.87129625 Z -0.5 I -0.221260875 J -8.733969 
G02 X 269.04925125 Y 212.26244625 Z -0.5 I -0.73283925 J -2.5252755 
G02 X 269.884756875 Y 210.767056875 Z -0.5 I -1.939965 J -2.06500125 
G02 X 269.57086125 Y 209.72086125 Z -0.5 I -1.128490125 J -0.231601125 
G03 X 269.37876075 Y 209.24457675 Z -0.5 I 0.4640475 J -0.4640475 
G03 X 269.59947375 Y 208.18660125 Z -0.5 I 2.905801875 J 0.0541935 
G02 X 269.594532375 Y 206.507454 Z -0.5 I -2.012635125 J -0.833658375 
G02 X 268.3308 Y 205.17402375 Z -0.5 I -2.40322725 J 1.012057875 
G03 X 267.7947645 Y 204.8994465 Z -0.5 I 6.223172625 J -12.809523 
G03 X 267.760304625 Y 204.84453075 Z -0.5 I 0.031189875 J -0.057841875 
G03 X 267.795009 Y 204.8041185 Z -0.5 I 0.038864625 J -0.0017325 
G03 X 268.3125 Y 204.763455 Z -0.5 I 0.966536625 J 8.987136 
G02 X 270.32084025 Y 203.68224975 Z -0.5 I -0.13185675 J -2.650774125 
G02 X 270.86106 Y 201.288345 Z -0.5 I -2.477602875 J -1.817014125 
G02 X 270.41918925 Y 200.344163625 Z -0.5 I -2.078840625 J 0.3973965 
G02 X 269.063853 Y 198.974842125 Z -0.5 I -7.961877 J 6.525154125 
G02 X 267.476828625 Y 197.883055875 Z -0.5 I -6.569922 J 7.850718 
G02 X 266.48355 Y 197.625 Z -0.5 I -0.993278625 J 1.78257675 
G03 X 263.52510375 Y 197.025405 Z -0.5 I 0.0 J -7.59839325 
G03 X 262.884225 Y 196.1035425 Z -0.5 I 0.40927875 J -0.96823125 
G03 X 262.938683625 Y 195.915960375 Z -0.5 I 0.304143375 J -0.013397625 
G03 X 263.85664875 Y 194.7096525 Z -0.5 I 15.033908625 J 10.48793775 
G01 X 264.8382975 Y 193.52472 Z -0.5 
G01 X 266.38789875 Y 194.5678125 Z -0.5 
G02 X 267.955864125 Y 195.5814075 Z -0.5 I 28.028226375 J -41.638277625 
G02 X 269.70604125 Y 196.626315 Z -0.5 I 31.5401445 J -50.84024775 
G03 X 271.354896375 Y 197.778136125 Z -0.5 I -5.661224625 J 9.860253 
G03 X 272.4693 Y 198.9458625 Z -0.5 I -4.70815875 J 5.60878725 
G02 X 273.555392625 Y 200.065528125 Z -0.5 I 5.242341375 J -3.99855525 
G02 X 274.07575875 Y 200.2503825 Z -0.5 I 0.52088175 J -0.641440875 
G03 X 274.56034875 Y 200.467851375 Z -0.5 I -0.000405 J 0.649548 
G03 X 275.73046125 Y 202.107735 Z -0.5 I -6.97676025 J 6.215553375 
G02 X 278.26835475 Y 205.26457275 Z -0.5 I 10.7251155 J -6.023729625 
G02 X 280.61350125 Y 206.46243 Z -0.5 I 3.460522125 J -3.880382625 
G03 X 281.681664 Y 206.796336375 Z -0.5 I -1.38516825 J 6.306611625 
G03 X 282.89477625 Y 207.39948 Z -0.5 I -3.595230375 J 8.75269125 
G02 X 285.0737325 Y 208.08273825 Z -0.5 I 2.55391275 J -4.328551125 
G02 X 289.59370725 Y 208.05802425 Z -0.5 I 2.10612975 J -28.15132875 
G02 X 294.05168775 Y 207.311301375 Z -0.5 I -2.4076425 J -28.05434325 
G02 X 296.0625 Y 206.2694175 Z -0.5 I -1.2021465 J -4.781468625 
G03 X 296.871396 Y 205.725248625 Z -0.5 I 2.707292625 J 3.151045875 
G03 X 298.59375 Y 204.96900375 Z -0.5 I 7.067501625 J 13.7568375 
G02 X 300.2113215 Y 204.1988265 Z -0.5 I -3.388752375 J -9.20100525 
G02 X 300.375 Y 203.91127125 Z -0.5 I -0.170753625 J -0.28755525 
G02 X 300.28908675 Y 203.531968875 Z -0.5 I -0.880257 J 0.0 
G02 X 299.0625 Y 201.1626075 Z -0.5 I -37.3839585 J 17.851002375 
G03 X 297.868639875 Y 198.78471375 Z -0.5 I 26.041482 J -14.563191 
G03 X 297.75 Y 198.22903875 Z -0.5 I 1.241988 J -0.555675 
G02 X 297.5556825 Y 197.738306625 Z -0.5 I -0.716809875 J 0.0 
G02 X 295.78125 Y 196.1328675 Z -0.5 I -10.739754 J 10.086927 
G03 X 293.83798275 Y 194.593104375 Z -0.5 I 47.38385325 J -61.797209625 
G03 X 292.875 Y 193.75379625 Z -0.5 I 13.094761125 J -15.996410625 
G02 X 290.950089375 Y 192.5700045 Z -0.5 I -3.937002375 J 4.244881875 
G02 X 286.89232875 Y 191.5363725 Z -0.5 I -6.908542875 J 18.639423 
G02 X 280.381306125 Y 191.106371625 Z -0.5 I -6.00773025 J 41.458764375 
G02 X 271.7520525 Y 191.71828125 Z -0.5 I 0.884622375 J 73.626639 
G03 X 266.9586555 Y 191.332906125 Z -0.5 I -1.491759 J -11.448565125 
G03 X 265.21299375 Y 189.7668 Z -0.5 I 0.785251875 J -2.631236625 
G03 X 264.69034275 Y 187.728459375 Z -0.5 I 6.6053265 J -2.77984875 
G03 X 264.542421375 Y 184.575523125 Z -0.5 I 27.663610125 J -2.87778675 
G03 X 264.838779375 Y 182.279373 Z -0.5 I 9.794098875 J 0.096896625 
G03 X 265.2877575 Y 182.209965 Z -0.5 I 0.23916975 J 0.060261 
G02 X 266.181034125 Y 182.610246 Z -0.5 I 0.741740625 J -0.45841725 
G02 X 267.30061875 Y 181.85475 Z -0.5 I -0.28850625 J -1.634859 
G03 X 267.87341925 Y 181.3255665 Z -0.5 I 1.25480925 J 0.78363675 
G03 X 268.42207125 Y 181.27215375 Z -0.5 I 0.340789125 J 0.65599575 
G02 X 269.053243875 Y 181.309297875 Z -0.5 I 0.396268875 J -1.3524285 
G02 X 270.1875 Y 180.9736875 Z -0.5 I -0.82203 J -4.862716875 
G03 X 271.26238875 Y 180.877170375 Z -0.5 I 0.683893875 J 1.582717875 
G03 X 272.674515 Y 181.55276625 Z -0.5 I -0.82265325 J 3.533111625 
G02 X 274.104408375 Y 182.50793175 Z -0.5 I 7.089246375 J -9.064816875 
G02 X 277.2598575 Y 184.14259125 Z -0.5 I 24.169728 J -42.79292025 
G02 X 283.123738125 Y 185.864400375 Z -0.5 I 8.398108125 J -17.754954375 
G02 X 287.669835 Y 185.4970875 Z -0.5 I 1.411433625 J -10.84754925 
G03 X 289.693053375 Y 184.913835375 Z -0.5 I 30.2852115 J 101.254318125 
G03 X 291.28125 Y 184.4948475 Z -0.5 I 17.197137 J 61.967131875 
G02 X 292.764678375 Y 183.918429375 Z -0.5 I -1.54363125 J -6.169611375 
G02 X 292.767304125 Y 183.728109 Z -0.5 I -0.0518985 J -0.09589425 
G02 X 292.30593525 Y 183.593896875 Z -0.5 I -0.504228375 J 0.87323325 
G02 X 289.78125 Y 183.62870625 Z -0.5 I -0.953548125 J 22.414042125 
G03 X 285.2776455 Y 183.189428625 Z -0.5 I -0.951412875 J -13.5516165 
G03 X 280.98786 Y 181.2465375 Z -0.5 I 3.847407375 J -14.202079875 
G03 X 276.81239625 Y 177.7249935 Z -0.5 I 13.202002125 J -19.88967525 
G03 X 276.1875 Y 176.15017125 Z -0.5 I 1.671933375 J -1.57482225 
G03 X 276.328790625 Y 175.797085125 Z -0.5 I 0.51182775 J 0.0 
G03 X 276.9871875 Y 175.3109625 Z -0.5 I 1.715951625 J 1.635136125 
G02 X 277.714922625 Y 174.82087725 Z -0.5 I -1.5077385 J -3.02421825 
G02 X 278.78841 Y 173.72202 Z -0.5 I -6.85301475 J -7.768577625 
G02 X 279.468218625 Y 172.4472 Z -0.5 I -2.65642725 J -2.2352295 
G02 X 279.5299725 Y 171.14600625 Z -0.5 I -2.7122595 J -0.780784125 
G03 X 279.384695625 Y 170.188464375 Z -0.5 I 13.64991525 J -2.56073925 
G03 X 279.445552875 Y 169.963654125 Z -0.5 I 0.311800875 J -0.036235875 
G03 X 279.64005225 Y 169.877021625 Z -0.5 I 0.17517675 J 0.1316385 
G03 X 280.40128875 Y 169.98650625 Z -0.5 I -0.621911625 J 7.0252485 
G02 X 281.4882735 Y 170.011781625 Z -0.5 I 0.615326625 J -3.076633875 
G02 X 282.22019625 Y 169.7099625 Z -0.5 I -0.250117125 J -1.644922875 
G02 X 282.578857125 Y 169.121073375 Z -0.5 I -0.53216775 J -0.727780125 
G02 X 282.45391125 Y 168.21093375 Z -0.5 I -1.58136225 J -0.2465535 
G03 X 282.088176 Y 167.320801875 Z -0.5 I 11.6233035 J -5.29595475 
G03 X 282.10104675 Y 167.00077875 Z -0.5 I 0.393103875 J -0.144460875 
G03 X 282.33072825 Y 166.75530075 Z -0.5 I 0.485707125 J 0.224262 
G03 X 283.37238375 Y 166.22170125 Z -0.5 I 10.933611375 J 20.060314875 
G02 X 285.1125735 Y 164.695686375 Z -0.5 I -1.864218 J -3.881079 
G02 X 285.089445 Y 163.59375 Z -0.5 I -0.81736725 J -0.534055125 
G03 X 284.624163375 Y 162.752014125 Z -0.5 I 3.386809875 J -2.42157225 
G03 X 283.85970375 Y 160.59529125 Z -0.5 I 21.804201 J -8.9424345 
G03 X 283.70234325 Y 159.075533625 Z -0.5 I 3.896076 J -1.171438125 
G03 X 284.061105 Y 158.25154125 Z -0.5 I 1.40243175 J 0.12051375 
G03 X 284.794126125 Y 157.619184375 Z -0.5 I 2.915126625 J 2.638149375 
G03 X 285.1875 Y 157.5 Z -0.5 I 0.393373875 J 0.589582875 
G02 X 285.58087425 Y 157.380816375 Z -0.5 I 0.0 J -0.708772125 
G02 X 286.31388 Y 156.7484775 Z -0.5 I -2.182037625 J -3.27043125 
G02 X 286.670514375 Y 155.949918375 Z -0.5 I -1.04478375 J -0.945513375 
G02 X 286.50066375 Y 154.9672275 Z -0.5 I -1.822173 J -0.191074875 
G03 X 286.1353275 Y 153.90580575 Z -0.5 I 4.400253375 J -2.108131125 
G03 X 285.95027625 Y 152.4613725 Z -0.5 I 8.0203695 J -1.761586125 
G02 X 285.736663125 Y 151.102743375 Z -0.5 I -5.8710375 J 0.2269785 
G02 X 285.4997925 Y 150.85409625 Z -0.5 I -0.352708125 J 0.098853375 
G03 X 284.371123875 Y 149.865568875 Z -0.5 I 0.612733875 J -1.838202 
G03 X 283.697385 Y 147.16006875 Z -0.5 I 6.013567125 J -2.93417175 
G02 X 283.467779625 Y 144.5910015 Z -0.5 I -23.46514875 J 0.802359375 
G02 X 283.14439125 Y 143.34889875 Z -0.5 I -5.7536265 J 0.8348385 
G03 X 283.1092005 Y 142.246198875 Z -0.5 I 1.574371875 J -0.60215475 
G03 X 283.82006625 Y 141.17617875 Z -0.5 I 2.18227425 J 0.678648375 
G02 X 284.840417625 Y 140.137166625 Z -0.5 I -4.944552 J -5.876266875 
G02 X 285.1927275 Y 139.48353 Z -0.5 I -1.550876625 J -1.25768775 
G03 X 285.555882375 Y 138.8594805 Z -0.5 I 1.578898125 J 0.50112225 
G03 X 285.804883125 Y 138.801546 Z -0.5 I 0.167256375 J 0.154795875 
G03 X 286.053053625 Y 139.014921 Z -0.5 I -0.1743945 J 0.45384075 
G03 X 286.4554575 Y 139.96875 Z -0.5 I -3.817088625 J 2.172161625 
G01 X 286.8073575 Y 141.1875 Z -0.5 
G01 X 286.8411825 Y 140.11251375 Z -0.5 
G03 X 287.15195325 Y 139.41046725 Z -0.5 I 1.020931125 J 0.032122875 
G03 X 287.71875375 Y 139.26364125 Z -0.5 I 0.4130265 J 0.42699 
G02 X 288.567526875 Y 139.453258875 Z -0.5 I 2.677917375 J -9.992530125 
G02 X 289.0059825 Y 139.49488125 Z -0.5 I 0.469085625 J -2.61122175 
G03 X 289.33606425 Y 139.652206125 Z -0.5 I -0.00536475 J 0.43618875 
G03 X 289.7114325 Y 140.34375 Z -0.5 I -1.551510375 J 1.28980275 
G02 X 291.03995775 Y 143.050957125 Z -0.5 I 9.317734125 J -2.892970875 
G02 X 291.64616625 Y 143.10384 Z -0.5 I 0.32530275 J -0.228027 
G02 X 291.678084 Y 142.9051305 Z -0.5 I -0.121421625 J -0.121421625 
G02 X 291.04275375 Y 141.906675 Z -0.5 I -5.30204475 J 2.67239775 
G03 X 290.349059625 Y 140.752296375 Z -0.5 I 4.231131 J -3.3282075 
G03 X 290.29728 Y 140.165587125 Z -0.5 I 0.837154875 J -0.369522 
G03 X 290.622528375 Y 139.697565375 Z -0.5 I 0.770107125 J 0.188155125 
G03 X 291.70852125 Y 139.18173375 Z -0.5 I 2.222900625 J 3.278828625 
G02 X 292.963267125 Y 138.507396 Z -0.5 I -1.018641 J -3.39992025 
G02 X 293.77929375 Y 137.45452125 Z -0.5 I -1.988068125 J -2.383511625 
G03 X 294.528709125 Y 136.2792465 Z -0.5 I 5.06718225 J 2.404524375 
G03 X 295.50827625 Y 135.36910875 Z -0.5 I 3.973382625 J 3.29427525 
G02 X 296.438813625 Y 134.4786345 Z -0.5 I -2.591740125 J -3.639783375 
G02 X 296.6212575 Y 133.94321625 Z -0.5 I -0.679386375 J -0.53029425 
G03 X 296.695642125 Y 133.324036125 Z -0.5 I 2.50167525 J -0.01352175 
G03 X 297.45735 Y 130.59375 Z -0.5 I 49.938238125 J 12.460606125 
G03 X 298.508033625 Y 128.1608085 Z -0.5 I 11.739115875 J 3.62627925 
G03 X 298.99859625 Y 127.875 Z -0.5 I 0.490562625 J 0.27809775 
G02 X 299.62310625 Y 127.689356625 Z -0.5 I 0.0 J -1.1432565 
G02 X 301.01502375 Y 126.55998 Z -0.5 I -4.726984875 J -7.248279 
G02 X 302.01104175 Y 125.15676075 Z -0.5 I -3.635886375 J -3.635886375 
G02 X 302.0968125 Y 124.31569125 Z -0.5 I -1.11805875 J -0.538926 
G03 X 302.63990625 Y 122.52780075 Z -0.5 I 1.760139375 J -0.441766875 
G03 X 304.81798875 Y 121.85544375 Z -0.5 I 1.811227125 J 2.00332275 
G02 X 305.2813455 Y 121.788390375 Z -0.5 I 0.115074375 J -0.839290125 
G02 X 305.97830625 Y 121.332135 Z -0.5 I -1.10258175 J -2.44472325 
G03 X 306.71045025 Y 120.95206575 Z -0.5 I 1.089918375 J 1.20434175 
G03 X 308.32011 Y 120.8033325 Z -0.5 I 1.373895375 J 6.0843255 
G02 X 310.327882125 Y 120.3317625 Z -0.5 I 0.146926875 J -3.88440225 
G02 X 310.87500375 Y 119.41027875 Z -0.5 I -0.5024385 J -0.92148375 
G03 X 310.99224525 Y 118.523427 Z -0.5 I 3.412837875 J 0.0 
G03 X 311.31024375 Y 117.7928925 Z -0.5 I 2.6142915 J 0.70351125 
G02 X 311.442105375 Y 117.095255625 Z -0.5 I -0.82957425 J -0.518079375 
G02 X 310.93524375 Y 115.78497 Z -0.5 I -3.76451175 J 0.703059 
G03 X 310.253048625 Y 114.437241375 Z -0.5 I 7.56816975 J -4.67738775 
G03 X 310.12134 Y 113.76823875 Z -0.5 I 1.680984 J -0.678406875 
G02 X 309.553307625 Y 111.471495 Z -0.5 I -5.032695375 J 0.026074875 
G02 X 307.07814 Y 107.918895 Z -0.5 I -14.95330575 J 7.7797185 
G02 X 305.69829075 Y 106.664045625 Z -0.5 I -7.24041825 J 6.575587125 
G02 X 302.70658125 Y 104.64706875 Z -0.5 I -21.932824125 J 29.304934125 
G02 X 299.484384 Y 103.079808 Z -0.5 I -10.181582625 J 16.836786375 
G02 X 296.161785 Y 102.1721925 Z -0.5 I -6.430626375 J 17.00574825 
G02 X 290.73993075 Y 101.857014375 Z -0.5 I -4.090632 J 23.576808375 
G02 X 287.871405 Y 102.63412125 Z -0.5 I 0.39862425 J 7.1542695 
G03 X 286.89494025 Y 103.019125125 Z -0.5 I -2.448562125 J -4.779374625 
G03 X 286.659607875 Y 103.005235125 Z -0.5 I -0.097821 J -0.343173 
G03 X 286.579004625 Y 102.8479065 Z -0.5 I 0.052762125 J -0.1263435 
G03 X 286.793707875 Y 102.37053075 Z -0.5 I 1.3198605 J 0.30664725 
G03 X 287.671908 Y 101.39917275 Z -0.5 I 4.534108125 J 3.216598125 
G03 X 289.87500375 Y 99.80985375 Z -0.5 I 9.646962375 J 11.050894875 
G03 X 291.64906425 Y 99.13331175 Z -0.5 I 2.88286425 J 4.8952995 
G03 X 294.8778075 Y 98.81428875 Z -0.5 I 3.237700125 J 16.269745125 
G02 X 297.948965625 Y 98.409133875 Z -0.5 I -0.006894375 J -11.894845125 
G02 X 298.73353125 Y 97.78125 Z -0.5 I -0.323817 J -1.20873675 
G03 X 299.458411875 Y 97.054914375 Z -0.5 I 1.529455875 J 0.801509625 
G03 X 300.6918225 Y 96.75 Z -0.5 I 1.233410625 J 2.342181 
G03 X 302.997841875 Y 97.562200875 Z -0.5 I 0.0 J 3.679751625 
G03 X 304.18918875 Y 99.5625 Z -0.5 I -2.091181875 J 2.6003985 
G02 X 304.540981875 Y 100.0597305 Z -0.5 I 0.711013875 J -0.129982875 
G02 X 305.5372425 Y 100.334565 Z -0.5 I 1.03417125 J -1.80570375 
G03 X 306.65166225 Y 100.57309425 Z -0.5 I -0.05432325 J 2.976375 
G03 X 307.51370625 Y 101.178315 Z -0.5 I -0.99817725 J 2.3382855 
G02 X 308.808021375 Y 101.809416 Z -0.5 I 1.467772125 J -1.367435625 
G02 X 310.50000375 Y 101.4375 Z -0.5 I 0.25105125 J -2.89255875 
G03 X 312.471823125 Y 100.917496125 Z -0.5 I 1.95753975 J 3.424353 
G03 X 314.65407375 Y 101.4525375 Z -0.5 I -0.0173355 J 4.788553125 
G02 X 315.802189125 Y 101.817124875 Z -0.5 I 1.637506125 J -3.166594125 
G02 X 317.0669175 Y 101.78693625 Z -0.5 I 0.5397615 J -3.8946285 
G03 X 318.318121875 Y 101.799028875 Z -0.5 I 0.595008 J 3.171607125 
G03 X 319.702905 Y 102.3344025 Z -0.5 I -0.9238395 J 4.448187375 
G02 X 321.949676625 Y 103.08037275 Z -0.5 I 2.85230025 J -4.834293 
G02 X 323.609475 Y 102.75831375 Z -0.5 I 0.3088605 J -2.846311125 
G03 X 324.327528375 Y 102.51358575 Z -0.5 I 1.1034345 J 2.061792 
G03 X 326.2098225 Y 102.32383875 Z -0.5 I 2.396722125 J 14.344473375 
G02 X 327.853773375 Y 101.994253875 Z -0.5 I -0.183310875 J -5.179104 
G02 X 328.12500375 Y 101.60221125 Z -0.5 I -0.1477185 J -0.392042625 
G02 X 327.527097375 Y 100.72291125 Z -0.5 I -0.945516 J 0.0 
G02 X 324.38831625 Y 100.12500375 Z -0.5 I -3.138781125 J 7.9397325 
G03 X 323.073265875 Y 99.885408375 Z -0.5 I 0.0 J -3.728712 
G03 X 319.66302375 Y 98.344035 Z -0.5 I 10.307940375 J -27.349220625 
G01 X 316.31250375 Y 96.56307 Z -0.5 
G01 X 310.87500375 Y 96.52587 Z -0.5 
G03 X 305.481754125 Y 96.251740875 Z -0.5 I 0.420316125 J -61.4601045 
G03 X 303.75000375 Y 95.8488825 Z -0.5 I 0.630181875 J -6.632470125 
G02 X 300.719667375 Y 95.581910625 Z -0.5 I -1.989132 J 5.24637225 
G02 X 298.39750875 Y 96.85971 Z -0.5 I 0.790414125 J 4.18536975 
G03 X 297.12858075 Y 97.6544115 Z -0.5 I -2.1286425 J -1.988456625 
G03 X 294.43042125 Y 98.08513875 Z -0.5 I -2.863090875 J -9.26869875 
G02 X 290.28086625 Y 99.0955635 Z -0.5 I 0.164989875 J 9.70336125 
G02 X 285.56250375 Y 102.48652875 Z -0.5 I 7.986191625 J 16.09056375 
G03 X 282.757258125 Y 104.672487 Z -0.5 I -10.19756025 J -10.19358525 
G03 X 281.18857125 Y 105.09837375 Z -0.5 I -1.544262375 J -2.586100125 
G03 X 279.035493375 Y 104.67042 Z -0.5 I 0.047527125 J -5.8692645 
G03 X 278.62500375 Y 104.06161875 Z -0.5 I 0.246214875 J -0.60880125 
G02 X 278.4868155 Y 103.61375925 Z -0.5 I -0.7948365 J 0.0 
G02 X 277.9367475 Y 103.0524975 Z -0.5 I -1.846134375 J 1.259135625 
G03 X 277.404742875 Y 102.461477625 Z -0.5 I 1.060509 J -1.4895645 
G03 X 277.02550875 Y 101.437485 Z -0.5 I 3.002967 J -1.6943655 
G02 X 276.768886875 Y 100.322253375 Z -0.5 I -18.405472875 J 3.648076125 
G02 X 276.57826875 Y 99.7334325 Z -0.5 I -5.30865975 J 1.393299375 
G03 X 276.724153125 Y 99.356099625 Z -0.5 I 0.280222875 J -0.108527625 
G03 X 278.7082575 Y 98.66894625 Z -0.5 I 3.618892875 J 7.241232 
G02 X 281.40847125 Y 97.508220375 Z -0.5 I -1.47452025 J -7.15133475 
G02 X 282.0 Y 96.375 Z -0.5 I -0.7897185 J -1.133220375 
G03 X 282.172647 Y 95.4229095 Z -0.5 I 2.7115545 J 0.0 
G03 X 282.5625 Y 94.875 Z -0.5 I 1.226199375 J 0.459824625 
G02 X 282.917429625 Y 93.791449125 Z -0.5 I -0.683758125 J -0.82387875 
G02 X 281.8125 Y 91.875 Z -0.5 I -3.90980475 J 0.977451375 
G03 X 280.95036375 Y 90.425405625 Z -0.5 I 2.245265625 J -2.316528 
G03 X 281.25846375 Y 89.88913125 Z -0.5 I 0.4178535 J -0.116577 
G02 X 281.7786585 Y 89.503662375 Z -0.5 I -0.21973875 J -0.840279 
G02 X 282.03446625 Y 88.626645 Z -0.5 I -1.473185625 J -0.905512875 
G03 X 282.1169385 Y 85.9758 Z -0.5 I 90.688823625 J 1.4947785 
G03 X 282.3021885 Y 85.1752995 Z -0.5 I 2.2712325 J 0.1039185 
G03 X 282.791822625 Y 84.601329 Z -0.5 I 1.181970375 J 0.512466375 
G03 X 284.11084875 Y 83.83759875 Z -0.5 I 9.635062875 J 15.1196655 
G02 X 285.9714045 Y 82.658637 Z -0.5 I -6.20048325 J -11.842755375 
G02 X 286.751053125 Y 81.729058875 Z -0.5 I -1.635256125 J -2.163249 
G02 X 287.06863725 Y 80.544559125 Z -0.5 I -2.615242875 J -1.336015125 
G02 X 287.02201875 Y 78.13900125 Z -0.5 I -16.93702425 J -0.874999125 
G02 X 286.407384 Y 75.519328875 Z -0.5 I -9.59642325 J 0.869599875 
G02 X 285.65597625 Y 74.622645 Z -0.5 I -1.697826 J 0.659576625 
G02 X 284.497936875 Y 74.085309375 Z -0.5 I -2.968955625 J 4.88200575 
G02 X 282.8987475 Y 73.70128875 Z -0.5 I -3.00561825 J 8.99460225 
G03 X 281.659872 Y 73.101052875 Z -0.5 I 0.3428445 J -2.28624975 
G03 X 281.25 Y 72.15453 Z -0.5 I 0.887972625 J -0.946522875 
G02 X 280.26516075 Y 69.439384125 Z -0.5 I -4.2351705 J 0.0 
G02 X 277.927545 Y 68.1771825 Z -0.5 I -2.749908375 J 2.297120625 
G03 X 277.201962 Y 67.81931025 Z -0.5 I 0.13844475 J -1.19518875 
G03 X 276.90789 Y 67.125 Z -0.5 I 0.750506625 J -0.727305 
G02 X 276.54493425 Y 63.999538125 Z -0.5 I -18.732872625 J 0.591618 
G02 X 276.07248 Y 62.996385 Z -0.5 I -2.281382625 J 0.46162875 
G02 X 275.2607205 Y 62.498993625 Z -0.5 I -1.108021875 J 0.89722425 
G02 X 273.41542875 Y 62.43193875 Z -0.5 I -1.1145105 J 5.246412375 
G02 X 270.580653 Y 63.692049375 Z -0.5 I 0.76049925 J 5.5294845 
G02 X 267.7467975 Y 67.2055425 Z -0.5 I 7.611824625 J 9.039009 
G03 X 265.914728625 Y 69.6122145 Z -0.5 I -8.18303475 J -4.32863775 
G03 X 265.0761075 Y 69.7238325 Z -0.5 I -0.496873125 J -0.5269425 
G02 X 264.401587875 Y 69.465606 Z -0.5 I -1.358344875 J 2.5380885 
G02 X 263.6496525 Y 69.375 Z -0.5 I -0.751935375 J 3.074833125 
G03 X 263.184347625 Y 68.908432875 Z -0.5 I 0.0 J -0.465306375 
G03 X 263.659365 Y 65.78949375 Z -0.5 I 10.66661775 J 0.028893375 
G02 X 263.970668625 Y 62.317564875 Z -0.5 I -7.982985 J -2.465698875 
G02 X 262.91019 Y 59.61408 Z -0.5 I -5.756598 J 0.698367375 
G03 X 261.830563875 Y 58.058053125 Z -0.5 I 37.71361575 J -27.319587375 
G03 X 261.6793875 Y 57.760815 Z -0.5 I 1.20281475 J -0.798819375 
G02 X 261.46560225 Y 57.567726375 Z -0.5 I -0.29168625 J 0.10805625 
G02 X 259.45575 Y 57.18560625 Z -0.5 I -3.928786125 J 15.18768975 
G02 X 257.490443625 Y 57.315603 Z -0.5 I -0.64226175 J 5.21107275 
G02 X 256.35028125 Y 57.99422625 Z -0.5 I 0.600422625 J 2.3058885 
G02 X 255.48329625 Y 59.13368775 Z -0.5 I 5.169117375 J 4.83260325 
G02 X 255.12306 Y 60.0 Z -0.5 I 2.591914875 J 1.58584275 
G03 X 254.746411125 Y 60.852789375 Z -0.5 I -2.5744245 J -0.627466875 
G03 X 253.72852875 Y 62.07049875 Z -0.5 I -6.369708 J -4.290156375 
G02 X 252.623227125 Y 63.250898625 Z -0.5 I 11.9384805 J 12.286635 
G02 X 252.13204125 Y 63.94549875 Z -0.5 I 3.610098375 J 3.073848 
G03 X 251.733295875 Y 64.118143875 Z -0.5 I -0.31615875 J -0.183409875 
G03 X 251.2891875 Y 63.75 Z -0.5 I 0.14555625 J -0.627537 
G02 X 250.8365985 Y 62.83533825 Z -0.5 I -10.36653225 J 4.560218625 
G02 X 250.409055 Y 62.15625 Z -0.5 I -6.130162125 J 3.385323375 
G03 X 250.194910875 Y 61.4982885 Z -0.5 I 0.939492 J -0.6696015 
G03 X 250.3958175 Y 60.84375 Z -0.5 I 1.129542 J -0.011397 
G02 X 252.716379375 Y 56.54898975 Z -0.5 I -18.227336625 J -12.622975125 
G02 X 253.39332375 Y 53.44812 Z -0.5 I -8.686258125 J -3.52060425 
G02 X 253.433859 Y 44.60550375 Z -0.5 I -109.864600875 J -4.925028375 
G02 X 253.0654575 Y 44.25 Z -0.5 I -0.3684015 J 0.01313175 
G03 X 252.605373375 Y 43.880872875 Z -0.5 I 0.0 J -0.471290625 
G03 X 251.233515 Y 36.0 Z -0.5 I 84.616791 J -18.789457875 
G02 X 249.095622375 Y 20.5537275 Z -0.5 I -681.604564125 J 86.468657625 
G02 X 248.58061125 Y 18.3130875 Z -0.5 I -14.77016625 J 2.215414875 
G02 X 245.215144125 Y 13.909462875 Z -0.5 I -7.72235475 J 2.41396425 
G02 X 230.8125075 Y 6.9581025 Z -0.5 I -36.274993875 J 56.7625395 
G02 X 222.566048625 Y 4.57630275 Z -0.5 I -28.157448 J 82.022303625 
G02 X 210.8273865 Y 2.154442125 Z -0.5 I -48.790725 J 206.82736125 
G02 X 198.910642125 Y 0.41409825 Z -0.5 I -34.726870875 J 196.11784575 
G02 X 191.88705 Y 0.06551625 Z -0.5 I -6.181633125 J 53.620340625 
G02 X 189.374919375 Y 0.17866125 Z -0.5 I 0.66709275 J 42.755929875 
G02 X 189.3750075 Y 0.25280625 Z -0.5 I 0.00276375 J 0.037069125 
G03 X 201.812131875 Y 1.5493155 Z -0.5 I -14.13901275 J 195.933948375 
G03 X 215.2500075 Y 3.78582375 Z -0.5 I -31.5417555 J 231.004471125 
G03 X 236.4830805 Y 9.870108 Z -0.5 I -25.116895875 J 127.745481 
G03 X 245.1322575 Y 15.170235 Z -0.5 I -9.776124375 J 25.660750875 
G03 X 247.419446625 Y 18.106270875 Z -0.5 I -7.235176125 J 7.995128625 
G03 X 248.391855 Y 21.30553875 Z -0.5 I -7.68641325 J 4.083678375 
G01 X 248.59542375 Y 23.29858125 Z -0.5 
G01 X 246.4539675 Y 21.473925 Z -0.5 
G02 X 242.250165 Y 18.445757625 Z -0.5 I -20.651593875 J 24.237216375 
G02 X 236.62470375 Y 15.54444375 Z -0.5 I -24.5494485 J 40.69544175 
G02 X 219.477492375 Y 10.220132625 Z -0.5 I -33.022245375 J 76.07591775 
G02 X 185.4375075 Y 5.561685 Z -0.5 I -58.12878825 J 298.05899325 
G02 X 178.476136125 Y 5.223201375 Z -0.5 I -8.969773125 J 112.721264625 
G02 X 161.7618675 Y 5.0728305 Z -0.5 I -16.933990125 J 953.27170875 
G02 X 144.99971175 Y 5.21834625 Z -0.5 I -0.21675075 J 940.53118425 
G02 X 138.5625075 Y 5.550885 Z -0.5 I 1.666836 J 94.7374035 
G02 X 118.543002 Y 7.783953375 Z -0.5 I 33.84866475 J 394.30818525 
G02 X 105.20748375 Y 10.1336175 Z -0.5 I 24.341647125 J 177.168709125 
G02 X 85.9989555 Y 15.658182 Z -0.5 I 31.088563875 J 144.248428875 
G02 X 77.83039125 Y 20.05972875 Z -0.5 I 10.840175625 J 29.89817025 
G01 X 74.625 Y 22.449465 Z -0.5 
G01 X 74.62725 Y 21.2559825 Z -0.5 
G03 X 75.497745375 Y 17.889732 Z -0.5 I 6.991261125 J 0.012226875 
G03 X 78.49450125 Y 14.388711375 Z -0.5 I 9.97731675 J 5.507176125 
G03 X 82.718230125 Y 11.804578875 Z -0.5 I 13.789657875 J 17.795125125 
G03 X 91.3126575 Y 8.32624875 Z -0.5 I 36.29604825 J 77.325111 
G03 X 108.46407075 Y 3.7581885 Z -0.5 I 41.1624075 J 120.067244625 
G03 X 132.3751575 Y 0.41554875 Z -0.5 I 44.427703875 J 230.61354075 
G01 X 135.9376575 Y 0.10314 Z -0.5 
G01 X 132.0001575 Y 0.0922275 Z -0.5 
G02 X 128.070122625 Y 0.205384125 Z -0.5 I -0.17262825 J 62.3079735 
G02 X 124.1251575 Y 0.567975 Z -0.5 I 3.81510225 J 63.149824875 
G01 X 124.125 Y 0.56798625 Z -0.5 
G00 Z 5.0 

(End cutting path id: path567)



(Start cutting path id: path567)

(Simple flower pattern. 178x[196*#10+#6]mm)

(Change tool to Cone cutter)


G00 Z 5.0 
G00 X 114.28198125 Y 12.84375 

G01 Z -0.5 F 1000.0 
G03 X 114.478068375 Y 13.3659105 Z -0.5 I -0.706020375 J 0.563030625 F 1000.0 
G03 X 114.42165 Y 15.9266925 Z -0.5 I -19.023955875 J 0.861882375 
G01 X 114.1875 Y 18.540885 Z -0.5 
G01 X 112.6875 Y 18.99162375 Z -0.5 
G03 X 111.175621125 Y 19.3697685 Z -0.5 I -4.79131575 J -15.94496025 
G03 X 110.3005425 Y 19.47118125 Z -0.5 I -1.04784675 J -5.215563 
G03 X 109.82000175 Y 19.125689625 Z -0.5 I -0.015763875 J -0.485009625 
G03 X 109.661925 Y 17.34375 Z -0.5 I 4.246339125 J -1.274676 
G03 X 110.5620615 Y 13.817080125 Z -0.5 I 13.409772 J 1.54446075 
G03 X 111.4954425 Y 12.82077375 Z -0.5 I 1.75998675 J 0.713459625 
G03 X 113.369452125 Y 12.39966 Z -0.5 I 1.839169125 J 3.80419125 
G03 X 114.28198125 Y 12.84376125 Z -0.5 I -0.009726375 J 1.179558 
G01 X 114.28198125 Y 12.84375 Z -0.5 
G00 Z 5.0 

(End cutting path id: path567)



(Start cutting path id: path567)

(Simple flower pattern. 178x[196*#10+#6]mm)

(Change tool to Cone cutter)


G00 Z 5.0 
G00 X 109.125 Y 16.1005875 

G01 Z -0.5 F 1000.0 
G03 X 108.9622665 Y 18.05947875 Z -0.5 I -11.87136525 J 0.0 F 1000.0 
G03 X 108.5627985 Y 18.848004 Z -0.5 I -1.460214375 J -0.244298625 
G03 X 107.782775625 Y 19.29064725 Z -0.5 I -1.15228725 J -1.121954625 
G03 X 105.68709375 Y 19.6314375 Z -0.5 I -3.397831875 J -14.280825375 
G02 X 97.273780125 Y 21.09799425 Z -0.5 I 4.5276405 J 50.840016 
G02 X 89.1212925 Y 23.97339 Z -0.5 I 13.2597015 J 50.5895715 
G03 X 86.759998875 Y 24.947358375 Z -0.5 I -17.08470375 J -38.07089025 
G03 X 86.066673375 Y 25.086148125 Z -0.5 I -0.76853475 J -2.038069875 
G03 X 85.694767125 Y 24.83358 Z -0.5 I -0.013153875 J -0.380730375 
G03 X 85.6376325 Y 24.09375 Z -0.5 I 1.328919375 J -0.474749625 
G02 X 85.822668375 Y 23.060419875 Z -0.5 I -43.783374 J -8.373407625 
G02 X 86.0601975 Y 21.5625 Z -0.5 I -91.763713125 J -15.319015875 
G01 X 86.2855425 Y 20.0625 Z -0.5 
G01 X 90.29902125 Y 18.46161 Z -0.5 
G03 X 99.479447625 Y 15.596592 Z -0.5 I 23.148435 J 58.033919625 
G03 X 106.78125 Y 14.68118625 Z -0.5 I 8.178585 J 35.657706 
G01 X 109.125 Y 14.625 Z -0.5 
G01 X 109.125 Y 16.1005875 Z -0.5 
G00 Z 5.0 

(End cutting path id: path567)



(Start cutting path id: path567)

(Simple flower pattern. 178x[196*#10+#6]mm)

(Change tool to Cone cutter)


G00 Z 5.0 
G00 X 106.04936625 Y 20.289405 

G01 Z -0.5 F 1000.0 
G03 X 105.8407995 Y 20.51628825 Z -0.5 I -0.35722125 J -0.119076375 F 1000.0 
G03 X 103.325339625 Y 21.516801 Z -0.5 I -19.59562725 J -45.6043425 
G03 X 100.8060525 Y 22.370062875 Z -0.5 I -18.512700375 J -50.51365875 
G03 X 100.03125 Y 22.49497875 Z -0.5 I -0.82430025 J -2.647450125 
G03 X 99.61527 Y 21.971604 Z -0.5 I -0.00750825 J -0.421030875 
G03 X 100.378155 Y 21.110415 Z -0.5 I 1.209662625 J 0.30308475 
G03 X 102.99285525 Y 20.31854025 Z -0.5 I 6.77168925 J 17.646825 
G03 X 105.68749875 Y 19.91342625 Z -0.5 I 4.135580625 J 18.343740375 
G03 X 105.990477 Y 20.028817875 Z -0.5 I 0.029143125 J 0.378934125 
G03 X 106.04936625 Y 20.289405 Z -0.5 I -0.1859625 J 0.1789725 
G01 X 106.04936625 Y 20.289405 Z -0.5 
G00 Z 5.0 

(End cutting path id: path567)



(Start cutting path id: path567)

(Simple flower pattern. 178x[196*#10+#6]mm)

(Change tool to Cone cutter)


G00 Z 5.0 
G00 X 99.03633375 Y 22.03125 

G01 Z -0.5 F 1000.0 
G03 X 98.883311625 Y 27.094749375 Z -0.5 I -29.60764275 J 1.639300125 F 1000.0 
G03 X 98.322945 Y 28.167765 Z -0.5 I -1.681921125 J -0.195529125 
G03 X 97.916362125 Y 28.393610625 Z -0.5 I -0.7156335 J -0.80943075 
G03 X 96.205941375 Y 28.843174875 Z -0.5 I -7.649195625 J -25.6237485 
